(G-CODE GENERATED BY FLATCAM v8.994 - www.flatcam.org - Version Date: 2020/11/7)

(Name: csipesz_jelzo_receiver_copperB.gbl_iso_combined_cnc)
(Type: G-code from Geometry)
(Units: MM)

(Created on Tuesday, 03 August 2021 at 17:57)

;TOOL DIAMETER: 0.1 mm
;Feedrate_XY: 120.0 mm/min
;Feedrate_Z: 60.0 mm/min
;Feedrate rapids 1500.0 mm/min

;Z_Cut: 0.2855 mm
;Z_Move: 2.0 mm
;Z Start: None mm
;Z End: 15.0 mm
;X,Y End: None mm
(Steps per circle: 64)
;Steps per circle: 64
;Preprocessor Geometry: Marlin

;X range:    2.6264 ...   42.6873  mm
;Y range:    2.6264 ...   17.2873  mm

;Spindle Speed: 0.0 RPM)
G21
G90

G1 F120.00

M5
G0 Z15.0000
G0 X0.0000 Y0.0000
T1
M6    
;MSG, Change to Tool Dia = 0.1000
M0
G0 Z15.0000

M3
G1 F120.00
G0 X5.0889 Y3.3121 F1500.00
G1 F60.00
G1 Z0.2855 F60.00
G1 F120.00
G1 X36.9570 Y3.3121 F120.00
G1 X36.9727 Y3.3124 F120.00
G1 X37.0026 Y3.3139 F120.00
G1 X37.0183 Y3.3151 F120.00
G1 X37.0338 Y3.3170 F120.00
G1 X37.0634 Y3.3214 F120.00
G1 X37.0789 Y3.3241 F120.00
G1 X37.0942 Y3.3275 F120.00
G1 X37.1233 Y3.3348 F120.00
G1 X37.1384 Y3.3390 F120.00
G1 X37.1533 Y3.3439 F120.00
G1 X37.1815 Y3.3540 F120.00
G1 X37.2034 Y3.3627 F120.00
G1 X37.2376 Y3.3788 F120.00
G1 X37.2516 Y3.3858 F120.00
G1 X37.2653 Y3.3936 F120.00
G1 X37.2909 Y3.4090 F120.00
G1 X37.3107 Y3.4218 F120.00
G1 X37.3411 Y3.4442 F120.00
G1 X37.3535 Y3.4539 F120.00
G1 X37.3654 Y3.4642 F120.00
G1 X37.3875 Y3.4843 F120.00
G1 X37.4044 Y3.5007 F120.00
G1 X37.4350 Y3.5345 F120.00
G1 X37.4498 Y3.5529 F120.00
G1 X37.4676 Y3.5770 F120.00
G1 X37.4766 Y3.5898 F120.00
G1 X37.4850 Y3.6031 F120.00
G1 X37.5044 Y3.6355 F120.00
G1 X37.5152 Y3.6564 F120.00
G1 X37.5280 Y3.6835 F120.00
G1 X37.5344 Y3.6978 F120.00
G1 X37.5400 Y3.7125 F120.00
G1 X37.5501 Y3.7407 F120.00
G1 X37.5572 Y3.7631 F120.00
G1 X37.5665 Y3.7998 F120.00
G1 X37.5699 Y3.8151 F120.00
G1 X37.5726 Y3.8306 F120.00
G1 X37.5770 Y3.8602 F120.00
G1 X37.5789 Y3.8757 F120.00
G1 X37.5801 Y3.8914 F120.00
G1 X37.5816 Y3.9213 F120.00
G1 X37.5819 Y3.9370 F120.00
G1 X37.5820 Y5.3251 F120.00
G1 X37.6719 Y5.3789 F120.00
G1 X37.6851 Y5.3873 F120.00
G1 X37.6980 Y5.3963 F120.00
G1 X37.7761 Y5.4542 F120.00
G1 X37.7884 Y5.4639 F120.00
G1 X37.8003 Y5.4742 F120.00
G1 X37.8724 Y5.5394 F120.00
G1 X37.8837 Y5.5503 F120.00
G1 X37.8946 Y5.5616 F120.00
G1 X37.9598 Y5.6337 F120.00
G1 X37.9701 Y5.6456 F120.00
G1 X37.9798 Y5.6579 F120.00
G1 X38.0377 Y5.7360 F120.00
G1 X38.0467 Y5.7489 F120.00
G1 X38.0551 Y5.7621 F120.00
G1 X38.1051 Y5.8455 F120.00
G1 X38.1128 Y5.8592 F120.00
G1 X38.1199 Y5.8732 F120.00
G1 X38.1615 Y5.9611 F120.00
G1 X38.1678 Y5.9755 F120.00
G1 X38.1735 Y5.9901 F120.00
G1 X38.2062 Y6.0816 F120.00
G1 X38.2112 Y6.0966 F120.00
G1 X38.2154 Y6.1117 F120.00
G1 X38.2390 Y6.2060 F120.00
G1 X38.2424 Y6.2213 F120.00
G1 X38.2451 Y6.2368 F120.00
G1 X38.2594 Y6.3330 F120.00
G1 X38.2613 Y6.3485 F120.00
G1 X38.2624 Y6.3642 F120.00
G1 X38.2675 Y6.4691 F120.00
G1 X38.2672 Y6.4927 F120.00
G1 X38.2624 Y6.5898 F120.00
G1 X38.2613 Y6.6055 F120.00
G1 X38.2594 Y6.6210 F120.00
G1 X38.2451 Y6.7172 F120.00
G1 X38.2424 Y6.7327 F120.00
G1 X38.2390 Y6.7480 F120.00
G1 X38.2154 Y6.8423 F120.00
G1 X38.2112 Y6.8574 F120.00
G1 X38.2062 Y6.8724 F120.00
G1 X38.1735 Y6.9639 F120.00
G1 X38.1678 Y6.9785 F120.00
G1 X38.1615 Y6.9929 F120.00
G1 X38.1199 Y7.0808 F120.00
G1 X38.1128 Y7.0948 F120.00
G1 X38.1051 Y7.1085 F120.00
G1 X38.0551 Y7.1919 F120.00
G1 X38.0467 Y7.2051 F120.00
G1 X38.0377 Y7.2180 F120.00
G1 X37.9750 Y7.3023 F120.00
G1 X37.9598 Y7.3203 F120.00
G1 X37.8946 Y7.3924 F120.00
G1 X37.8837 Y7.4037 F120.00
G1 X37.8724 Y7.4146 F120.00
G1 X37.8003 Y7.4798 F120.00
G1 X37.7884 Y7.4901 F120.00
G1 X37.7761 Y7.4998 F120.00
G1 X37.6980 Y7.5577 F120.00
G1 X37.6785 Y7.5710 F120.00
G1 X37.5885 Y7.6251 F120.00
G1 X37.5748 Y7.6328 F120.00
G1 X37.5608 Y7.6399 F120.00
G1 X37.4658 Y7.6847 F120.00
G1 X37.4439 Y7.6935 F120.00
G1 X37.3449 Y7.7288 F120.00
G1 X37.3223 Y7.7354 F120.00
G1 X37.2758 Y7.7470 F120.00
G1 X37.3223 Y7.7586 F120.00
G1 X37.3449 Y7.7652 F120.00
G1 X37.4513 Y7.8032 F120.00
G1 X37.4729 Y7.8125 F120.00
G1 X37.5678 Y7.8575 F120.00
G1 X37.5885 Y7.8689 F120.00
G1 X37.6719 Y7.9189 F120.00
G1 X37.6851 Y7.9273 F120.00
G1 X37.6980 Y7.9363 F120.00
G1 X37.7823 Y7.9990 F120.00
G1 X37.8003 Y8.0142 F120.00
G1 X37.8724 Y8.0794 F120.00
G1 X37.8837 Y8.0903 F120.00
G1 X37.8946 Y8.1016 F120.00
G1 X37.9598 Y8.1737 F120.00
G1 X37.9701 Y8.1856 F120.00
G1 X37.9798 Y8.1979 F120.00
G1 X38.0377 Y8.2760 F120.00
G1 X38.0467 Y8.2889 F120.00
G1 X38.0551 Y8.3021 F120.00
G1 X38.1076 Y8.3898 F120.00
G1 X42.0587 Y8.3667 F120.00
G1 X42.0734 Y8.3668 F120.00
G1 X42.1132 Y8.3688 F120.00
G1 X42.1258 Y8.3699 F120.00
G1 X42.1434 Y8.3721 F120.00
G1 X42.1740 Y8.3767 F120.00
G1 X42.1951 Y8.3809 F120.00
G1 X42.2252 Y8.3884 F120.00
G1 X42.2422 Y8.3931 F120.00
G1 X42.2543 Y8.3969 F120.00
G1 X42.2835 Y8.4073 F120.00
G1 X42.3000 Y8.4136 F120.00
G1 X42.3117 Y8.4186 F120.00
G1 X42.3397 Y8.4318 F120.00
G1 X42.3555 Y8.4397 F120.00
G1 X42.3666 Y8.4457 F120.00
G1 X42.4008 Y8.4662 F120.00
G1 X42.4114 Y8.4732 F120.00
G1 X42.4258 Y8.4834 F120.00
G1 X42.4507 Y8.5019 F120.00
G1 X42.4605 Y8.5099 F120.00
G1 X42.4739 Y8.5215 F120.00
G1 X42.4968 Y8.5424 F120.00
G1 X42.5058 Y8.5512 F120.00
G1 X42.5180 Y8.5641 F120.00
G1 X42.5387 Y8.5871 F120.00
G1 X42.5524 Y8.6037 F120.00
G1 X42.5709 Y8.6286 F120.00
G1 X42.5811 Y8.6430 F120.00
G1 X42.5880 Y8.6536 F120.00
G1 X42.6085 Y8.6878 F120.00
G1 X42.6146 Y8.6989 F120.00
G1 X42.6225 Y8.7147 F120.00
G1 X42.6356 Y8.7428 F120.00
G1 X42.6406 Y8.7544 F120.00
G1 X42.6544 Y8.7918 F120.00
G1 X42.6611 Y8.8122 F120.00
G1 X42.6711 Y8.8508 F120.00
G1 X42.6758 Y8.8718 F120.00
G1 X42.6820 Y8.9111 F120.00
G1 X42.6845 Y8.9325 F120.00
G1 X42.6869 Y8.9722 F120.00
G1 X42.6873 Y8.9958 F120.00
G1 X42.6365 Y16.6412 F120.00
G1 X42.6347 Y16.6826 F120.00
G1 X42.6334 Y16.6993 F120.00
G1 X42.6311 Y16.7180 F120.00
G1 X42.6259 Y16.7517 F120.00
G1 X42.6222 Y16.7701 F120.00
G1 X42.6138 Y16.8033 F120.00
G1 X42.6093 Y16.8194 F120.00
G1 X42.6034 Y16.8373 F120.00
G1 X42.5917 Y16.8694 F120.00
G1 X42.5878 Y16.8790 F120.00
G1 X42.5809 Y16.8943 F120.00
G1 X42.5623 Y16.9325 F120.00
G1 X42.5530 Y16.9489 F120.00
G1 X42.5352 Y16.9781 F120.00
G1 X42.5247 Y16.9937 F120.00
G1 X42.5044 Y17.0211 F120.00
G1 X42.4940 Y17.0343 F120.00
G1 X42.4817 Y17.0485 F120.00
G1 X42.4586 Y17.0737 F120.00
G1 X42.4453 Y17.0869 F120.00
G1 X42.4200 Y17.1098 F120.00
G1 X42.4072 Y17.1208 F120.00
G1 X42.3924 Y17.1323 F120.00
G1 X42.3648 Y17.1525 F120.00
G1 X42.3492 Y17.1629 F120.00
G1 X42.3199 Y17.1804 F120.00
G1 X42.3053 Y17.1887 F120.00
G1 X42.2885 Y17.1971 F120.00
G1 X42.2575 Y17.2115 F120.00
G1 X42.2479 Y17.2156 F120.00
G1 X42.2322 Y17.2215 F120.00
G1 X42.1920 Y17.2353 F120.00
G1 X42.1739 Y17.2403 F120.00
G1 X42.1407 Y17.2484 F120.00
G1 X42.1140 Y17.2533 F120.00
G1 X42.0801 Y17.2581 F120.00
G1 X42.0698 Y17.2592 F120.00
G1 X42.0531 Y17.2604 F120.00
G1 X42.0116 Y17.2619 F120.00
G1 X29.4879 Y17.2620 F120.00
G1 X29.4697 Y17.2668 F120.00
G1 X29.4395 Y17.2741 F120.00
G1 X29.4272 Y17.2766 F120.00
G1 X29.4097 Y17.2794 F120.00
G1 X29.3789 Y17.2837 F120.00
G1 X29.3664 Y17.2849 F120.00
G1 X29.3488 Y17.2861 F120.00
G1 X29.3108 Y17.2873 F120.00
G1 X9.0166 Y17.2619 F120.00
G1 X3.9370 Y17.2619 F120.00
G1 X3.9213 Y17.2616 F120.00
G1 X3.8914 Y17.2601 F120.00
G1 X3.8757 Y17.2589 F120.00
G1 X3.8602 Y17.2570 F120.00
G1 X3.8306 Y17.2526 F120.00
G1 X3.8151 Y17.2499 F120.00
G1 X3.7998 Y17.2465 F120.00
G1 X3.7707 Y17.2392 F120.00
G1 X3.7556 Y17.2350 F120.00
G1 X3.7407 Y17.2301 F120.00
G1 X3.7125 Y17.2200 F120.00
G1 X3.6978 Y17.2144 F120.00
G1 X3.6835 Y17.2080 F120.00
G1 X3.6494 Y17.1918 F120.00
G1 X3.6355 Y17.1844 F120.00
G1 X3.6031 Y17.1650 F120.00
G1 X3.5898 Y17.1566 F120.00
G1 X3.5770 Y17.1476 F120.00
G1 X3.5467 Y17.1250 F120.00
G1 X3.5345 Y17.1150 F120.00
G1 X3.5115 Y17.0943 F120.00
G1 X3.5007 Y17.0844 F120.00
G1 X3.4896 Y17.0733 F120.00
G1 X3.4642 Y17.0454 F120.00
G1 X3.4539 Y17.0335 F120.00
G1 X3.4442 Y17.0211 F120.00
G1 X3.4218 Y16.9907 F120.00
G1 X3.4131 Y16.9776 F120.00
G1 X3.3936 Y16.9453 F120.00
G1 X3.3822 Y16.9246 F120.00
G1 X3.3660 Y16.8905 F120.00
G1 X3.3596 Y16.8762 F120.00
G1 X3.3540 Y16.8615 F120.00
G1 X3.3413 Y16.8259 F120.00
G1 X3.3348 Y16.8033 F120.00
G1 X3.3257 Y16.7666 F120.00
G1 X3.3226 Y16.7512 F120.00
G1 X3.3170 Y16.7138 F120.00
G1 X3.3151 Y16.6983 F120.00
G1 X3.3139 Y16.6826 F120.00
G1 X3.3124 Y16.6527 F120.00
G1 X3.3121 Y16.6370 F120.00
G1 X3.3120 Y7.6289 F120.00
G1 X3.2221 Y7.5751 F120.00
G1 X3.2089 Y7.5667 F120.00
G1 X3.1960 Y7.5577 F120.00
G1 X3.1179 Y7.4998 F120.00
G1 X3.1056 Y7.4901 F120.00
G1 X3.0937 Y7.4798 F120.00
G1 X3.0216 Y7.4146 F120.00
G1 X3.0103 Y7.4037 F120.00
G1 X2.9994 Y7.3924 F120.00
G1 X2.9342 Y7.3203 F120.00
G1 X2.9239 Y7.3084 F120.00
G1 X2.9142 Y7.2961 F120.00
G1 X2.8563 Y7.2180 F120.00
G1 X2.8473 Y7.2051 F120.00
G1 X2.8389 Y7.1919 F120.00
G1 X2.7889 Y7.1085 F120.00
G1 X2.7812 Y7.0948 F120.00
G1 X2.7741 Y7.0808 F120.00
G1 X2.7325 Y6.9929 F120.00
G1 X2.7262 Y6.9785 F120.00
G1 X2.7205 Y6.9639 F120.00
G1 X2.6878 Y6.8724 F120.00
G1 X2.6828 Y6.8574 F120.00
G1 X2.6786 Y6.8423 F120.00
G1 X2.6550 Y6.7480 F120.00
G1 X2.6516 Y6.7327 F120.00
G1 X2.6489 Y6.7172 F120.00
G1 X2.6346 Y6.6210 F120.00
G1 X2.6327 Y6.6055 F120.00
G1 X2.6316 Y6.5898 F120.00
G1 X2.6268 Y6.4927 F120.00
G1 X2.6264 Y6.4770 F120.00
G1 X2.6268 Y6.4613 F120.00
G1 X2.6316 Y6.3642 F120.00
G1 X2.6327 Y6.3485 F120.00
G1 X2.6346 Y6.3330 F120.00
G1 X2.6489 Y6.2368 F120.00
G1 X2.6516 Y6.2213 F120.00
G1 X2.6550 Y6.2060 F120.00
G1 X2.6786 Y6.1117 F120.00
G1 X2.6828 Y6.0966 F120.00
G1 X2.6878 Y6.0816 F120.00
G1 X2.7205 Y5.9901 F120.00
G1 X2.7262 Y5.9755 F120.00
G1 X2.7325 Y5.9611 F120.00
G1 X2.7741 Y5.8732 F120.00
G1 X2.7812 Y5.8592 F120.00
G1 X2.7889 Y5.8455 F120.00
G1 X2.8389 Y5.7621 F120.00
G1 X2.8473 Y5.7489 F120.00
G1 X2.8563 Y5.7360 F120.00
G1 X2.9190 Y5.6517 F120.00
G1 X2.9342 Y5.6337 F120.00
G1 X2.9994 Y5.5616 F120.00
G1 X3.0103 Y5.5503 F120.00
G1 X3.0216 Y5.5394 F120.00
G1 X3.0937 Y5.4742 F120.00
G1 X3.1056 Y5.4639 F120.00
G1 X3.1179 Y5.4542 F120.00
G1 X3.1960 Y5.3963 F120.00
G1 X3.2155 Y5.3830 F120.00
G1 X3.3055 Y5.3289 F120.00
G1 X3.3192 Y5.3212 F120.00
G1 X3.3332 Y5.3141 F120.00
G1 X3.4282 Y5.2693 F120.00
G1 X3.4501 Y5.2605 F120.00
G1 X3.5491 Y5.2252 F120.00
G1 X3.5717 Y5.2186 F120.00
G1 X3.6182 Y5.2070 F120.00
G1 X3.5717 Y5.1954 F120.00
G1 X3.5491 Y5.1888 F120.00
G1 X3.4501 Y5.1535 F120.00
G1 X3.4282 Y5.1447 F120.00
G1 X3.3332 Y5.0999 F120.00
G1 X3.3192 Y5.0928 F120.00
G1 X3.3055 Y5.0851 F120.00
G1 X3.2221 Y5.0351 F120.00
G1 X3.2024 Y5.0223 F120.00
G1 X3.1179 Y4.9598 F120.00
G1 X3.1056 Y4.9501 F120.00
G1 X3.0937 Y4.9398 F120.00
G1 X3.0216 Y4.8746 F120.00
G1 X3.0103 Y4.8637 F120.00
G1 X2.9994 Y4.8524 F120.00
G1 X2.9342 Y4.7803 F120.00
G1 X2.9239 Y4.7684 F120.00
G1 X2.9142 Y4.7561 F120.00
G1 X2.8517 Y4.6716 F120.00
G1 X2.8389 Y4.6519 F120.00
G1 X2.7889 Y4.5685 F120.00
G1 X2.7812 Y4.5548 F120.00
G1 X2.7741 Y4.5408 F120.00
G1 X2.7325 Y4.4529 F120.00
G1 X2.7262 Y4.4385 F120.00
G1 X2.7205 Y4.4239 F120.00
G1 X2.6878 Y4.3324 F120.00
G1 X2.6828 Y4.3174 F120.00
G1 X2.6786 Y4.3023 F120.00
G1 X2.6550 Y4.2080 F120.00
G1 X2.6516 Y4.1927 F120.00
G1 X2.6489 Y4.1772 F120.00
G1 X2.6346 Y4.0810 F120.00
G1 X2.6327 Y4.0655 F120.00
G1 X2.6316 Y4.0498 F120.00
G1 X2.6268 Y3.9527 F120.00
G1 X2.6264 Y3.9370 F120.00
G1 X2.6268 Y3.9213 F120.00
G1 X2.6316 Y3.8242 F120.00
G1 X2.6327 Y3.8085 F120.00
G1 X2.6346 Y3.7930 F120.00
G1 X2.6489 Y3.6968 F120.00
G1 X2.6516 Y3.6813 F120.00
G1 X2.6550 Y3.6660 F120.00
G1 X2.6786 Y3.5717 F120.00
G1 X2.6828 Y3.5566 F120.00
G1 X2.6878 Y3.5416 F120.00
G1 X2.7205 Y3.4501 F120.00
G1 X2.7262 Y3.4355 F120.00
G1 X2.7325 Y3.4211 F120.00
G1 X2.7741 Y3.3332 F120.00
G1 X2.7812 Y3.3192 F120.00
G1 X2.7889 Y3.3055 F120.00
G1 X2.8389 Y3.2221 F120.00
G1 X2.8473 Y3.2089 F120.00
G1 X2.8563 Y3.1960 F120.00
G1 X2.9142 Y3.1179 F120.00
G1 X2.9239 Y3.1056 F120.00
G1 X2.9342 Y3.0937 F120.00
G1 X2.9994 Y3.0216 F120.00
G1 X3.0103 Y3.0103 F120.00
G1 X3.0216 Y2.9994 F120.00
G1 X3.0937 Y2.9342 F120.00
G1 X3.1056 Y2.9239 F120.00
G1 X3.1179 Y2.9142 F120.00
G1 X3.1960 Y2.8563 F120.00
G1 X3.2089 Y2.8473 F120.00
G1 X3.2221 Y2.8389 F120.00
G1 X3.3055 Y2.7889 F120.00
G1 X3.3192 Y2.7812 F120.00
G1 X3.3332 Y2.7741 F120.00
G1 X3.4211 Y2.7325 F120.00
G1 X3.4355 Y2.7262 F120.00
G1 X3.4501 Y2.7205 F120.00
G1 X3.5416 Y2.6878 F120.00
G1 X3.5566 Y2.6828 F120.00
G1 X3.5717 Y2.6786 F120.00
G1 X3.6660 Y2.6550 F120.00
G1 X3.6813 Y2.6516 F120.00
G1 X3.6968 Y2.6489 F120.00
G1 X3.7930 Y2.6346 F120.00
G1 X3.8085 Y2.6327 F120.00
G1 X3.8242 Y2.6316 F120.00
G1 X3.9213 Y2.6268 F120.00
G1 X3.9370 Y2.6264 F120.00
G1 X3.9527 Y2.6268 F120.00
G1 X4.0498 Y2.6316 F120.00
G1 X4.0655 Y2.6327 F120.00
G1 X4.0810 Y2.6346 F120.00
G1 X4.1772 Y2.6489 F120.00
G1 X4.1927 Y2.6516 F120.00
G1 X4.2080 Y2.6550 F120.00
G1 X4.3023 Y2.6786 F120.00
G1 X4.3174 Y2.6828 F120.00
G1 X4.3324 Y2.6878 F120.00
G1 X4.4239 Y2.7205 F120.00
G1 X4.4385 Y2.7262 F120.00
G1 X4.4529 Y2.7325 F120.00
G1 X4.5408 Y2.7741 F120.00
G1 X4.5548 Y2.7812 F120.00
G1 X4.5685 Y2.7889 F120.00
G1 X4.6519 Y2.8389 F120.00
G1 X4.6651 Y2.8473 F120.00
G1 X4.6780 Y2.8563 F120.00
G1 X4.7561 Y2.9142 F120.00
G1 X4.7684 Y2.9239 F120.00
G1 X4.7803 Y2.9342 F120.00
G1 X4.8524 Y2.9994 F120.00
G1 X4.8637 Y3.0103 F120.00
G1 X4.8746 Y3.0216 F120.00
G1 X4.9398 Y3.0937 F120.00
G1 X4.9501 Y3.1056 F120.00
G1 X4.9598 Y3.1179 F120.00
G1 X5.0177 Y3.1960 F120.00
G1 X5.0267 Y3.2089 F120.00
G1 X5.0351 Y3.2221 F120.00
G1 X5.0889 Y3.3121 F120.00
G0 Z2.0000 F1500.00
G0 X5.0329 Y3.4021 F1500.00
G1 F60.00
G1 Z0.2855 F60.00
G1 F120.00
G1 X36.9570 Y3.4021 F120.00
G1 X36.9683 Y3.4023 F120.00
G1 X37.0094 Y3.4046 F120.00
G1 X37.0558 Y3.4113 F120.00
G1 X37.0724 Y3.4148 F120.00
G1 X37.1123 Y3.4251 F120.00
G1 X37.1512 Y3.4387 F120.00
G1 X37.1617 Y3.4428 F120.00
G1 X37.2042 Y3.4626 F120.00
G1 X37.2190 Y3.4708 F120.00
G1 X37.2542 Y3.4922 F120.00
G1 X37.2875 Y3.5165 F120.00
G1 X37.3007 Y3.5271 F120.00
G1 X37.3353 Y3.5587 F120.00
G1 X37.3669 Y3.5933 F120.00
G1 X37.3775 Y3.6065 F120.00
G1 X37.4018 Y3.6398 F120.00
G1 X37.4261 Y3.6799 F120.00
G1 X37.4314 Y3.6898 F120.00
G1 X37.4467 Y3.7220 F120.00
G1 X37.4512 Y3.7323 F120.00
G1 X37.4553 Y3.7428 F120.00
G1 X37.4689 Y3.7817 F120.00
G1 X37.4719 Y3.7926 F120.00
G1 X37.4817 Y3.8326 F120.00
G1 X37.4836 Y3.8438 F120.00
G1 X37.4894 Y3.8846 F120.00
G1 X37.4919 Y3.9314 F120.00
G1 X37.4920 Y5.3811 F120.00
G1 X37.5274 Y5.3979 F120.00
G1 X37.5373 Y5.4033 F120.00
G1 X37.6256 Y5.4561 F120.00
G1 X37.6398 Y5.4653 F120.00
G1 X37.7224 Y5.5265 F120.00
G1 X37.7313 Y5.5335 F120.00
G1 X37.7399 Y5.5408 F120.00
G1 X37.8161 Y5.6100 F120.00
G1 X37.8279 Y5.6221 F120.00
G1 X37.8932 Y5.6941 F120.00
G1 X37.9005 Y5.7027 F120.00
G1 X37.9075 Y5.7116 F120.00
G1 X37.9719 Y5.7989 F120.00
G1 X37.9779 Y5.8084 F120.00
G1 X38.0307 Y5.8967 F120.00
G1 X38.0385 Y5.9117 F120.00
G1 X38.0801 Y5.9996 F120.00
G1 X38.0847 Y6.0099 F120.00
G1 X38.0887 Y6.0204 F120.00
G1 X38.1250 Y6.1227 F120.00
G1 X38.1280 Y6.1336 F120.00
G1 X38.1541 Y6.2389 F120.00
G1 X38.1561 Y6.2500 F120.00
G1 X38.1717 Y6.3574 F120.00
G1 X38.1773 Y6.4657 F120.00
G1 X38.1776 Y6.4770 F120.00
G1 X38.1773 Y6.4883 F120.00
G1 X38.1717 Y6.5966 F120.00
G1 X38.1561 Y6.7040 F120.00
G1 X38.1541 Y6.7151 F120.00
G1 X38.1517 Y6.7261 F120.00
G1 X38.1250 Y6.8313 F120.00
G1 X38.1215 Y6.8420 F120.00
G1 X38.0847 Y6.9441 F120.00
G1 X38.0801 Y6.9544 F120.00
G1 X38.0335 Y7.0524 F120.00
G1 X37.9779 Y7.1456 F120.00
G1 X37.9719 Y7.1551 F120.00
G1 X37.9654 Y7.1644 F120.00
G1 X37.9005 Y7.2513 F120.00
G1 X37.8279 Y7.3319 F120.00
G1 X37.8201 Y7.3401 F120.00
G1 X37.8119 Y7.3479 F120.00
G1 X37.7313 Y7.4205 F120.00
G1 X37.7224 Y7.4275 F120.00
G1 X37.6351 Y7.4919 F120.00
G1 X37.5422 Y7.5479 F120.00
G1 X37.5324 Y7.5535 F120.00
G1 X37.5223 Y7.5585 F120.00
G1 X37.4241 Y7.6047 F120.00
G1 X37.4136 Y7.6087 F120.00
G1 X37.3113 Y7.6450 F120.00
G1 X37.2061 Y7.6717 F120.00
G1 X37.1951 Y7.6741 F120.00
G1 X37.0878 Y7.6903 F120.00
G1 X37.0766 Y7.6917 F120.00
G1 X37.0654 Y7.6926 F120.00
G1 X36.9570 Y7.6976 F120.00
G1 X36.8486 Y7.6926 F120.00
G1 X36.8374 Y7.6917 F120.00
G1 X36.8262 Y7.6903 F120.00
G1 X36.7189 Y7.6741 F120.00
G1 X36.7079 Y7.6717 F120.00
G1 X36.6027 Y7.6450 F120.00
G1 X36.5004 Y7.6087 F120.00
G1 X36.4899 Y7.6047 F120.00
G1 X36.4796 Y7.6001 F120.00
G1 X36.3816 Y7.5535 F120.00
G1 X36.2884 Y7.4979 F120.00
G1 X36.2789 Y7.4919 F120.00
G1 X36.1916 Y7.4275 F120.00
G1 X36.1827 Y7.4205 F120.00
G1 X36.1741 Y7.4132 F120.00
G1 X36.0939 Y7.3401 F120.00
G1 X36.0208 Y7.2599 F120.00
G1 X36.0135 Y7.2513 F120.00
G1 X35.9486 Y7.1644 F120.00
G1 X35.9421 Y7.1551 F120.00
G1 X35.8861 Y7.0622 F120.00
G1 X35.8805 Y7.0524 F120.00
G1 X35.8755 Y7.0423 F120.00
G1 X35.8293 Y6.9441 F120.00
G1 X35.7925 Y6.8420 F120.00
G1 X35.7890 Y6.8313 F120.00
G1 X35.7623 Y6.7261 F120.00
G1 X35.7599 Y6.7151 F120.00
G1 X35.7437 Y6.6078 F120.00
G1 X35.7423 Y6.5966 F120.00
G1 X35.7414 Y6.5854 F120.00
G1 X35.7364 Y6.4770 F120.00
G1 X35.7414 Y6.3686 F120.00
G1 X35.7423 Y6.3574 F120.00
G1 X35.7437 Y6.3462 F120.00
G1 X35.7579 Y6.2500 F120.00
G1 X35.7599 Y6.2389 F120.00
G1 X35.7623 Y6.2279 F120.00
G1 X35.7890 Y6.1227 F120.00
G1 X35.8253 Y6.0204 F120.00
G1 X35.8293 Y6.0099 F120.00
G1 X35.8339 Y5.9996 F120.00
G1 X35.8805 Y5.9016 F120.00
G1 X35.9361 Y5.8084 F120.00
G1 X35.9453 Y5.7942 F120.00
G1 X36.0065 Y5.7116 F120.00
G1 X36.0135 Y5.7027 F120.00
G1 X36.0208 Y5.6941 F120.00
G1 X36.0939 Y5.6139 F120.00
G1 X36.1021 Y5.6061 F120.00
G1 X36.1783 Y5.5371 F120.00
G1 X36.1916 Y5.5265 F120.00
G1 X36.2696 Y5.4686 F120.00
G1 X36.2836 Y5.4590 F120.00
G1 X36.3767 Y5.4033 F120.00
G1 X36.3866 Y5.3979 F120.00
G1 X36.4220 Y5.3811 F120.00
G1 X36.4220 Y4.4719 F120.00
G1 X22.2701 Y4.4720 F120.00
G1 X22.2556 Y5.5261 F120.00
G1 X22.3246 Y5.5677 F120.00
G1 X22.4019 Y5.6247 F120.00
G1 X22.4108 Y5.6316 F120.00
G1 X22.4193 Y5.6390 F120.00
G1 X22.4903 Y5.7037 F120.00
G1 X22.5550 Y5.7747 F120.00
G1 X22.5624 Y5.7832 F120.00
G1 X22.5693 Y5.7921 F120.00
G1 X22.6198 Y5.8602 F120.00
G1 X22.6263 Y5.8694 F120.00
G1 X22.6323 Y5.8790 F120.00
G1 X22.6815 Y5.9615 F120.00
G1 X22.6865 Y5.9716 F120.00
G1 X22.7251 Y6.0533 F120.00
G1 X22.7314 Y6.0690 F120.00
G1 X22.7600 Y6.1488 F120.00
G1 X22.7635 Y6.1595 F120.00
G1 X22.7665 Y6.1704 F120.00
G1 X22.7896 Y6.2636 F120.00
G1 X22.7915 Y6.2748 F120.00
G1 X22.8053 Y6.3698 F120.00
G1 X22.8103 Y6.4657 F120.00
G1 X22.8106 Y6.4770 F120.00
G1 X22.8062 Y6.5729 F120.00
G1 X22.8053 Y6.5842 F120.00
G1 X22.8039 Y6.5954 F120.00
G1 X22.7915 Y6.6792 F120.00
G1 X22.7884 Y6.6959 F120.00
G1 X22.7665 Y6.7836 F120.00
G1 X22.7635 Y6.7945 F120.00
G1 X22.7314 Y6.8850 F120.00
G1 X22.7274 Y6.8955 F120.00
G1 X22.7228 Y6.9058 F120.00
G1 X22.6815 Y6.9925 F120.00
G1 X22.6759 Y7.0023 F120.00
G1 X22.6263 Y7.0846 F120.00
G1 X22.5693 Y7.1619 F120.00
G1 X22.5624 Y7.1708 F120.00
G1 X22.5550 Y7.1793 F120.00
G1 X22.4903 Y7.2503 F120.00
G1 X22.4193 Y7.3150 F120.00
G1 X22.4108 Y7.3224 F120.00
G1 X22.3338 Y7.3798 F120.00
G1 X22.3246 Y7.3863 F120.00
G1 X22.3150 Y7.3923 F120.00
G1 X22.2423 Y7.4359 F120.00
G1 X22.2325 Y7.4415 F120.00
G1 X22.2224 Y7.4465 F120.00
G1 X22.1355 Y7.4874 F120.00
G1 X22.0452 Y7.5200 F120.00
G1 X22.0345 Y7.5235 F120.00
G1 X22.0236 Y7.5265 F120.00
G1 X21.9304 Y7.5496 F120.00
G1 X21.8354 Y7.5639 F120.00
G1 X21.8242 Y7.5653 F120.00
G1 X21.7283 Y7.5703 F120.00
G1 X21.7170 Y7.5706 F120.00
G1 X21.7057 Y7.5703 F120.00
G1 X21.6098 Y7.5653 F120.00
G1 X21.5986 Y7.5639 F120.00
G1 X21.5036 Y7.5496 F120.00
G1 X21.4104 Y7.5265 F120.00
G1 X21.3995 Y7.5235 F120.00
G1 X21.3090 Y7.4914 F120.00
G1 X21.2985 Y7.4874 F120.00
G1 X21.2116 Y7.4465 F120.00
G1 X21.2015 Y7.4415 F120.00
G1 X21.1917 Y7.4359 F120.00
G1 X21.1190 Y7.3923 F120.00
G1 X21.1094 Y7.3863 F120.00
G1 X21.1002 Y7.3798 F120.00
G1 X21.0232 Y7.3224 F120.00
G1 X20.9519 Y7.2581 F120.00
G1 X20.9437 Y7.2503 F120.00
G1 X20.8790 Y7.1793 F120.00
G1 X20.8716 Y7.1708 F120.00
G1 X20.8142 Y7.0938 F120.00
G1 X20.8077 Y7.0846 F120.00
G1 X20.8017 Y7.0750 F120.00
G1 X20.7581 Y7.0023 F120.00
G1 X20.7525 Y6.9925 F120.00
G1 X20.7475 Y6.9824 F120.00
G1 X20.7066 Y6.8955 F120.00
G1 X20.6740 Y6.8052 F120.00
G1 X20.6705 Y6.7945 F120.00
G1 X20.6675 Y6.7836 F120.00
G1 X20.6444 Y6.6904 F120.00
G1 X20.6425 Y6.6792 F120.00
G1 X20.6293 Y6.5898 F120.00
G1 X20.6278 Y6.5729 F120.00
G1 X20.6237 Y6.4883 F120.00
G1 X20.6234 Y6.4770 F120.00
G1 X20.6237 Y6.4657 F120.00
G1 X20.6287 Y6.3698 F120.00
G1 X20.6301 Y6.3586 F120.00
G1 X20.6444 Y6.2636 F120.00
G1 X20.6675 Y6.1704 F120.00
G1 X20.6705 Y6.1595 F120.00
G1 X20.6740 Y6.1488 F120.00
G1 X20.7066 Y6.0585 F120.00
G1 X20.7112 Y6.0482 F120.00
G1 X20.7525 Y5.9615 F120.00
G1 X20.8017 Y5.8790 F120.00
G1 X20.8077 Y5.8694 F120.00
G1 X20.8142 Y5.8602 F120.00
G1 X20.8716 Y5.7832 F120.00
G1 X20.8790 Y5.7747 F120.00
G1 X20.9437 Y5.7037 F120.00
G1 X21.0147 Y5.6390 F120.00
G1 X21.0232 Y5.6316 F120.00
G1 X21.0321 Y5.6247 F120.00
G1 X21.1094 Y5.5677 F120.00
G1 X21.1857 Y5.5217 F120.00
G1 X21.2001 Y4.4720 F120.00
G1 X17.1465 Y4.4720 F120.00
G1 X17.1465 Y8.9972 F120.00
G1 X17.1450 Y9.0296 F120.00
G1 X17.1440 Y9.0434 F120.00
G1 X17.1387 Y9.0817 F120.00
G1 X17.1364 Y9.0953 F120.00
G1 X17.1274 Y9.1330 F120.00
G1 X17.1237 Y9.1462 F120.00
G1 X17.1110 Y9.1828 F120.00
G1 X17.1061 Y9.1957 F120.00
G1 X17.0899 Y9.2309 F120.00
G1 X17.0837 Y9.2432 F120.00
G1 X17.0641 Y9.2766 F120.00
G1 X17.0568 Y9.2882 F120.00
G1 X17.0340 Y9.3196 F120.00
G1 X17.0256 Y9.3304 F120.00
G1 X17.0177 Y9.3395 F120.00
G1 X16.9916 Y9.3681 F120.00
G1 X16.9817 Y9.3777 F120.00
G1 X16.9529 Y9.4035 F120.00
G1 X16.9421 Y9.4121 F120.00
G1 X16.9109 Y9.4350 F120.00
G1 X16.8993 Y9.4424 F120.00
G1 X16.8660 Y9.4622 F120.00
G1 X16.8537 Y9.4685 F120.00
G1 X16.8186 Y9.4849 F120.00
G1 X16.8058 Y9.4899 F120.00
G1 X16.7693 Y9.5028 F120.00
G1 X16.7560 Y9.5065 F120.00
G1 X16.7184 Y9.5158 F120.00
G1 X16.7048 Y9.5182 F120.00
G1 X16.6665 Y9.5237 F120.00
G1 X16.6528 Y9.5248 F120.00
G1 X16.6204 Y9.5264 F120.00
G1 X12.6538 Y9.5500 F120.00
G1 X12.6385 Y9.5823 F120.00
G1 X12.6307 Y9.5973 F120.00
G1 X12.5779 Y9.6856 F120.00
G1 X12.5687 Y9.6998 F120.00
G1 X12.5075 Y9.7824 F120.00
G1 X12.5005 Y9.7913 F120.00
G1 X12.4932 Y9.7999 F120.00
G1 X12.4240 Y9.8761 F120.00
G1 X12.4119 Y9.8879 F120.00
G1 X12.3399 Y9.9532 F120.00
G1 X12.3313 Y9.9605 F120.00
G1 X12.3224 Y9.9675 F120.00
G1 X12.2351 Y10.0319 F120.00
G1 X12.2256 Y10.0379 F120.00
G1 X12.1373 Y10.0907 F120.00
G1 X12.1223 Y10.0985 F120.00
G1 X12.0344 Y10.1401 F120.00
G1 X12.0241 Y10.1447 F120.00
G1 X12.0136 Y10.1487 F120.00
G1 X11.9113 Y10.1850 F120.00
G1 X11.9004 Y10.1880 F120.00
G1 X11.7951 Y10.2141 F120.00
G1 X11.6878 Y10.2303 F120.00
G1 X11.6766 Y10.2317 F120.00
G1 X11.5683 Y10.2373 F120.00
G1 X11.5570 Y10.2376 F120.00
G1 X11.5457 Y10.2373 F120.00
G1 X11.4374 Y10.2317 F120.00
G1 X11.3300 Y10.2161 F120.00
G1 X11.3189 Y10.2141 F120.00
G1 X11.2136 Y10.1880 F120.00
G1 X11.2027 Y10.1850 F120.00
G1 X11.1920 Y10.1815 F120.00
G1 X11.0899 Y10.1447 F120.00
G1 X10.9917 Y10.0985 F120.00
G1 X10.9816 Y10.0935 F120.00
G1 X10.9718 Y10.0879 F120.00
G1 X10.8884 Y10.0379 F120.00
G1 X10.8789 Y10.0319 F120.00
G1 X10.8696 Y10.0254 F120.00
G1 X10.7827 Y9.9605 F120.00
G1 X10.7021 Y9.8879 F120.00
G1 X10.6939 Y9.8801 F120.00
G1 X10.6861 Y9.8719 F120.00
G1 X10.6135 Y9.7913 F120.00
G1 X10.5486 Y9.7044 F120.00
G1 X10.5421 Y9.6951 F120.00
G1 X10.5361 Y9.6856 F120.00
G1 X10.4861 Y9.6022 F120.00
G1 X10.4805 Y9.5924 F120.00
G1 X10.4755 Y9.5823 F120.00
G1 X10.4293 Y9.4841 F120.00
G1 X10.3925 Y9.3820 F120.00
G1 X10.3890 Y9.3713 F120.00
G1 X10.3860 Y9.3604 F120.00
G1 X10.3599 Y9.2551 F120.00
G1 X10.3437 Y9.1478 F120.00
G1 X10.3423 Y9.1366 F120.00
G1 X10.3414 Y9.1254 F120.00
G1 X10.3367 Y9.0283 F120.00
G1 X10.3364 Y9.0170 F120.00
G1 X10.3367 Y9.0057 F120.00
G1 X10.3423 Y8.8974 F120.00
G1 X10.3579 Y8.7900 F120.00
G1 X10.3599 Y8.7789 F120.00
G1 X10.3623 Y8.7679 F120.00
G1 X10.3890 Y8.6627 F120.00
G1 X10.4253 Y8.5604 F120.00
G1 X10.4293 Y8.5499 F120.00
G1 X10.4339 Y8.5396 F120.00
G1 X10.4755 Y8.4517 F120.00
G1 X10.4805 Y8.4416 F120.00
G1 X10.4861 Y8.4318 F120.00
G1 X10.5421 Y8.3389 F120.00
G1 X10.6065 Y8.2516 F120.00
G1 X10.6135 Y8.2427 F120.00
G1 X10.6208 Y8.2341 F120.00
G1 X10.6939 Y8.1539 F120.00
G1 X10.7741 Y8.0808 F120.00
G1 X10.7827 Y8.0735 F120.00
G1 X10.7916 Y8.0665 F120.00
G1 X10.8696 Y8.0086 F120.00
G1 X10.8789 Y8.0021 F120.00
G1 X10.8884 Y7.9961 F120.00
G1 X10.9816 Y7.9405 F120.00
G1 X11.0796 Y7.8939 F120.00
G1 X11.0951 Y7.8872 F120.00
G1 X11.1920 Y7.8525 F120.00
G1 X11.2027 Y7.8490 F120.00
G1 X11.2136 Y7.8460 F120.00
G1 X11.3189 Y7.8199 F120.00
G1 X11.4262 Y7.8037 F120.00
G1 X11.4374 Y7.8023 F120.00
G1 X11.5457 Y7.7967 F120.00
G1 X11.5570 Y7.7964 F120.00
G1 X11.5683 Y7.7967 F120.00
G1 X11.6766 Y7.8023 F120.00
G1 X11.7840 Y7.8179 F120.00
G1 X11.7951 Y7.8199 F120.00
G1 X11.8061 Y7.8223 F120.00
G1 X11.9113 Y7.8490 F120.00
G1 X11.9220 Y7.8525 F120.00
G1 X12.0189 Y7.8872 F120.00
G1 X12.0344 Y7.8939 F120.00
G1 X12.1324 Y7.9405 F120.00
G1 X12.1422 Y7.9461 F120.00
G1 X12.2351 Y8.0021 F120.00
G1 X12.3224 Y8.0665 F120.00
G1 X12.3313 Y8.0735 F120.00
G1 X12.3399 Y8.0808 F120.00
G1 X12.4161 Y8.1500 F120.00
G1 X12.4279 Y8.1621 F120.00
G1 X12.5005 Y8.2427 F120.00
G1 X12.5075 Y8.2516 F120.00
G1 X12.5687 Y8.3342 F120.00
G1 X12.5779 Y8.3484 F120.00
G1 X12.6307 Y8.4367 F120.00
G1 X12.6361 Y8.4466 F120.00
G1 X12.6520 Y8.4801 F120.00
G1 X16.0766 Y8.4598 F120.00
G1 X16.0766 Y4.4719 F120.00
G1 X5.0329 Y4.4720 F120.00
G1 X5.0161 Y4.5074 F120.00
G1 X5.0107 Y4.5173 F120.00
G1 X4.9550 Y4.6104 F120.00
G1 X4.9454 Y4.6244 F120.00
G1 X4.8875 Y4.7024 F120.00
G1 X4.8769 Y4.7157 F120.00
G1 X4.8079 Y4.7919 F120.00
G1 X4.8001 Y4.8001 F120.00
G1 X4.7199 Y4.8732 F120.00
G1 X4.7113 Y4.8805 F120.00
G1 X4.7024 Y4.8875 F120.00
G1 X4.6244 Y4.9454 F120.00
G1 X4.6104 Y4.9550 F120.00
G1 X4.5222 Y5.0079 F120.00
G1 X4.5124 Y5.0135 F120.00
G1 X4.4144 Y5.0601 F120.00
G1 X4.4041 Y5.0647 F120.00
G1 X4.3936 Y5.0687 F120.00
G1 X4.2913 Y5.1050 F120.00
G1 X4.1861 Y5.1317 F120.00
G1 X4.1751 Y5.1341 F120.00
G1 X4.0678 Y5.1503 F120.00
G1 X4.0566 Y5.1517 F120.00
G1 X4.0454 Y5.1526 F120.00
G1 X3.9370 Y5.1576 F120.00
G1 X3.9257 Y5.1573 F120.00
G1 X3.8174 Y5.1517 F120.00
G1 X3.7100 Y5.1361 F120.00
G1 X3.6989 Y5.1341 F120.00
G1 X3.6879 Y5.1317 F120.00
G1 X3.5827 Y5.1050 F120.00
G1 X3.4804 Y5.0687 F120.00
G1 X3.4699 Y5.0647 F120.00
G1 X3.4596 Y5.0601 F120.00
G1 X3.3616 Y5.0135 F120.00
G1 X3.2684 Y4.9579 F120.00
G1 X3.2589 Y4.9519 F120.00
G1 X3.2496 Y4.9454 F120.00
G1 X3.1627 Y4.8805 F120.00
G1 X3.0821 Y4.8079 F120.00
G1 X3.0739 Y4.8001 F120.00
G1 X3.0661 Y4.7919 F120.00
G1 X2.9935 Y4.7113 F120.00
G1 X2.9286 Y4.6244 F120.00
G1 X2.9221 Y4.6151 F120.00
G1 X2.9161 Y4.6056 F120.00
G1 X2.8661 Y4.5222 F120.00
G1 X2.8579 Y4.5074 F120.00
G1 X2.8139 Y4.4144 F120.00
G1 X2.8093 Y4.4041 F120.00
G1 X2.8053 Y4.3936 F120.00
G1 X2.7690 Y4.2913 F120.00
G1 X2.7660 Y4.2804 F120.00
G1 X2.7399 Y4.1751 F120.00
G1 X2.7379 Y4.1640 F120.00
G1 X2.7223 Y4.0566 F120.00
G1 X2.7167 Y3.9483 F120.00
G1 X2.7164 Y3.9370 F120.00
G1 X2.7167 Y3.9257 F120.00
G1 X2.7223 Y3.8174 F120.00
G1 X2.7379 Y3.7100 F120.00
G1 X2.7399 Y3.6989 F120.00
G1 X2.7660 Y3.5936 F120.00
G1 X2.7690 Y3.5827 F120.00
G1 X2.7725 Y3.5720 F120.00
G1 X2.8093 Y3.4699 F120.00
G1 X2.8555 Y3.3717 F120.00
G1 X2.8605 Y3.3616 F120.00
G1 X2.8661 Y3.3518 F120.00
G1 X2.9221 Y3.2589 F120.00
G1 X2.9286 Y3.2496 F120.00
G1 X2.9935 Y3.1627 F120.00
G1 X3.0661 Y3.0821 F120.00
G1 X3.0739 Y3.0739 F120.00
G1 X3.0821 Y3.0661 F120.00
G1 X3.1627 Y2.9935 F120.00
G1 X3.2496 Y2.9286 F120.00
G1 X3.2589 Y2.9221 F120.00
G1 X3.3518 Y2.8661 F120.00
G1 X3.3666 Y2.8579 F120.00
G1 X3.4596 Y2.8139 F120.00
G1 X3.4699 Y2.8093 F120.00
G1 X3.4804 Y2.8053 F120.00
G1 X3.5827 Y2.7690 F120.00
G1 X3.6879 Y2.7423 F120.00
G1 X3.6989 Y2.7399 F120.00
G1 X3.7100 Y2.7379 F120.00
G1 X3.8174 Y2.7223 F120.00
G1 X3.9257 Y2.7167 F120.00
G1 X3.9370 Y2.7164 F120.00
G1 X3.9483 Y2.7167 F120.00
G1 X4.0566 Y2.7223 F120.00
G1 X4.1640 Y2.7379 F120.00
G1 X4.1751 Y2.7399 F120.00
G1 X4.2804 Y2.7660 F120.00
G1 X4.2967 Y2.7707 F120.00
G1 X4.3936 Y2.8053 F120.00
G1 X4.4041 Y2.8093 F120.00
G1 X4.4144 Y2.8139 F120.00
G1 X4.5124 Y2.8605 F120.00
G1 X4.6056 Y2.9161 F120.00
G1 X4.6151 Y2.9221 F120.00
G1 X4.7024 Y2.9865 F120.00
G1 X4.7157 Y2.9971 F120.00
G1 X4.7919 Y3.0661 F120.00
G1 X4.8001 Y3.0739 F120.00
G1 X4.8732 Y3.1541 F120.00
G1 X4.8841 Y3.1671 F120.00
G1 X4.9454 Y3.2496 F120.00
G1 X4.9550 Y3.2636 F120.00
G1 X5.0107 Y3.3567 F120.00
G1 X5.0161 Y3.3666 F120.00
G1 X5.0329 Y3.4021 F120.00
G0 Z2.0000 F1500.00
G0 X4.9759 Y3.4921 F1500.00
G1 F60.00
G1 Z0.2855 F60.00
G1 F120.00
G1 X36.9570 Y3.4921 F120.00
G1 X37.0006 Y3.4942 F120.00
G1 X37.0370 Y3.4994 F120.00
G1 X37.0505 Y3.5021 F120.00
G1 X37.0862 Y3.5112 F120.00
G1 X37.1273 Y3.5259 F120.00
G1 X37.1667 Y3.5446 F120.00
G1 X37.1984 Y3.5634 F120.00
G1 X37.2070 Y3.5690 F120.00
G1 X37.2339 Y3.5888 F120.00
G1 X37.2445 Y3.5975 F120.00
G1 X37.2716 Y3.6224 F120.00
G1 X37.3010 Y3.6547 F120.00
G1 X37.3270 Y3.6898 F120.00
G1 X37.3460 Y3.7213 F120.00
G1 X37.3510 Y3.7303 F120.00
G1 X37.3653 Y3.7604 F120.00
G1 X37.3706 Y3.7731 F120.00
G1 X37.3828 Y3.8078 F120.00
G1 X37.3934 Y3.8502 F120.00
G1 X37.3998 Y3.8934 F120.00
G1 X37.4019 Y3.9370 F120.00
G1 X37.4020 Y5.4381 F120.00
G1 X37.4900 Y5.4799 F120.00
G1 X37.5851 Y5.5369 F120.00
G1 X37.6742 Y5.6030 F120.00
G1 X37.7515 Y5.6728 F120.00
G1 X37.7612 Y5.6825 F120.00
G1 X37.8265 Y5.7546 F120.00
G1 X37.8352 Y5.7652 F120.00
G1 X37.8971 Y5.8489 F120.00
G1 X37.9507 Y5.9381 F120.00
G1 X37.9572 Y5.9502 F120.00
G1 X37.9988 Y6.0381 F120.00
G1 X38.0040 Y6.0508 F120.00
G1 X38.0389 Y6.1488 F120.00
G1 X38.0659 Y6.2564 F120.00
G1 X38.0822 Y6.3662 F120.00
G1 X38.0874 Y6.4701 F120.00
G1 X38.0874 Y6.4839 F120.00
G1 X38.0822 Y6.5878 F120.00
G1 X38.0670 Y6.6908 F120.00
G1 X38.0644 Y6.7043 F120.00
G1 X38.0389 Y6.8052 F120.00
G1 X38.0015 Y6.9097 F120.00
G1 X37.9541 Y7.0100 F120.00
G1 X37.9007 Y7.0993 F120.00
G1 X37.8931 Y7.1107 F120.00
G1 X37.8310 Y7.1942 F120.00
G1 X37.7612 Y7.2715 F120.00
G1 X37.7515 Y7.2812 F120.00
G1 X37.6742 Y7.3510 F120.00
G1 X37.5851 Y7.4171 F120.00
G1 X37.4900 Y7.4741 F120.00
G1 X37.3959 Y7.5188 F120.00
G1 X37.3832 Y7.5240 F120.00
G1 X37.2917 Y7.5568 F120.00
G1 X37.2786 Y7.5607 F120.00
G1 X37.1776 Y7.5859 F120.00
G1 X37.0746 Y7.6013 F120.00
G1 X37.0610 Y7.6027 F120.00
G1 X36.9639 Y7.6074 F120.00
G1 X36.9501 Y7.6074 F120.00
G1 X36.8462 Y7.6022 F120.00
G1 X36.7364 Y7.5859 F120.00
G1 X36.6288 Y7.5589 F120.00
G1 X36.5308 Y7.5240 F120.00
G1 X36.5181 Y7.5188 F120.00
G1 X36.4302 Y7.4772 F120.00
G1 X36.4181 Y7.4707 F120.00
G1 X36.3289 Y7.4171 F120.00
G1 X36.2398 Y7.3510 F120.00
G1 X36.1625 Y7.2812 F120.00
G1 X36.1528 Y7.2715 F120.00
G1 X36.0830 Y7.1942 F120.00
G1 X36.0189 Y7.1080 F120.00
G1 X36.0133 Y7.0993 F120.00
G1 X35.9599 Y7.0100 F120.00
G1 X35.9125 Y6.9097 F120.00
G1 X35.8751 Y6.8052 F120.00
G1 X35.8481 Y6.6976 F120.00
G1 X35.8318 Y6.5878 F120.00
G1 X35.8264 Y6.4770 F120.00
G1 X35.8318 Y6.3662 F120.00
G1 X35.8475 Y6.2598 F120.00
G1 X35.8496 Y6.2497 F120.00
G1 X35.8751 Y6.1488 F120.00
G1 X35.9100 Y6.0508 F120.00
G1 X35.9152 Y6.0381 F120.00
G1 X35.9599 Y5.9440 F120.00
G1 X36.0133 Y5.8547 F120.00
G1 X36.0209 Y5.8433 F120.00
G1 X36.0830 Y5.7598 F120.00
G1 X36.1575 Y5.6775 F120.00
G1 X36.2346 Y5.6075 F120.00
G1 X36.2452 Y5.5988 F120.00
G1 X36.3233 Y5.5409 F120.00
G1 X36.3347 Y5.5333 F120.00
G1 X36.4240 Y5.4799 F120.00
G1 X36.5120 Y5.4381 F120.00
G1 X36.5120 Y4.3819 F120.00
G1 X22.1813 Y4.3820 F120.00
G1 X22.1649 Y5.5798 F120.00
G1 X22.1840 Y5.5888 F120.00
G1 X22.1931 Y5.5936 F120.00
G1 X22.2688 Y5.6389 F120.00
G1 X22.2774 Y5.6445 F120.00
G1 X22.3537 Y5.7012 F120.00
G1 X22.4242 Y5.7649 F120.00
G1 X22.4314 Y5.7723 F120.00
G1 X22.4928 Y5.8403 F120.00
G1 X22.5475 Y5.9138 F120.00
G1 X22.5551 Y5.9252 F120.00
G1 X22.5987 Y5.9979 F120.00
G1 X22.6037 Y6.0070 F120.00
G1 X22.6442 Y6.0929 F120.00
G1 X22.6752 Y6.1791 F120.00
G1 X22.6792 Y6.1923 F120.00
G1 X22.6998 Y6.2745 F120.00
G1 X22.7025 Y6.2880 F120.00
G1 X22.7158 Y6.3786 F120.00
G1 X22.7206 Y6.4770 F120.00
G1 X22.7158 Y6.5754 F120.00
G1 X22.7019 Y6.6694 F120.00
G1 X22.6998 Y6.6795 F120.00
G1 X22.6774 Y6.7683 F120.00
G1 X22.6442 Y6.8611 F120.00
G1 X22.6021 Y6.9501 F120.00
G1 X22.5551 Y7.0288 F120.00
G1 X22.5475 Y7.0402 F120.00
G1 X22.4970 Y7.1083 F120.00
G1 X22.4883 Y7.1189 F120.00
G1 X22.4267 Y7.1867 F120.00
G1 X22.3589 Y7.2483 F120.00
G1 X22.3483 Y7.2570 F120.00
G1 X22.2746 Y7.3115 F120.00
G1 X22.1901 Y7.3621 F120.00
G1 X22.1011 Y7.4042 F120.00
G1 X22.0083 Y7.4374 F120.00
G1 X21.9128 Y7.4613 F120.00
G1 X21.8154 Y7.4758 F120.00
G1 X21.7170 Y7.4806 F120.00
G1 X21.6186 Y7.4758 F120.00
G1 X21.5212 Y7.4613 F120.00
G1 X21.4257 Y7.4374 F120.00
G1 X21.3329 Y7.4042 F120.00
G1 X21.2500 Y7.3652 F120.00
G1 X21.2379 Y7.3587 F120.00
G1 X21.1652 Y7.3151 F120.00
G1 X21.1538 Y7.3075 F120.00
G1 X21.0803 Y7.2528 F120.00
G1 X21.0073 Y7.1867 F120.00
G1 X20.9412 Y7.1137 F120.00
G1 X20.8825 Y7.0346 F120.00
G1 X20.8319 Y6.9501 F120.00
G1 X20.7926 Y6.8673 F120.00
G1 X20.7873 Y6.8546 F120.00
G1 X20.7588 Y6.7749 F120.00
G1 X20.7548 Y6.7617 F120.00
G1 X20.7327 Y6.6728 F120.00
G1 X20.7182 Y6.5754 F120.00
G1 X20.7134 Y6.4770 F120.00
G1 X20.7177 Y6.3855 F120.00
G1 X20.7191 Y6.3718 F120.00
G1 X20.7327 Y6.2812 F120.00
G1 X20.7566 Y6.1857 F120.00
G1 X20.7873 Y6.0994 F120.00
G1 X20.7926 Y6.0867 F120.00
G1 X20.8288 Y6.0100 F120.00
G1 X20.8336 Y6.0009 F120.00
G1 X20.8825 Y5.9194 F120.00
G1 X20.9370 Y5.8457 F120.00
G1 X20.9457 Y5.8351 F120.00
G1 X21.0026 Y5.7723 F120.00
G1 X21.0098 Y5.7649 F120.00
G1 X21.0803 Y5.7012 F120.00
G1 X21.1566 Y5.6445 F120.00
G1 X21.1652 Y5.6389 F120.00
G1 X21.2409 Y5.5936 F120.00
G1 X21.2500 Y5.5888 F120.00
G1 X21.2749 Y5.5770 F120.00
G1 X21.2913 Y4.3820 F120.00
G1 X17.0565 Y4.3820 F120.00
G1 X17.0565 Y8.9950 F120.00
G1 X17.0544 Y9.0348 F120.00
G1 X17.0481 Y9.0780 F120.00
G1 X17.0375 Y9.1204 F120.00
G1 X17.0228 Y9.1615 F120.00
G1 X17.0042 Y9.2010 F120.00
G1 X16.9818 Y9.2385 F120.00
G1 X16.9558 Y9.2736 F120.00
G1 X16.9278 Y9.3047 F120.00
G1 X16.8956 Y9.3341 F120.00
G1 X16.8606 Y9.3603 F120.00
G1 X16.8233 Y9.3830 F120.00
G1 X16.7839 Y9.4018 F120.00
G1 X16.7429 Y9.4167 F120.00
G1 X16.7006 Y9.4276 F120.00
G1 X16.6574 Y9.4342 F120.00
G1 X16.6177 Y9.4365 F120.00
G1 X12.5967 Y9.4603 F120.00
G1 X12.5541 Y9.5500 F120.00
G1 X12.4971 Y9.6451 F120.00
G1 X12.4310 Y9.7342 F120.00
G1 X12.3612 Y9.8115 F120.00
G1 X12.3515 Y9.8212 F120.00
G1 X12.2794 Y9.8865 F120.00
G1 X12.2688 Y9.8952 F120.00
G1 X12.1851 Y9.9571 F120.00
G1 X12.0959 Y10.0107 F120.00
G1 X12.0838 Y10.0172 F120.00
G1 X11.9959 Y10.0588 F120.00
G1 X11.9832 Y10.0640 F120.00
G1 X11.8852 Y10.0989 F120.00
G1 X11.7776 Y10.1259 F120.00
G1 X11.6678 Y10.1422 F120.00
G1 X11.5639 Y10.1474 F120.00
G1 X11.5501 Y10.1474 F120.00
G1 X11.4462 Y10.1422 F120.00
G1 X11.3364 Y10.1259 F120.00
G1 X11.2288 Y10.0989 F120.00
G1 X11.1243 Y10.0615 F120.00
G1 X11.0302 Y10.0172 F120.00
G1 X11.0181 Y10.0107 F120.00
G1 X10.9347 Y9.9607 F120.00
G1 X10.9233 Y9.9531 F120.00
G1 X10.8398 Y9.8910 F120.00
G1 X10.7575 Y9.8165 F120.00
G1 X10.6830 Y9.7342 F120.00
G1 X10.6209 Y9.6507 F120.00
G1 X10.6133 Y9.6393 F120.00
G1 X10.5633 Y9.5559 F120.00
G1 X10.5568 Y9.5438 F120.00
G1 X10.5125 Y9.4497 F120.00
G1 X10.4751 Y9.3452 F120.00
G1 X10.4481 Y9.2376 F120.00
G1 X10.4318 Y9.1278 F120.00
G1 X10.4264 Y9.0170 F120.00
G1 X10.4313 Y8.9130 F120.00
G1 X10.4327 Y8.8994 F120.00
G1 X10.4470 Y8.8032 F120.00
G1 X10.4496 Y8.7897 F120.00
G1 X10.4751 Y8.6888 F120.00
G1 X10.5125 Y8.5843 F120.00
G1 X10.5599 Y8.4840 F120.00
G1 X10.6169 Y8.3889 F120.00
G1 X10.6830 Y8.2998 F120.00
G1 X10.7528 Y8.2225 F120.00
G1 X10.7625 Y8.2128 F120.00
G1 X10.8346 Y8.1475 F120.00
G1 X10.8452 Y8.1388 F120.00
G1 X10.9289 Y8.0769 F120.00
G1 X11.0240 Y8.0199 F120.00
G1 X11.1243 Y7.9725 F120.00
G1 X11.2255 Y7.9361 F120.00
G1 X11.2354 Y7.9333 F120.00
G1 X11.3364 Y7.9081 F120.00
G1 X11.4462 Y7.8918 F120.00
G1 X11.5570 Y7.8864 F120.00
G1 X11.6610 Y7.8913 F120.00
G1 X11.6746 Y7.8927 F120.00
G1 X11.7708 Y7.9070 F120.00
G1 X11.7843 Y7.9096 F120.00
G1 X11.8852 Y7.9351 F120.00
G1 X11.9832 Y7.9700 F120.00
G1 X11.9959 Y7.9752 F120.00
G1 X12.0900 Y8.0199 F120.00
G1 X12.1851 Y8.0769 F120.00
G1 X12.2742 Y8.1430 F120.00
G1 X12.3565 Y8.2175 F120.00
G1 X12.4310 Y8.2998 F120.00
G1 X12.4971 Y8.3889 F120.00
G1 X12.5541 Y8.4840 F120.00
G1 X12.5951 Y8.5704 F120.00
G1 X16.1666 Y8.5493 F120.00
G1 X16.1666 Y4.3819 F120.00
G1 X4.9759 Y4.3820 F120.00
G1 X4.9341 Y4.4700 F120.00
G1 X4.8807 Y4.5593 F120.00
G1 X4.8731 Y4.5707 F120.00
G1 X4.8110 Y4.6542 F120.00
G1 X4.7412 Y4.7315 F120.00
G1 X4.7315 Y4.7412 F120.00
G1 X4.6542 Y4.8110 F120.00
G1 X4.5651 Y4.8771 F120.00
G1 X4.4700 Y4.9341 F120.00
G1 X4.3759 Y4.9788 F120.00
G1 X4.3632 Y4.9840 F120.00
G1 X4.2652 Y5.0189 F120.00
G1 X4.1576 Y5.0459 F120.00
G1 X4.0546 Y5.0613 F120.00
G1 X4.0410 Y5.0627 F120.00
G1 X3.9370 Y5.0676 F120.00
G1 X3.8262 Y5.0622 F120.00
G1 X3.7232 Y5.0470 F120.00
G1 X3.7097 Y5.0444 F120.00
G1 X3.6088 Y5.0189 F120.00
G1 X3.5043 Y4.9815 F120.00
G1 X3.4102 Y4.9372 F120.00
G1 X3.3981 Y4.9307 F120.00
G1 X3.3089 Y4.8771 F120.00
G1 X3.2198 Y4.8110 F120.00
G1 X3.1425 Y4.7412 F120.00
G1 X3.1328 Y4.7315 F120.00
G1 X3.0630 Y4.6542 F120.00
G1 X3.0009 Y4.5707 F120.00
G1 X2.9933 Y4.5593 F120.00
G1 X2.9399 Y4.4700 F120.00
G1 X2.8925 Y4.3697 F120.00
G1 X2.8551 Y4.2652 F120.00
G1 X2.8281 Y4.1576 F120.00
G1 X2.8118 Y4.0478 F120.00
G1 X2.8064 Y3.9370 F120.00
G1 X2.8118 Y3.8262 F120.00
G1 X2.8281 Y3.7164 F120.00
G1 X2.8551 Y3.6088 F120.00
G1 X2.8925 Y3.5043 F120.00
G1 X2.9399 Y3.4040 F120.00
G1 X2.9969 Y3.3089 F120.00
G1 X3.0630 Y3.2198 F120.00
G1 X3.1375 Y3.1375 F120.00
G1 X3.2198 Y3.0630 F120.00
G1 X3.3089 Y2.9969 F120.00
G1 X3.4040 Y2.9399 F120.00
G1 X3.5043 Y2.8925 F120.00
G1 X3.6088 Y2.8551 F120.00
G1 X3.7164 Y2.8281 F120.00
G1 X3.8262 Y2.8118 F120.00
G1 X3.9370 Y2.8064 F120.00
G1 X4.0478 Y2.8118 F120.00
G1 X4.1576 Y2.8281 F120.00
G1 X4.2652 Y2.8551 F120.00
G1 X4.3697 Y2.8925 F120.00
G1 X4.4700 Y2.9399 F120.00
G1 X4.5651 Y2.9969 F120.00
G1 X4.6542 Y3.0630 F120.00
G1 X4.7365 Y3.1375 F120.00
G1 X4.8110 Y3.2198 F120.00
G1 X4.8771 Y3.3089 F120.00
G1 X4.9341 Y3.4040 F120.00
G1 X4.9759 Y3.4921 F120.00
G0 Z2.0000 F1500.00
G0 X4.9139 Y3.5821 F1500.00
G1 F60.00
G1 Z0.2855 F60.00
G1 F120.00
G1 X36.9570 Y3.5821 F120.00
G1 X36.9918 Y3.5838 F120.00
G1 X37.0262 Y3.5889 F120.00
G1 X37.0577 Y3.5967 F120.00
G1 X37.0951 Y3.6101 F120.00
G1 X37.1243 Y3.6240 F120.00
G1 X37.1542 Y3.6419 F120.00
G1 X37.1822 Y3.6626 F120.00
G1 X37.2062 Y3.6843 F120.00
G1 X37.2329 Y3.7138 F120.00
G1 X37.2521 Y3.7398 F120.00
G1 X37.2700 Y3.7697 F120.00
G1 X37.2849 Y3.8012 F120.00
G1 X37.2959 Y3.8316 F120.00
G1 X37.3054 Y3.8690 F120.00
G1 X37.3102 Y3.9022 F120.00
G1 X37.3119 Y3.9370 F120.00
G1 X37.3120 Y5.5001 F120.00
G1 X37.3563 Y5.5161 F120.00
G1 X37.4486 Y5.5599 F120.00
G1 X37.5351 Y5.6118 F120.00
G1 X37.6162 Y5.6718 F120.00
G1 X37.6945 Y5.7430 F120.00
G1 X37.7614 Y5.8169 F120.00
G1 X37.8229 Y5.8999 F120.00
G1 X37.8747 Y5.9865 F120.00
G1 X37.9184 Y6.0788 F120.00
G1 X37.9528 Y6.1749 F120.00
G1 X37.9771 Y6.2716 F120.00
G1 X37.9928 Y6.3775 F120.00
G1 X37.9976 Y6.4770 F120.00
G1 X37.9926 Y6.5790 F120.00
G1 X37.9771 Y6.6824 F120.00
G1 X37.9528 Y6.7791 F120.00
G1 X37.9184 Y6.8752 F120.00
G1 X37.8747 Y6.9675 F120.00
G1 X37.8235 Y7.0531 F120.00
G1 X37.7598 Y7.1390 F120.00
G1 X37.6928 Y7.2128 F120.00
G1 X37.6171 Y7.2814 F120.00
G1 X37.5351 Y7.3422 F120.00
G1 X37.4497 Y7.3935 F120.00
G1 X37.3529 Y7.4393 F120.00
G1 X37.2591 Y7.4728 F120.00
G1 X37.1624 Y7.4971 F120.00
G1 X37.0565 Y7.5128 F120.00
G1 X36.9570 Y7.5176 F120.00
G1 X36.8550 Y7.5126 F120.00
G1 X36.7516 Y7.4971 F120.00
G1 X36.6549 Y7.4728 F120.00
G1 X36.5588 Y7.4384 F120.00
G1 X36.4665 Y7.3947 F120.00
G1 X36.3809 Y7.3435 F120.00
G1 X36.2969 Y7.2814 F120.00
G1 X36.2212 Y7.2128 F120.00
G1 X36.1542 Y7.1390 F120.00
G1 X36.0905 Y7.0531 F120.00
G1 X36.0393 Y6.9675 F120.00
G1 X35.9956 Y6.8752 F120.00
G1 X35.9612 Y6.7791 F120.00
G1 X35.9364 Y6.6800 F120.00
G1 X35.9214 Y6.5790 F120.00
G1 X35.9164 Y6.4770 F120.00
G1 X35.9214 Y6.3750 F120.00
G1 X35.9362 Y6.2752 F120.00
G1 X35.9620 Y6.1726 F120.00
G1 X35.9956 Y6.0788 F120.00
G1 X36.0382 Y5.9887 F120.00
G1 X36.0918 Y5.8989 F120.00
G1 X36.1534 Y5.8159 F120.00
G1 X36.2212 Y5.7412 F120.00
G1 X36.2950 Y5.6742 F120.00
G1 X36.3779 Y5.6125 F120.00
G1 X36.4676 Y5.5587 F120.00
G1 X36.5577 Y5.5161 F120.00
G1 X36.6020 Y5.5001 F120.00
G1 X36.6020 Y4.2919 F120.00
G1 X22.0925 Y4.2920 F120.00
G1 X22.0741 Y5.6364 F120.00
G1 X22.1477 Y5.6713 F120.00
G1 X22.2246 Y5.7174 F120.00
G1 X22.2966 Y5.7708 F120.00
G1 X22.3612 Y5.8293 F120.00
G1 X22.4247 Y5.8994 F120.00
G1 X22.4766 Y5.9694 F120.00
G1 X22.5227 Y6.0463 F120.00
G1 X22.5611 Y6.1274 F120.00
G1 X22.5905 Y6.2095 F120.00
G1 X22.6135 Y6.3012 F120.00
G1 X22.6262 Y6.3875 F120.00
G1 X22.6306 Y6.4770 F120.00
G1 X22.6262 Y6.5665 F120.00
G1 X22.6135 Y6.6528 F120.00
G1 X22.5913 Y6.7422 F120.00
G1 X22.5611 Y6.8266 F120.00
G1 X22.5227 Y6.9077 F120.00
G1 X22.4779 Y6.9825 F120.00
G1 X22.4216 Y7.0584 F120.00
G1 X22.3630 Y7.1230 F120.00
G1 X22.2946 Y7.1847 F120.00
G1 X22.2246 Y7.2366 F120.00
G1 X22.1477 Y7.2827 F120.00
G1 X22.0666 Y7.3211 F120.00
G1 X21.9822 Y7.3513 F120.00
G1 X21.8952 Y7.3730 F120.00
G1 X21.8065 Y7.3862 F120.00
G1 X21.7170 Y7.3906 F120.00
G1 X21.6275 Y7.3862 F120.00
G1 X21.5388 Y7.3730 F120.00
G1 X21.4518 Y7.3513 F120.00
G1 X21.3674 Y7.3211 F120.00
G1 X21.2885 Y7.2838 F120.00
G1 X21.2074 Y7.2352 F120.00
G1 X21.1374 Y7.1832 F120.00
G1 X21.0710 Y7.1230 F120.00
G1 X21.0108 Y7.0566 F120.00
G1 X20.9574 Y6.9846 F120.00
G1 X20.9113 Y6.9077 F120.00
G1 X20.8739 Y6.8289 F120.00
G1 X20.8421 Y6.7398 F120.00
G1 X20.8210 Y6.6552 F120.00
G1 X20.8077 Y6.5653 F120.00
G1 X20.8034 Y6.4770 F120.00
G1 X20.8076 Y6.3899 F120.00
G1 X20.8210 Y6.2988 F120.00
G1 X20.8427 Y6.2118 F120.00
G1 X20.8721 Y6.1297 F120.00
G1 X20.9125 Y6.0442 F120.00
G1 X20.9574 Y5.9694 F120.00
G1 X21.0093 Y5.8994 F120.00
G1 X21.0728 Y5.8293 F120.00
G1 X21.1374 Y5.7708 F120.00
G1 X21.2094 Y5.7174 F120.00
G1 X21.2863 Y5.6713 F120.00
G1 X21.3642 Y5.6344 F120.00
G1 X21.3826 Y4.2919 F120.00
G1 X16.9665 Y4.2920 F120.00
G1 X16.9665 Y8.9928 F120.00
G1 X16.9648 Y9.0264 F120.00
G1 X16.9597 Y9.0608 F120.00
G1 X16.9513 Y9.0946 F120.00
G1 X16.9395 Y9.1274 F120.00
G1 X16.9246 Y9.1589 F120.00
G1 X16.9079 Y9.1870 F120.00
G1 X16.8873 Y9.2152 F120.00
G1 X16.8649 Y9.2402 F120.00
G1 X16.8384 Y9.2646 F120.00
G1 X16.8105 Y9.2856 F120.00
G1 X16.7808 Y9.3036 F120.00
G1 X16.7494 Y9.3187 F120.00
G1 X16.7166 Y9.3307 F120.00
G1 X16.6829 Y9.3393 F120.00
G1 X16.6485 Y9.3446 F120.00
G1 X16.6149 Y9.3465 F120.00
G1 X12.5344 Y9.3707 F120.00
G1 X12.5179 Y9.4163 F120.00
G1 X12.4741 Y9.5086 F120.00
G1 X12.4222 Y9.5951 F120.00
G1 X12.3622 Y9.6762 F120.00
G1 X12.2928 Y9.7528 F120.00
G1 X12.2190 Y9.8198 F120.00
G1 X12.1341 Y9.8829 F120.00
G1 X12.0475 Y9.9347 F120.00
G1 X11.9552 Y9.9784 F120.00
G1 X11.8591 Y10.0128 F120.00
G1 X11.7624 Y10.0371 F120.00
G1 X11.6565 Y10.0528 F120.00
G1 X11.5570 Y10.0576 F120.00
G1 X11.4550 Y10.0526 F120.00
G1 X11.3540 Y10.0376 F120.00
G1 X11.2549 Y10.0128 F120.00
G1 X11.1588 Y9.9784 F120.00
G1 X11.0687 Y9.9358 F120.00
G1 X10.9769 Y9.8808 F120.00
G1 X10.8969 Y9.8214 F120.00
G1 X10.8212 Y9.7528 F120.00
G1 X10.7526 Y9.6771 F120.00
G1 X10.6932 Y9.5971 F120.00
G1 X10.6382 Y9.5053 F120.00
G1 X10.5956 Y9.4152 F120.00
G1 X10.5612 Y9.3191 F120.00
G1 X10.5364 Y9.2200 F120.00
G1 X10.5214 Y9.1190 F120.00
G1 X10.5164 Y9.0170 F120.00
G1 X10.5212 Y8.9175 F120.00
G1 X10.5369 Y8.8116 F120.00
G1 X10.5612 Y8.7149 F120.00
G1 X10.5956 Y8.6188 F120.00
G1 X10.6393 Y8.5265 F120.00
G1 X10.6918 Y8.4389 F120.00
G1 X10.7526 Y8.3569 F120.00
G1 X10.8195 Y8.2830 F120.00
G1 X10.8988 Y8.2111 F120.00
G1 X10.9789 Y8.1518 F120.00
G1 X11.0665 Y8.0993 F120.00
G1 X11.1588 Y8.0556 F120.00
G1 X11.2549 Y8.0212 F120.00
G1 X11.3540 Y7.9964 F120.00
G1 X11.4550 Y7.9814 F120.00
G1 X11.5570 Y7.9764 F120.00
G1 X11.6590 Y7.9814 F120.00
G1 X11.7600 Y7.9964 F120.00
G1 X11.8591 Y8.0212 F120.00
G1 X11.9552 Y8.0556 F120.00
G1 X12.0464 Y8.0987 F120.00
G1 X12.1351 Y8.1518 F120.00
G1 X12.2171 Y8.2126 F120.00
G1 X12.2928 Y8.2812 F120.00
G1 X12.3606 Y8.3559 F120.00
G1 X12.4222 Y8.4389 F120.00
G1 X12.4741 Y8.5254 F120.00
G1 X12.5179 Y8.6177 F120.00
G1 X12.5335 Y8.6608 F120.00
G1 X16.2567 Y8.6387 F120.00
G1 X16.2566 Y4.2919 F120.00
G1 X4.9139 Y4.2920 F120.00
G1 X4.8979 Y4.3363 F120.00
G1 X4.8541 Y4.4286 F120.00
G1 X4.8022 Y4.5151 F120.00
G1 X4.7422 Y4.5962 F120.00
G1 X4.6710 Y4.6745 F120.00
G1 X4.5971 Y4.7414 F120.00
G1 X4.5161 Y4.8015 F120.00
G1 X4.4253 Y4.8558 F120.00
G1 X4.3352 Y4.8984 F120.00
G1 X4.2391 Y4.9328 F120.00
G1 X4.1376 Y4.9580 F120.00
G1 X4.0390 Y4.9726 F120.00
G1 X3.9370 Y4.9776 F120.00
G1 X3.8350 Y4.9726 F120.00
G1 X3.7364 Y4.9580 F120.00
G1 X3.6349 Y4.9328 F120.00
G1 X3.5388 Y4.8984 F120.00
G1 X3.4487 Y4.8558 F120.00
G1 X3.3589 Y4.8022 F120.00
G1 X3.2769 Y4.7414 F120.00
G1 X3.2030 Y4.6745 F120.00
G1 X3.1326 Y4.5971 F120.00
G1 X3.0718 Y4.5151 F120.00
G1 X3.0205 Y4.4297 F120.00
G1 X2.9752 Y4.3341 F120.00
G1 X2.9412 Y4.2391 F120.00
G1 X2.9164 Y4.1400 F120.00
G1 X2.9014 Y4.0390 F120.00
G1 X2.8964 Y3.9370 F120.00
G1 X2.9014 Y3.8350 F120.00
G1 X2.9164 Y3.7340 F120.00
G1 X2.9412 Y3.6349 F120.00
G1 X2.9756 Y3.5388 F120.00
G1 X3.0193 Y3.4465 F120.00
G1 X3.0718 Y3.3589 F120.00
G1 X3.1326 Y3.2769 F120.00
G1 X3.2012 Y3.2012 F120.00
G1 X3.2769 Y3.1326 F120.00
G1 X3.3589 Y3.0718 F120.00
G1 X3.4465 Y3.0193 F120.00
G1 X3.5399 Y2.9752 F120.00
G1 X3.6349 Y2.9412 F120.00
G1 X3.7340 Y2.9164 F120.00
G1 X3.8350 Y2.9014 F120.00
G1 X3.9370 Y2.8964 F120.00
G1 X4.0390 Y2.9014 F120.00
G1 X4.1400 Y2.9164 F120.00
G1 X4.2391 Y2.9412 F120.00
G1 X4.3363 Y2.9761 F120.00
G1 X4.4275 Y3.0193 F120.00
G1 X4.5151 Y3.0718 F120.00
G1 X4.5971 Y3.1326 F120.00
G1 X4.6737 Y3.2021 F120.00
G1 X4.7414 Y3.2769 F120.00
G1 X4.8029 Y3.3599 F120.00
G1 X4.8553 Y3.4476 F120.00
G1 X4.8979 Y3.5377 F120.00
G1 X4.9139 Y3.5821 F120.00
G0 Z2.0000 F1500.00
G0 X4.2558 Y5.2070 F1500.00
G1 F60.00
G1 Z0.2855 F60.00
G1 F120.00
G1 X4.3023 Y5.1954 F120.00
G1 X4.3249 Y5.1888 F120.00
G1 X4.4313 Y5.1508 F120.00
G1 X4.4529 Y5.1415 F120.00
G1 X4.5478 Y5.0965 F120.00
G1 X4.5685 Y5.0851 F120.00
G1 X4.6519 Y5.0351 F120.00
G1 X4.6651 Y5.0267 F120.00
G1 X4.6780 Y5.0177 F120.00
G1 X4.7623 Y4.9550 F120.00
G1 X4.7803 Y4.9398 F120.00
G1 X4.8524 Y4.8746 F120.00
G1 X4.8637 Y4.8637 F120.00
G1 X4.8746 Y4.8524 F120.00
G1 X4.9398 Y4.7803 F120.00
G1 X4.9501 Y4.7684 F120.00
G1 X4.9598 Y4.7561 F120.00
G1 X5.0177 Y4.6780 F120.00
G1 X5.0267 Y4.6651 F120.00
G1 X5.0351 Y4.6519 F120.00
G1 X5.0889 Y4.5620 F120.00
G1 X15.9866 Y4.5619 F120.00
G1 X15.9866 Y8.3703 F120.00
G1 X12.7076 Y8.3897 F120.00
G1 X12.6551 Y8.3021 F120.00
G1 X12.6467 Y8.2889 F120.00
G1 X12.6377 Y8.2760 F120.00
G1 X12.5798 Y8.1979 F120.00
G1 X12.5701 Y8.1856 F120.00
G1 X12.5598 Y8.1737 F120.00
G1 X12.4946 Y8.1016 F120.00
G1 X12.4837 Y8.0903 F120.00
G1 X12.4724 Y8.0794 F120.00
G1 X12.4003 Y8.0142 F120.00
G1 X12.3823 Y7.9990 F120.00
G1 X12.2980 Y7.9363 F120.00
G1 X12.2851 Y7.9273 F120.00
G1 X12.2719 Y7.9189 F120.00
G1 X12.1885 Y7.8689 F120.00
G1 X12.1678 Y7.8575 F120.00
G1 X12.0729 Y7.8125 F120.00
G1 X12.0513 Y7.8032 F120.00
G1 X11.9449 Y7.7652 F120.00
G1 X11.9223 Y7.7586 F120.00
G1 X11.8758 Y7.7470 F120.00
G1 X11.9223 Y7.7354 F120.00
G1 X11.9449 Y7.7288 F120.00
G1 X12.0439 Y7.6935 F120.00
G1 X12.0658 Y7.6847 F120.00
G1 X12.1608 Y7.6399 F120.00
G1 X12.1748 Y7.6328 F120.00
G1 X12.1885 Y7.6251 F120.00
G1 X12.2785 Y7.5710 F120.00
G1 X12.2980 Y7.5577 F120.00
G1 X12.3761 Y7.4998 F120.00
G1 X12.3884 Y7.4901 F120.00
G1 X12.4003 Y7.4798 F120.00
G1 X12.4724 Y7.4146 F120.00
G1 X12.4837 Y7.4037 F120.00
G1 X12.4946 Y7.3924 F120.00
G1 X12.5598 Y7.3203 F120.00
G1 X12.5750 Y7.3023 F120.00
G1 X12.6377 Y7.2180 F120.00
G1 X12.6467 Y7.2051 F120.00
G1 X12.6551 Y7.1919 F120.00
G1 X12.7051 Y7.1085 F120.00
G1 X12.7128 Y7.0948 F120.00
G1 X12.7199 Y7.0808 F120.00
G1 X12.7615 Y6.9929 F120.00
G1 X12.7678 Y6.9785 F120.00
G1 X12.7735 Y6.9639 F120.00
G1 X12.8062 Y6.8724 F120.00
G1 X12.8112 Y6.8574 F120.00
G1 X12.8154 Y6.8423 F120.00
G1 X12.8390 Y6.7480 F120.00
G1 X12.8424 Y6.7327 F120.00
G1 X12.8451 Y6.7172 F120.00
G1 X12.8594 Y6.6210 F120.00
G1 X12.8613 Y6.6055 F120.00
G1 X12.8624 Y6.5898 F120.00
G1 X12.8675 Y6.4849 F120.00
G1 X12.8672 Y6.4613 F120.00
G1 X12.8624 Y6.3642 F120.00
G1 X12.8613 Y6.3485 F120.00
G1 X12.8594 Y6.3330 F120.00
G1 X12.8451 Y6.2368 F120.00
G1 X12.8424 Y6.2213 F120.00
G1 X12.8390 Y6.2060 F120.00
G1 X12.8154 Y6.1117 F120.00
G1 X12.8112 Y6.0966 F120.00
G1 X12.8062 Y6.0816 F120.00
G1 X12.7735 Y5.9901 F120.00
G1 X12.7678 Y5.9755 F120.00
G1 X12.7615 Y5.9611 F120.00
G1 X12.7199 Y5.8732 F120.00
G1 X12.7128 Y5.8592 F120.00
G1 X12.7051 Y5.8455 F120.00
G1 X12.6551 Y5.7621 F120.00
G1 X12.6467 Y5.7489 F120.00
G1 X12.6377 Y5.7360 F120.00
G1 X12.5798 Y5.6579 F120.00
G1 X12.5701 Y5.6456 F120.00
G1 X12.5598 Y5.6337 F120.00
G1 X12.4946 Y5.5616 F120.00
G1 X12.4837 Y5.5503 F120.00
G1 X12.4724 Y5.5394 F120.00
G1 X12.4003 Y5.4742 F120.00
G1 X12.3884 Y5.4639 F120.00
G1 X12.3761 Y5.4542 F120.00
G1 X12.2980 Y5.3963 F120.00
G1 X12.2851 Y5.3873 F120.00
G1 X12.2719 Y5.3789 F120.00
G1 X12.1885 Y5.3289 F120.00
G1 X12.1748 Y5.3212 F120.00
G1 X12.1608 Y5.3141 F120.00
G1 X12.0729 Y5.2725 F120.00
G1 X12.0585 Y5.2662 F120.00
G1 X12.0439 Y5.2605 F120.00
G1 X11.9524 Y5.2278 F120.00
G1 X11.9299 Y5.2206 F120.00
G1 X11.8280 Y5.1950 F120.00
G1 X11.8127 Y5.1916 F120.00
G1 X11.7972 Y5.1889 F120.00
G1 X11.7010 Y5.1746 F120.00
G1 X11.6855 Y5.1727 F120.00
G1 X11.6698 Y5.1716 F120.00
G1 X11.5727 Y5.1668 F120.00
G1 X11.5570 Y5.1664 F120.00
G1 X11.5413 Y5.1668 F120.00
G1 X11.4442 Y5.1716 F120.00
G1 X11.4285 Y5.1727 F120.00
G1 X11.4130 Y5.1746 F120.00
G1 X11.3168 Y5.1889 F120.00
G1 X11.3013 Y5.1916 F120.00
G1 X11.2860 Y5.1950 F120.00
G1 X11.1917 Y5.2186 F120.00
G1 X11.1766 Y5.2228 F120.00
G1 X11.1616 Y5.2278 F120.00
G1 X11.0701 Y5.2605 F120.00
G1 X11.0555 Y5.2662 F120.00
G1 X11.0411 Y5.2725 F120.00
G1 X10.9532 Y5.3141 F120.00
G1 X10.9392 Y5.3212 F120.00
G1 X10.9255 Y5.3289 F120.00
G1 X10.8421 Y5.3789 F120.00
G1 X10.8289 Y5.3873 F120.00
G1 X10.8160 Y5.3963 F120.00
G1 X10.7379 Y5.4542 F120.00
G1 X10.7256 Y5.4639 F120.00
G1 X10.7137 Y5.4742 F120.00
G1 X10.6416 Y5.5394 F120.00
G1 X10.6303 Y5.5503 F120.00
G1 X10.6194 Y5.5616 F120.00
G1 X10.5542 Y5.6337 F120.00
G1 X10.5439 Y5.6456 F120.00
G1 X10.5342 Y5.6579 F120.00
G1 X10.4763 Y5.7360 F120.00
G1 X10.4673 Y5.7489 F120.00
G1 X10.4589 Y5.7621 F120.00
G1 X10.4064 Y5.8497 F120.00
G1 X6.5029 Y5.8267 F120.00
G1 X5.0857 Y5.8465 F120.00
G1 X5.0351 Y5.7621 F120.00
G1 X5.0267 Y5.7489 F120.00
G1 X5.0177 Y5.7360 F120.00
G1 X4.9598 Y5.6579 F120.00
G1 X4.9501 Y5.6456 F120.00
G1 X4.9398 Y5.6337 F120.00
G1 X4.8746 Y5.5616 F120.00
G1 X4.8637 Y5.5503 F120.00
G1 X4.8524 Y5.5394 F120.00
G1 X4.7803 Y5.4742 F120.00
G1 X4.7623 Y5.4590 F120.00
G1 X4.6780 Y5.3963 F120.00
G1 X4.6651 Y5.3873 F120.00
G1 X4.6519 Y5.3789 F120.00
G1 X4.5685 Y5.3289 F120.00
G1 X4.5478 Y5.3175 F120.00
G1 X4.4529 Y5.2725 F120.00
G1 X4.4313 Y5.2632 F120.00
G1 X4.3249 Y5.2252 F120.00
G1 X4.3023 Y5.2186 F120.00
G1 X4.2558 Y5.2070 F120.00
G0 Z2.0000 F1500.00
G0 X3.5820 Y7.4539 F1500.00
G1 F60.00
G1 Z0.2855 F60.00
G1 F120.00
G1 X3.5377 Y7.4379 F120.00
G1 X3.4454 Y7.3941 F120.00
G1 X3.3589 Y7.3422 F120.00
G1 X3.2778 Y7.2822 F120.00
G1 X3.2012 Y7.2128 F120.00
G1 X3.1342 Y7.1390 F120.00
G1 X3.0711 Y7.0541 F120.00
G1 X3.0193 Y6.9675 F120.00
G1 X2.9756 Y6.8752 F120.00
G1 X2.9412 Y6.7791 F120.00
G1 X2.9169 Y6.6824 F120.00
G1 X2.9012 Y6.5765 F120.00
G1 X2.8964 Y6.4770 F120.00
G1 X2.9015 Y6.3738 F120.00
G1 X2.9164 Y6.2740 F120.00
G1 X2.9412 Y6.1749 F120.00
G1 X2.9756 Y6.0788 F120.00
G1 X3.0182 Y5.9887 F120.00
G1 X3.0732 Y5.8969 F120.00
G1 X3.1326 Y5.8169 F120.00
G1 X3.2012 Y5.7412 F120.00
G1 X3.2769 Y5.6726 F120.00
G1 X3.3569 Y5.6132 F120.00
G1 X3.4487 Y5.5582 F120.00
G1 X3.5388 Y5.5156 F120.00
G1 X3.6349 Y5.4812 F120.00
G1 X3.7340 Y5.4564 F120.00
G1 X3.8338 Y5.4415 F120.00
G1 X3.9370 Y5.4364 F120.00
G1 X4.0365 Y5.4412 F120.00
G1 X4.1424 Y5.4569 F120.00
G1 X4.2391 Y5.4812 F120.00
G1 X4.3352 Y5.5156 F120.00
G1 X4.4275 Y5.5593 F120.00
G1 X4.5141 Y5.6111 F120.00
G1 X4.5971 Y5.6726 F120.00
G1 X4.6710 Y5.7395 F120.00
G1 X4.7422 Y5.8178 F120.00
G1 X4.8022 Y5.8989 F120.00
G1 X4.8541 Y5.9854 F120.00
G1 X4.8979 Y6.0777 F120.00
G1 X4.9128 Y6.1190 F120.00
G1 X6.5045 Y6.0967 F120.00
G1 X10.5805 Y6.1208 F120.00
G1 X10.5961 Y6.0777 F120.00
G1 X10.6399 Y5.9854 F120.00
G1 X10.6918 Y5.8989 F120.00
G1 X10.7518 Y5.8178 F120.00
G1 X10.8212 Y5.7412 F120.00
G1 X10.8950 Y5.6742 F120.00
G1 X10.9799 Y5.6111 F120.00
G1 X11.0665 Y5.5593 F120.00
G1 X11.1588 Y5.5156 F120.00
G1 X11.2549 Y5.4812 F120.00
G1 X11.3516 Y5.4569 F120.00
G1 X11.4575 Y5.4412 F120.00
G1 X11.5570 Y5.4364 F120.00
G1 X11.6590 Y5.4414 F120.00
G1 X11.7600 Y5.4564 F120.00
G1 X11.8591 Y5.4812 F120.00
G1 X11.9552 Y5.5156 F120.00
G1 X12.0453 Y5.5582 F120.00
G1 X12.1371 Y5.6132 F120.00
G1 X12.2171 Y5.6726 F120.00
G1 X12.2928 Y5.7412 F120.00
G1 X12.3614 Y5.8169 F120.00
G1 X12.4208 Y5.8969 F120.00
G1 X12.4758 Y5.9887 F120.00
G1 X12.5184 Y6.0788 F120.00
G1 X12.5528 Y6.1749 F120.00
G1 X12.5776 Y6.2740 F120.00
G1 X12.5925 Y6.3738 F120.00
G1 X12.5976 Y6.4770 F120.00
G1 X12.5926 Y6.5790 F120.00
G1 X12.5776 Y6.6800 F120.00
G1 X12.5528 Y6.7791 F120.00
G1 X12.5184 Y6.8752 F120.00
G1 X12.4747 Y6.9675 F120.00
G1 X12.4222 Y7.0551 F120.00
G1 X12.3614 Y7.1371 F120.00
G1 X12.2928 Y7.2128 F120.00
G1 X12.2171 Y7.2814 F120.00
G1 X12.1351 Y7.3422 F120.00
G1 X12.0475 Y7.3947 F120.00
G1 X11.9552 Y7.4384 F120.00
G1 X11.8591 Y7.4728 F120.00
G1 X11.7600 Y7.4976 F120.00
G1 X11.6602 Y7.5125 F120.00
G1 X11.5570 Y7.5176 F120.00
G1 X11.4575 Y7.5128 F120.00
G1 X11.3516 Y7.4971 F120.00
G1 X11.2549 Y7.4728 F120.00
G1 X11.1588 Y7.4384 F120.00
G1 X11.0665 Y7.3947 F120.00
G1 X10.9799 Y7.3429 F120.00
G1 X10.8950 Y7.2798 F120.00
G1 X10.8212 Y7.2128 F120.00
G1 X10.7518 Y7.1362 F120.00
G1 X10.6918 Y7.0551 F120.00
G1 X10.6399 Y6.9686 F120.00
G1 X10.5961 Y6.8763 F120.00
G1 X10.5796 Y6.8307 F120.00
G1 X6.5038 Y6.8066 F120.00
G1 X4.9150 Y6.8289 F120.00
G1 X4.8979 Y6.8763 F120.00
G1 X4.8553 Y6.9664 F120.00
G1 X4.8029 Y7.0541 F120.00
G1 X4.7414 Y7.1371 F120.00
G1 X4.6728 Y7.2128 F120.00
G1 X4.5971 Y7.2814 F120.00
G1 X4.5141 Y7.3429 F120.00
G1 X4.4264 Y7.3953 F120.00
G1 X4.3363 Y7.4379 F120.00
G1 X4.2919 Y7.4539 F120.00
G1 X4.2920 Y16.2821 F120.00
G1 X9.0174 Y16.2821 F120.00
G1 X28.9611 Y16.3070 F120.00
G1 X28.9799 Y14.9376 F120.00
G1 X28.9063 Y14.9027 F120.00
G1 X28.8294 Y14.8566 F120.00
G1 X28.7574 Y14.8032 F120.00
G1 X28.6928 Y14.7447 F120.00
G1 X28.6293 Y14.6746 F120.00
G1 X28.5774 Y14.6046 F120.00
G1 X28.5325 Y14.5298 F120.00
G1 X28.4921 Y14.4443 F120.00
G1 X28.4627 Y14.3622 F120.00
G1 X28.4410 Y14.2752 F120.00
G1 X28.4278 Y14.1865 F120.00
G1 X28.4235 Y14.0995 F120.00
G1 X28.4279 Y14.0062 F120.00
G1 X28.4410 Y13.9188 F120.00
G1 X28.4627 Y13.8318 F120.00
G1 X28.4929 Y13.7474 F120.00
G1 X28.5313 Y13.6663 F120.00
G1 X28.5774 Y13.5894 F120.00
G1 X28.6308 Y13.5174 F120.00
G1 X28.6910 Y13.4510 F120.00
G1 X28.7556 Y13.3924 F120.00
G1 X28.8294 Y13.3374 F120.00
G1 X28.9042 Y13.2925 F120.00
G1 X28.9897 Y13.2521 F120.00
G1 X29.0718 Y13.2227 F120.00
G1 X29.1588 Y13.2010 F120.00
G1 X29.2475 Y13.1878 F120.00
G1 X29.3370 Y13.1834 F120.00
G1 X29.4265 Y13.1878 F120.00
G1 X29.5152 Y13.2010 F120.00
G1 X29.6022 Y13.2227 F120.00
G1 X29.6843 Y13.2521 F120.00
G1 X29.7677 Y13.2913 F120.00
G1 X29.8425 Y13.3361 F120.00
G1 X29.9184 Y13.3924 F120.00
G1 X29.9830 Y13.4510 F120.00
G1 X30.0432 Y13.5174 F120.00
G1 X30.0966 Y13.5894 F120.00
G1 X30.1427 Y13.6663 F120.00
G1 X30.1811 Y13.7474 F120.00
G1 X30.2113 Y13.8318 F120.00
G1 X30.2330 Y13.9188 F120.00
G1 X30.2462 Y14.0075 F120.00
G1 X30.2505 Y14.0995 F120.00
G1 X30.2462 Y14.1865 F120.00
G1 X30.2330 Y14.2752 F120.00
G1 X30.2113 Y14.3622 F120.00
G1 X30.1819 Y14.4443 F120.00
G1 X30.1415 Y14.5298 F120.00
G1 X30.0966 Y14.6046 F120.00
G1 X30.0447 Y14.6746 F120.00
G1 X29.9812 Y14.7447 F120.00
G1 X29.9166 Y14.8032 F120.00
G1 X29.8446 Y14.8566 F120.00
G1 X29.7677 Y14.9027 F120.00
G1 X29.6899 Y14.9396 F120.00
G1 X29.6717 Y16.2821 F120.00
G1 X41.6590 Y16.2820 F120.00
G1 X41.7051 Y9.3486 F120.00
G1 X37.9344 Y9.3707 F120.00
G1 X37.9179 Y9.4163 F120.00
G1 X37.8741 Y9.5086 F120.00
G1 X37.8222 Y9.5951 F120.00
G1 X37.7606 Y9.6781 F120.00
G1 X37.6928 Y9.7528 F120.00
G1 X37.6171 Y9.8214 F120.00
G1 X37.5351 Y9.8822 F120.00
G1 X37.4464 Y9.9353 F120.00
G1 X37.3552 Y9.9784 F120.00
G1 X37.2591 Y10.0128 F120.00
G1 X37.1600 Y10.0376 F120.00
G1 X37.0590 Y10.0526 F120.00
G1 X36.9570 Y10.0576 F120.00
G1 X36.8550 Y10.0526 F120.00
G1 X36.7540 Y10.0376 F120.00
G1 X36.6561 Y10.0131 F120.00
G1 X36.5588 Y9.9784 F120.00
G1 X36.4687 Y9.9358 F120.00
G1 X36.3769 Y9.8808 F120.00
G1 X36.2969 Y9.8214 F120.00
G1 X36.2212 Y9.7528 F120.00
G1 X36.1526 Y9.6771 F120.00
G1 X36.0918 Y9.5951 F120.00
G1 X36.0393 Y9.5075 F120.00
G1 X35.9956 Y9.4152 F120.00
G1 X35.9612 Y9.3191 F120.00
G1 X35.9369 Y9.2224 F120.00
G1 X35.9212 Y9.1165 F120.00
G1 X35.9164 Y9.0170 F120.00
G1 X35.9217 Y8.9126 F120.00
G1 X35.9364 Y8.8140 F120.00
G1 X35.9612 Y8.7149 F120.00
G1 X35.9956 Y8.6188 F120.00
G1 X36.0393 Y8.5265 F120.00
G1 X36.0918 Y8.4389 F120.00
G1 X36.1526 Y8.3569 F120.00
G1 X36.2212 Y8.2812 F120.00
G1 X36.2950 Y8.2142 F120.00
G1 X36.3809 Y8.1505 F120.00
G1 X36.4665 Y8.0993 F120.00
G1 X36.5611 Y8.0547 F120.00
G1 X36.6549 Y8.0212 F120.00
G1 X36.7540 Y7.9964 F120.00
G1 X36.8550 Y7.9814 F120.00
G1 X36.9570 Y7.9764 F120.00
G1 X37.0614 Y7.9817 F120.00
G1 X37.1600 Y7.9964 F120.00
G1 X37.2591 Y8.0212 F120.00
G1 X37.3552 Y8.0556 F120.00
G1 X37.4453 Y8.0982 F120.00
G1 X37.5361 Y8.1525 F120.00
G1 X37.6171 Y8.2126 F120.00
G1 X37.6910 Y8.2795 F120.00
G1 X37.7622 Y8.3578 F120.00
G1 X37.8222 Y8.4389 F120.00
G1 X37.8741 Y8.5254 F120.00
G1 X37.9179 Y8.6177 F120.00
G1 X37.9335 Y8.6608 F120.00
G1 X42.0660 Y8.6367 F120.00
G1 X42.0939 Y8.6381 F120.00
G1 X42.1020 Y8.6389 F120.00
G1 X42.1340 Y8.6439 F120.00
G1 X42.1623 Y8.6510 F120.00
G1 X42.1689 Y8.6530 F120.00
G1 X42.1963 Y8.6629 F120.00
G1 X42.2026 Y8.6656 F120.00
G1 X42.2318 Y8.6797 F120.00
G1 X42.2568 Y8.6947 F120.00
G1 X42.2636 Y8.6992 F120.00
G1 X42.2894 Y8.7187 F120.00
G1 X42.3110 Y8.7383 F120.00
G1 X42.3167 Y8.7441 F120.00
G1 X42.3383 Y8.7683 F120.00
G1 X42.3557 Y8.7917 F120.00
G1 X42.3595 Y8.7974 F120.00
G1 X42.3765 Y8.8264 F120.00
G1 X42.3890 Y8.8527 F120.00
G1 X42.3921 Y8.8602 F120.00
G1 X42.4027 Y8.8908 F120.00
G1 X42.4099 Y8.9191 F120.00
G1 X42.4114 Y8.9271 F120.00
G1 X42.4159 Y8.9592 F120.00
G1 X42.4173 Y8.9895 F120.00
G1 X42.3665 Y16.6394 F120.00
G1 X42.3646 Y16.6741 F120.00
G1 X42.3590 Y16.7098 F120.00
G1 X42.3506 Y16.7423 F120.00
G1 X42.3395 Y16.7728 F120.00
G1 X42.3246 Y16.8043 F120.00
G1 X42.3080 Y16.8321 F120.00
G1 X42.3040 Y16.8382 F120.00
G1 X42.2867 Y16.8612 F120.00
G1 X42.2829 Y16.8658 F120.00
G1 X42.2609 Y16.8896 F120.00
G1 X42.2349 Y16.9129 F120.00
G1 X42.2068 Y16.9334 F120.00
G1 X42.1789 Y16.9500 F120.00
G1 X42.1474 Y16.9649 F120.00
G1 X42.1170 Y16.9759 F120.00
G1 X42.1100 Y16.9780 F120.00
G1 X42.0820 Y16.9849 F120.00
G1 X42.0761 Y16.9860 F120.00
G1 X42.0440 Y16.9905 F120.00
G1 X42.0116 Y16.9919 F120.00
G1 X29.4434 Y16.9920 F120.00
G1 X29.4142 Y17.0022 F120.00
G1 X29.3804 Y17.0106 F120.00
G1 X29.3459 Y17.0157 F120.00
G1 X29.3112 Y17.0173 F120.00
G1 X9.0168 Y16.9919 F120.00
G1 X3.9370 Y16.9919 F120.00
G1 X3.9022 Y16.9902 F120.00
G1 X3.8654 Y16.9846 F120.00
G1 X3.8340 Y16.9767 F120.00
G1 X3.8012 Y16.9649 F120.00
G1 X3.7697 Y16.9500 F120.00
G1 X3.7419 Y16.9334 F120.00
G1 X3.7100 Y16.9098 F120.00
G1 X3.6860 Y16.8880 F120.00
G1 X3.6626 Y16.8622 F120.00
G1 X3.6419 Y16.8342 F120.00
G1 X3.6252 Y16.8065 F120.00
G1 X3.6082 Y16.7705 F120.00
G1 X3.5973 Y16.7400 F120.00
G1 X3.5889 Y16.7062 F120.00
G1 X3.5838 Y16.6718 F120.00
G1 X3.5821 Y16.6382 F120.00
G1 X3.5820 Y7.4539 F120.00
G0 Z2.0000 F1500.00
G0 X3.4920 Y7.5159 F1500.00
G1 F60.00
G1 Z0.2855 F60.00
G1 F120.00
G1 X3.4040 Y7.4741 F120.00
G1 X3.3089 Y7.4171 F120.00
G1 X3.2198 Y7.3510 F120.00
G1 X3.1425 Y7.2812 F120.00
G1 X3.1328 Y7.2715 F120.00
G1 X3.0675 Y7.1994 F120.00
G1 X3.0588 Y7.1888 F120.00
G1 X2.9969 Y7.1051 F120.00
G1 X2.9399 Y7.0100 F120.00
G1 X2.8925 Y6.9097 F120.00
G1 X2.8572 Y6.8117 F120.00
G1 X2.8533 Y6.7986 F120.00
G1 X2.8296 Y6.7043 F120.00
G1 X2.8270 Y6.6908 F120.00
G1 X2.8118 Y6.5878 F120.00
G1 X2.8064 Y6.4770 F120.00
G1 X2.8118 Y6.3662 F120.00
G1 X2.8270 Y6.2632 F120.00
G1 X2.8296 Y6.2497 F120.00
G1 X2.8533 Y6.1554 F120.00
G1 X2.8572 Y6.1423 F120.00
G1 X2.8925 Y6.0443 F120.00
G1 X2.9399 Y5.9440 F120.00
G1 X2.9969 Y5.8489 F120.00
G1 X3.0588 Y5.7652 F120.00
G1 X3.0675 Y5.7546 F120.00
G1 X3.1328 Y5.6825 F120.00
G1 X3.1425 Y5.6728 F120.00
G1 X3.2198 Y5.6030 F120.00
G1 X3.3089 Y5.5369 F120.00
G1 X3.4040 Y5.4799 F120.00
G1 X3.4981 Y5.4352 F120.00
G1 X3.5108 Y5.4300 F120.00
G1 X3.6023 Y5.3972 F120.00
G1 X3.6154 Y5.3933 F120.00
G1 X3.7164 Y5.3681 F120.00
G1 X3.8228 Y5.3522 F120.00
G1 X3.8330 Y5.3513 F120.00
G1 X3.9301 Y5.3466 F120.00
G1 X3.9439 Y5.3466 F120.00
G1 X4.0478 Y5.3518 F120.00
G1 X4.1576 Y5.3681 F120.00
G1 X4.2652 Y5.3951 F120.00
G1 X4.3632 Y5.4300 F120.00
G1 X4.3759 Y5.4352 F120.00
G1 X4.4638 Y5.4768 F120.00
G1 X4.4759 Y5.4833 F120.00
G1 X4.5651 Y5.5369 F120.00
G1 X4.6488 Y5.5988 F120.00
G1 X4.6594 Y5.6075 F120.00
G1 X4.7315 Y5.6728 F120.00
G1 X4.7412 Y5.6825 F120.00
G1 X4.8110 Y5.7598 F120.00
G1 X4.8771 Y5.8489 F120.00
G1 X4.9341 Y5.9440 F120.00
G1 X4.9741 Y6.0281 F120.00
G1 X6.5050 Y6.0067 F120.00
G1 X10.5189 Y6.0304 F120.00
G1 X10.5599 Y5.9440 F120.00
G1 X10.6169 Y5.8489 F120.00
G1 X10.6830 Y5.7598 F120.00
G1 X10.7528 Y5.6825 F120.00
G1 X10.7625 Y5.6728 F120.00
G1 X10.8346 Y5.6075 F120.00
G1 X10.8452 Y5.5988 F120.00
G1 X10.9289 Y5.5369 F120.00
G1 X11.0181 Y5.4833 F120.00
G1 X11.0302 Y5.4768 F120.00
G1 X11.1181 Y5.4352 F120.00
G1 X11.1308 Y5.4300 F120.00
G1 X11.2288 Y5.3951 F120.00
G1 X11.3364 Y5.3681 F120.00
G1 X11.4462 Y5.3518 F120.00
G1 X11.5501 Y5.3466 F120.00
G1 X11.5639 Y5.3466 F120.00
G1 X11.6610 Y5.3513 F120.00
G1 X11.6712 Y5.3522 F120.00
G1 X11.7776 Y5.3681 F120.00
G1 X11.8852 Y5.3951 F120.00
G1 X11.9897 Y5.4325 F120.00
G1 X12.0838 Y5.4768 F120.00
G1 X12.0959 Y5.4833 F120.00
G1 X12.1793 Y5.5333 F120.00
G1 X12.1907 Y5.5409 F120.00
G1 X12.2742 Y5.6030 F120.00
G1 X12.3565 Y5.6775 F120.00
G1 X12.4310 Y5.7598 F120.00
G1 X12.4931 Y5.8433 F120.00
G1 X12.5007 Y5.8547 F120.00
G1 X12.5507 Y5.9381 F120.00
G1 X12.5572 Y5.9502 F120.00
G1 X12.6015 Y6.0443 F120.00
G1 X12.6389 Y6.1488 F120.00
G1 X12.6659 Y6.2564 F120.00
G1 X12.6818 Y6.3628 F120.00
G1 X12.6827 Y6.3730 F120.00
G1 X12.6876 Y6.4770 F120.00
G1 X12.6822 Y6.5878 F120.00
G1 X12.6659 Y6.6976 F120.00
G1 X12.6389 Y6.8052 F120.00
G1 X12.6015 Y6.9097 F120.00
G1 X12.5541 Y7.0100 F120.00
G1 X12.4971 Y7.1051 F120.00
G1 X12.4310 Y7.1942 F120.00
G1 X12.3565 Y7.2765 F120.00
G1 X12.2742 Y7.3510 F120.00
G1 X12.1851 Y7.4171 F120.00
G1 X12.0900 Y7.4741 F120.00
G1 X11.9897 Y7.5215 F120.00
G1 X11.8852 Y7.5589 F120.00
G1 X11.7776 Y7.5859 F120.00
G1 X11.6746 Y7.6013 F120.00
G1 X11.6610 Y7.6027 F120.00
G1 X11.5639 Y7.6074 F120.00
G1 X11.5501 Y7.6074 F120.00
G1 X11.4462 Y7.6022 F120.00
G1 X11.3364 Y7.5859 F120.00
G1 X11.2288 Y7.5589 F120.00
G1 X11.1308 Y7.5240 F120.00
G1 X11.1181 Y7.5188 F120.00
G1 X11.0302 Y7.4772 F120.00
G1 X11.0181 Y7.4707 F120.00
G1 X10.9289 Y7.4171 F120.00
G1 X10.8452 Y7.3552 F120.00
G1 X10.8346 Y7.3465 F120.00
G1 X10.7625 Y7.2812 F120.00
G1 X10.7528 Y7.2715 F120.00
G1 X10.6830 Y7.1942 F120.00
G1 X10.6169 Y7.1051 F120.00
G1 X10.5599 Y7.0100 F120.00
G1 X10.5173 Y6.9203 F120.00
G1 X6.5042 Y6.8966 F120.00
G1 X4.9777 Y6.9181 F120.00
G1 X4.9341 Y7.0100 F120.00
G1 X4.8771 Y7.1051 F120.00
G1 X4.8110 Y7.1942 F120.00
G1 X4.7365 Y7.2765 F120.00
G1 X4.6542 Y7.3510 F120.00
G1 X4.5651 Y7.4171 F120.00
G1 X4.4700 Y7.4741 F120.00
G1 X4.3819 Y7.5159 F120.00
G1 X4.3820 Y16.1921 F120.00
G1 X9.0176 Y16.1921 F120.00
G1 X28.8724 Y16.2169 F120.00
G1 X28.8891 Y14.9942 F120.00
G1 X28.8700 Y14.9852 F120.00
G1 X28.8609 Y14.9804 F120.00
G1 X28.7852 Y14.9351 F120.00
G1 X28.7766 Y14.9295 F120.00
G1 X28.7003 Y14.8728 F120.00
G1 X28.6298 Y14.8091 F120.00
G1 X28.6226 Y14.8017 F120.00
G1 X28.5612 Y14.7337 F120.00
G1 X28.5065 Y14.6602 F120.00
G1 X28.4989 Y14.6488 F120.00
G1 X28.4553 Y14.5761 F120.00
G1 X28.4503 Y14.5670 F120.00
G1 X28.4098 Y14.4811 F120.00
G1 X28.3788 Y14.3949 F120.00
G1 X28.3748 Y14.3817 F120.00
G1 X28.3542 Y14.2995 F120.00
G1 X28.3515 Y14.2860 F120.00
G1 X28.3382 Y14.1954 F120.00
G1 X28.3334 Y14.0970 F120.00
G1 X28.3382 Y13.9986 F120.00
G1 X28.3515 Y13.9080 F120.00
G1 X28.3542 Y13.8945 F120.00
G1 X28.3748 Y13.8123 F120.00
G1 X28.3788 Y13.7991 F120.00
G1 X28.4098 Y13.7129 F120.00
G1 X28.4488 Y13.6300 F120.00
G1 X28.4553 Y13.6179 F120.00
G1 X28.5025 Y13.5394 F120.00
G1 X28.5612 Y13.4603 F120.00
G1 X28.6273 Y13.3873 F120.00
G1 X28.7003 Y13.3212 F120.00
G1 X28.7794 Y13.2625 F120.00
G1 X28.8579 Y13.2153 F120.00
G1 X28.8700 Y13.2088 F120.00
G1 X28.9467 Y13.1726 F120.00
G1 X28.9594 Y13.1673 F120.00
G1 X29.0457 Y13.1366 F120.00
G1 X29.1412 Y13.1127 F120.00
G1 X29.2386 Y13.0982 F120.00
G1 X29.3370 Y13.0934 F120.00
G1 X29.4354 Y13.0982 F120.00
G1 X29.5328 Y13.1127 F120.00
G1 X29.6283 Y13.1366 F120.00
G1 X29.7146 Y13.1673 F120.00
G1 X29.7273 Y13.1726 F120.00
G1 X29.8101 Y13.2119 F120.00
G1 X29.8888 Y13.2589 F120.00
G1 X29.9002 Y13.2665 F120.00
G1 X29.9683 Y13.3170 F120.00
G1 X29.9789 Y13.3257 F120.00
G1 X30.0467 Y13.3873 F120.00
G1 X30.1128 Y13.4603 F120.00
G1 X30.1715 Y13.5394 F120.00
G1 X30.2221 Y13.6239 F120.00
G1 X30.2642 Y13.7129 F120.00
G1 X30.2974 Y13.8057 F120.00
G1 X30.3213 Y13.9012 F120.00
G1 X30.3349 Y13.9918 F120.00
G1 X30.3363 Y14.0055 F120.00
G1 X30.3404 Y14.0901 F120.00
G1 X30.3404 Y14.1039 F120.00
G1 X30.3358 Y14.1954 F120.00
G1 X30.3213 Y14.2928 F120.00
G1 X30.2974 Y14.3883 F120.00
G1 X30.2667 Y14.4746 F120.00
G1 X30.2614 Y14.4873 F120.00
G1 X30.2252 Y14.5640 F120.00
G1 X30.2204 Y14.5731 F120.00
G1 X30.1715 Y14.6546 F120.00
G1 X30.1170 Y14.7283 F120.00
G1 X30.1083 Y14.7389 F120.00
G1 X30.0514 Y14.8017 F120.00
G1 X30.0442 Y14.8091 F120.00
G1 X29.9737 Y14.8728 F120.00
G1 X29.8974 Y14.9295 F120.00
G1 X29.8888 Y14.9351 F120.00
G1 X29.8131 Y14.9804 F120.00
G1 X29.8040 Y14.9852 F120.00
G1 X29.7791 Y14.9969 F120.00
G1 X29.7629 Y16.1921 F120.00
G1 X41.5696 Y16.1920 F120.00
G1 X41.6145 Y9.4392 F120.00
G1 X37.9967 Y9.4603 F120.00
G1 X37.9541 Y9.5500 F120.00
G1 X37.8971 Y9.6451 F120.00
G1 X37.8310 Y9.7342 F120.00
G1 X37.7565 Y9.8165 F120.00
G1 X37.6742 Y9.8910 F120.00
G1 X37.5851 Y9.9571 F120.00
G1 X37.4900 Y10.0141 F120.00
G1 X37.3959 Y10.0588 F120.00
G1 X37.3832 Y10.0640 F120.00
G1 X37.2917 Y10.0968 F120.00
G1 X37.2786 Y10.1007 F120.00
G1 X37.1776 Y10.1259 F120.00
G1 X37.0746 Y10.1413 F120.00
G1 X37.0610 Y10.1427 F120.00
G1 X36.9570 Y10.1476 F120.00
G1 X36.8462 Y10.1422 F120.00
G1 X36.7364 Y10.1259 F120.00
G1 X36.6354 Y10.1007 F120.00
G1 X36.6255 Y10.0979 F120.00
G1 X36.5243 Y10.0615 F120.00
G1 X36.4240 Y10.0141 F120.00
G1 X36.3289 Y9.9571 F120.00
G1 X36.2452 Y9.8952 F120.00
G1 X36.2346 Y9.8865 F120.00
G1 X36.1625 Y9.8212 F120.00
G1 X36.1528 Y9.8115 F120.00
G1 X36.0830 Y9.7342 F120.00
G1 X36.0209 Y9.6507 F120.00
G1 X36.0133 Y9.6393 F120.00
G1 X35.9599 Y9.5500 F120.00
G1 X35.9125 Y9.4497 F120.00
G1 X35.8751 Y9.3452 F120.00
G1 X35.8481 Y9.2376 F120.00
G1 X35.8318 Y9.1278 F120.00
G1 X35.8264 Y9.0170 F120.00
G1 X35.8318 Y8.9062 F120.00
G1 X35.8470 Y8.8032 F120.00
G1 X35.8496 Y8.7897 F120.00
G1 X35.8751 Y8.6888 F120.00
G1 X35.9100 Y8.5908 F120.00
G1 X35.9152 Y8.5781 F120.00
G1 X35.9568 Y8.4902 F120.00
G1 X35.9633 Y8.4781 F120.00
G1 X36.0169 Y8.3889 F120.00
G1 X36.0830 Y8.2998 F120.00
G1 X36.1575 Y8.2175 F120.00
G1 X36.2398 Y8.1430 F120.00
G1 X36.3289 Y8.0769 F120.00
G1 X36.4240 Y8.0199 F120.00
G1 X36.5243 Y7.9725 F120.00
G1 X36.6223 Y7.9372 F120.00
G1 X36.6354 Y7.9333 F120.00
G1 X36.7297 Y7.9096 F120.00
G1 X36.7432 Y7.9070 F120.00
G1 X36.8462 Y7.8918 F120.00
G1 X36.9501 Y7.8866 F120.00
G1 X36.9604 Y7.8864 F120.00
G1 X37.0678 Y7.8918 F120.00
G1 X37.1708 Y7.9070 F120.00
G1 X37.1843 Y7.9096 F120.00
G1 X37.2852 Y7.9351 F120.00
G1 X37.3832 Y7.9700 F120.00
G1 X37.3959 Y7.9752 F120.00
G1 X37.4900 Y8.0199 F120.00
G1 X37.5851 Y8.0769 F120.00
G1 X37.6688 Y8.1388 F120.00
G1 X37.6794 Y8.1475 F120.00
G1 X37.7565 Y8.2175 F120.00
G1 X37.8310 Y8.2998 F120.00
G1 X37.8931 Y8.3833 F120.00
G1 X37.9007 Y8.3947 F120.00
G1 X37.9541 Y8.4840 F120.00
G1 X37.9951 Y8.5704 F120.00
G1 X42.0688 Y8.5467 F120.00
G1 X42.1000 Y8.5483 F120.00
G1 X42.1158 Y8.5500 F120.00
G1 X42.1433 Y8.5541 F120.00
G1 X42.1521 Y8.5558 F120.00
G1 X42.1858 Y8.5641 F120.00
G1 X42.1977 Y8.5677 F120.00
G1 X42.2303 Y8.5795 F120.00
G1 X42.2417 Y8.5845 F120.00
G1 X42.2668 Y8.5964 F120.00
G1 X42.2748 Y8.6006 F120.00
G1 X42.3045 Y8.6183 F120.00
G1 X42.3176 Y8.6273 F120.00
G1 X42.3400 Y8.6439 F120.00
G1 X42.3470 Y8.6495 F120.00
G1 X42.3727 Y8.6728 F120.00
G1 X42.3838 Y8.6841 F120.00
G1 X42.4025 Y8.7047 F120.00
G1 X42.4082 Y8.7116 F120.00
G1 X42.4289 Y8.7394 F120.00
G1 X42.4359 Y8.7498 F120.00
G1 X42.4519 Y8.7766 F120.00
G1 X42.4562 Y8.7845 F120.00
G1 X42.4711 Y8.8158 F120.00
G1 X42.4770 Y8.8305 F120.00
G1 X42.4864 Y8.8567 F120.00
G1 X42.4890 Y8.8653 F120.00
G1 X42.4976 Y8.8989 F120.00
G1 X42.5005 Y8.9145 F120.00
G1 X42.5045 Y8.9420 F120.00
G1 X42.5055 Y8.9509 F120.00
G1 X42.5073 Y8.9890 F120.00
G1 X42.4565 Y16.6400 F120.00
G1 X42.4542 Y16.6831 F120.00
G1 X42.4492 Y16.7170 F120.00
G1 X42.4467 Y16.7298 F120.00
G1 X42.4367 Y16.7685 F120.00
G1 X42.4225 Y16.8077 F120.00
G1 X42.4038 Y16.8472 F120.00
G1 X42.3852 Y16.8784 F120.00
G1 X42.3759 Y16.8922 F120.00
G1 X42.3576 Y16.9168 F120.00
G1 X42.3491 Y16.9267 F120.00
G1 X42.3245 Y16.9534 F120.00
G1 X42.2919 Y16.9825 F120.00
G1 X42.2584 Y17.0072 F120.00
G1 X42.2242 Y17.0279 F120.00
G1 X42.2159 Y17.0323 F120.00
G1 X42.1882 Y17.0453 F120.00
G1 X42.1727 Y17.0516 F120.00
G1 X42.1384 Y17.0635 F120.00
G1 X42.0960 Y17.0739 F120.00
G1 X42.0547 Y17.0799 F120.00
G1 X42.0116 Y17.0819 F120.00
G1 X29.4587 Y17.0820 F120.00
G1 X29.4435 Y17.0873 F120.00
G1 X29.4317 Y17.0908 F120.00
G1 X29.4012 Y17.0982 F120.00
G1 X29.3891 Y17.1005 F120.00
G1 X29.3581 Y17.1049 F120.00
G1 X29.3492 Y17.1058 F120.00
G1 X29.3110 Y17.1073 F120.00
G1 X9.0167 Y17.0819 F120.00
G1 X3.9370 Y17.0819 F120.00
G1 X3.8934 Y17.0798 F120.00
G1 X3.8570 Y17.0746 F120.00
G1 X3.8468 Y17.0727 F120.00
G1 X3.8078 Y17.0628 F120.00
G1 X3.7667 Y17.0481 F120.00
G1 X3.7273 Y17.0294 F120.00
G1 X3.6956 Y17.0106 F120.00
G1 X3.6870 Y17.0050 F120.00
G1 X3.6797 Y16.9997 F120.00
G1 X3.6574 Y16.9831 F120.00
G1 X3.6495 Y16.9765 F120.00
G1 X3.6224 Y16.9516 F120.00
G1 X3.5930 Y16.9193 F120.00
G1 X3.5670 Y16.8842 F120.00
G1 X3.5480 Y16.8527 F120.00
G1 X3.5415 Y16.8406 F120.00
G1 X3.5273 Y16.8104 F120.00
G1 X3.5234 Y16.8009 F120.00
G1 X3.5112 Y16.7662 F120.00
G1 X3.5006 Y16.7238 F120.00
G1 X3.4942 Y16.6806 F120.00
G1 X3.4922 Y16.6439 F120.00
G1 X3.4920 Y7.5159 F120.00
G0 Z2.0000 F1500.00
G0 X3.4020 Y7.5729 F1500.00
G1 F60.00
G1 Z0.2855 F60.00
G1 F120.00
G1 X3.3666 Y7.5561 F120.00
G1 X3.3567 Y7.5507 F120.00
G1 X3.2684 Y7.4979 F120.00
G1 X3.2542 Y7.4887 F120.00
G1 X3.1716 Y7.4275 F120.00
G1 X3.1627 Y7.4205 F120.00
G1 X3.1541 Y7.4132 F120.00
G1 X3.0779 Y7.3440 F120.00
G1 X3.0661 Y7.3319 F120.00
G1 X3.0008 Y7.2599 F120.00
G1 X2.9935 Y7.2513 F120.00
G1 X2.9865 Y7.2424 F120.00
G1 X2.9221 Y7.1551 F120.00
G1 X2.8661 Y7.0622 F120.00
G1 X2.8579 Y7.0474 F120.00
G1 X2.8139 Y6.9544 F120.00
G1 X2.8093 Y6.9441 F120.00
G1 X2.7725 Y6.8420 F120.00
G1 X2.7690 Y6.8313 F120.00
G1 X2.7660 Y6.8204 F120.00
G1 X2.7423 Y6.7261 F120.00
G1 X2.7399 Y6.7151 F120.00
G1 X2.7379 Y6.7040 F120.00
G1 X2.7223 Y6.5966 F120.00
G1 X2.7167 Y6.4883 F120.00
G1 X2.7164 Y6.4770 F120.00
G1 X2.7167 Y6.4657 F120.00
G1 X2.7223 Y6.3574 F120.00
G1 X2.7237 Y6.3462 F120.00
G1 X2.7388 Y6.2444 F120.00
G1 X2.7423 Y6.2279 F120.00
G1 X2.7660 Y6.1336 F120.00
G1 X2.7690 Y6.1227 F120.00
G1 X2.7725 Y6.1120 F120.00
G1 X2.8093 Y6.0099 F120.00
G1 X2.8555 Y5.9117 F120.00
G1 X2.8605 Y5.9016 F120.00
G1 X2.8661 Y5.8918 F120.00
G1 X2.9221 Y5.7989 F120.00
G1 X2.9865 Y5.7116 F120.00
G1 X2.9935 Y5.7027 F120.00
G1 X3.0008 Y5.6941 F120.00
G1 X3.0661 Y5.6221 F120.00
G1 X3.0739 Y5.6139 F120.00
G1 X3.0821 Y5.6061 F120.00
G1 X3.1627 Y5.5335 F120.00
G1 X3.1716 Y5.5265 F120.00
G1 X3.2589 Y5.4621 F120.00
G1 X3.2684 Y5.4561 F120.00
G1 X3.3616 Y5.4005 F120.00
G1 X3.4596 Y5.3539 F120.00
G1 X3.4699 Y5.3493 F120.00
G1 X3.4804 Y5.3453 F120.00
G1 X3.5720 Y5.3125 F120.00
G1 X3.5827 Y5.3090 F120.00
G1 X3.5936 Y5.3060 F120.00
G1 X3.6989 Y5.2799 F120.00
G1 X3.7100 Y5.2779 F120.00
G1 X3.8118 Y5.2629 F120.00
G1 X3.8286 Y5.2614 F120.00
G1 X3.9257 Y5.2567 F120.00
G1 X3.9370 Y5.2564 F120.00
G1 X3.9483 Y5.2567 F120.00
G1 X4.0566 Y5.2623 F120.00
G1 X4.1640 Y5.2779 F120.00
G1 X4.1751 Y5.2799 F120.00
G1 X4.1861 Y5.2823 F120.00
G1 X4.2913 Y5.3090 F120.00
G1 X4.3936 Y5.3453 F120.00
G1 X4.4041 Y5.3493 F120.00
G1 X4.4144 Y5.3539 F120.00
G1 X4.5023 Y5.3955 F120.00
G1 X4.5173 Y5.4033 F120.00
G1 X4.6056 Y5.4561 F120.00
G1 X4.6151 Y5.4621 F120.00
G1 X4.7024 Y5.5265 F120.00
G1 X4.7113 Y5.5335 F120.00
G1 X4.7199 Y5.5408 F120.00
G1 X4.7919 Y5.6061 F120.00
G1 X4.8040 Y5.6179 F120.00
G1 X4.8732 Y5.6941 F120.00
G1 X4.8805 Y5.7027 F120.00
G1 X4.8875 Y5.7116 F120.00
G1 X4.9487 Y5.7942 F120.00
G1 X4.9579 Y5.8084 F120.00
G1 X5.0107 Y5.8967 F120.00
G1 X5.0161 Y5.9066 F120.00
G1 X5.0307 Y5.9373 F120.00
G1 X6.5056 Y5.9167 F120.00
G1 X10.4620 Y5.9401 F120.00
G1 X10.4779 Y5.9066 F120.00
G1 X10.4833 Y5.8967 F120.00
G1 X10.5361 Y5.8084 F120.00
G1 X10.5453 Y5.7942 F120.00
G1 X10.6065 Y5.7116 F120.00
G1 X10.6135 Y5.7027 F120.00
G1 X10.6208 Y5.6941 F120.00
G1 X10.6900 Y5.6179 F120.00
G1 X10.7021 Y5.6061 F120.00
G1 X10.7741 Y5.5408 F120.00
G1 X10.7827 Y5.5335 F120.00
G1 X10.7916 Y5.5265 F120.00
G1 X10.8789 Y5.4621 F120.00
G1 X10.8884 Y5.4561 F120.00
G1 X10.9767 Y5.4033 F120.00
G1 X10.9917 Y5.3955 F120.00
G1 X11.0796 Y5.3539 F120.00
G1 X11.0899 Y5.3493 F120.00
G1 X11.1004 Y5.3453 F120.00
G1 X11.2027 Y5.3090 F120.00
G1 X11.2136 Y5.3060 F120.00
G1 X11.3189 Y5.2799 F120.00
G1 X11.4262 Y5.2637 F120.00
G1 X11.4374 Y5.2623 F120.00
G1 X11.5457 Y5.2567 F120.00
G1 X11.5570 Y5.2564 F120.00
G1 X11.5683 Y5.2567 F120.00
G1 X11.6654 Y5.2614 F120.00
G1 X11.6822 Y5.2629 F120.00
G1 X11.7840 Y5.2779 F120.00
G1 X11.7951 Y5.2799 F120.00
G1 X11.9004 Y5.3060 F120.00
G1 X11.9113 Y5.3090 F120.00
G1 X12.0136 Y5.3453 F120.00
G1 X12.0241 Y5.3493 F120.00
G1 X12.1223 Y5.3955 F120.00
G1 X12.1324 Y5.4005 F120.00
G1 X12.1422 Y5.4061 F120.00
G1 X12.2256 Y5.4561 F120.00
G1 X12.2351 Y5.4621 F120.00
G1 X12.2444 Y5.4686 F120.00
G1 X12.3313 Y5.5335 F120.00
G1 X12.4119 Y5.6061 F120.00
G1 X12.4201 Y5.6139 F120.00
G1 X12.4279 Y5.6221 F120.00
G1 X12.5005 Y5.7027 F120.00
G1 X12.5654 Y5.7896 F120.00
G1 X12.5719 Y5.7989 F120.00
G1 X12.5779 Y5.8084 F120.00
G1 X12.6279 Y5.8918 F120.00
G1 X12.6335 Y5.9016 F120.00
G1 X12.6385 Y5.9117 F120.00
G1 X12.6847 Y6.0099 F120.00
G1 X12.7215 Y6.1120 F120.00
G1 X12.7250 Y6.1227 F120.00
G1 X12.7517 Y6.2279 F120.00
G1 X12.7541 Y6.2389 F120.00
G1 X12.7561 Y6.2500 F120.00
G1 X12.7711 Y6.3518 F120.00
G1 X12.7726 Y6.3686 F120.00
G1 X12.7776 Y6.4770 F120.00
G1 X12.7773 Y6.4883 F120.00
G1 X12.7717 Y6.5966 F120.00
G1 X12.7703 Y6.6078 F120.00
G1 X12.7541 Y6.7151 F120.00
G1 X12.7517 Y6.7261 F120.00
G1 X12.7250 Y6.8313 F120.00
G1 X12.6887 Y6.9336 F120.00
G1 X12.6847 Y6.9441 F120.00
G1 X12.6801 Y6.9544 F120.00
G1 X12.6335 Y7.0524 F120.00
G1 X12.5779 Y7.1456 F120.00
G1 X12.5719 Y7.1551 F120.00
G1 X12.5654 Y7.1644 F120.00
G1 X12.5005 Y7.2513 F120.00
G1 X12.4932 Y7.2599 F120.00
G1 X12.4201 Y7.3401 F120.00
G1 X12.3399 Y7.4132 F120.00
G1 X12.3313 Y7.4205 F120.00
G1 X12.3224 Y7.4275 F120.00
G1 X12.2351 Y7.4919 F120.00
G1 X12.1422 Y7.5479 F120.00
G1 X12.1324 Y7.5535 F120.00
G1 X12.1223 Y7.5585 F120.00
G1 X12.0241 Y7.6047 F120.00
G1 X11.9220 Y7.6415 F120.00
G1 X11.9113 Y7.6450 F120.00
G1 X11.8061 Y7.6717 F120.00
G1 X11.7951 Y7.6741 F120.00
G1 X11.6878 Y7.6903 F120.00
G1 X11.6766 Y7.6917 F120.00
G1 X11.6654 Y7.6926 F120.00
G1 X11.5683 Y7.6973 F120.00
G1 X11.5570 Y7.6976 F120.00
G1 X11.5457 Y7.6973 F120.00
G1 X11.4374 Y7.6917 F120.00
G1 X11.4262 Y7.6903 F120.00
G1 X11.3189 Y7.6741 F120.00
G1 X11.2136 Y7.6480 F120.00
G1 X11.2027 Y7.6450 F120.00
G1 X11.1004 Y7.6087 F120.00
G1 X11.0899 Y7.6047 F120.00
G1 X11.0796 Y7.6001 F120.00
G1 X10.9917 Y7.5585 F120.00
G1 X10.9767 Y7.5507 F120.00
G1 X10.8884 Y7.4979 F120.00
G1 X10.8789 Y7.4919 F120.00
G1 X10.7916 Y7.4275 F120.00
G1 X10.7827 Y7.4205 F120.00
G1 X10.7741 Y7.4132 F120.00
G1 X10.7021 Y7.3479 F120.00
G1 X10.6900 Y7.3361 F120.00
G1 X10.6208 Y7.2599 F120.00
G1 X10.6135 Y7.2513 F120.00
G1 X10.6065 Y7.2424 F120.00
G1 X10.5453 Y7.1598 F120.00
G1 X10.5361 Y7.1456 F120.00
G1 X10.4833 Y7.0573 F120.00
G1 X10.4755 Y7.0423 F120.00
G1 X10.4602 Y7.0100 F120.00
G1 X6.5046 Y6.9866 F120.00
G1 X5.0351 Y7.0073 F120.00
G1 X5.0185 Y7.0423 F120.00
G1 X5.0107 Y7.0573 F120.00
G1 X4.9579 Y7.1456 F120.00
G1 X4.9487 Y7.1598 F120.00
G1 X4.8875 Y7.2424 F120.00
G1 X4.8805 Y7.2513 F120.00
G1 X4.8079 Y7.3319 F120.00
G1 X4.8001 Y7.3401 F120.00
G1 X4.7919 Y7.3479 F120.00
G1 X4.7113 Y7.4205 F120.00
G1 X4.7024 Y7.4275 F120.00
G1 X4.6198 Y7.4887 F120.00
G1 X4.6056 Y7.4979 F120.00
G1 X4.5173 Y7.5507 F120.00
G1 X4.5074 Y7.5561 F120.00
G1 X4.4719 Y7.5729 F120.00
G1 X4.4720 Y16.1021 F120.00
G1 X9.0177 Y16.1021 F120.00
G1 X28.7836 Y16.1268 F120.00
G1 X28.7984 Y15.0479 F120.00
G1 X28.7294 Y15.0063 F120.00
G1 X28.7202 Y14.9998 F120.00
G1 X28.6432 Y14.9424 F120.00
G1 X28.6347 Y14.9350 F120.00
G1 X28.5637 Y14.8703 F120.00
G1 X28.4990 Y14.7993 F120.00
G1 X28.4916 Y14.7908 F120.00
G1 X28.4847 Y14.7819 F120.00
G1 X28.4342 Y14.7138 F120.00
G1 X28.4277 Y14.7046 F120.00
G1 X28.4217 Y14.6950 F120.00
G1 X28.3725 Y14.6125 F120.00
G1 X28.3312 Y14.5258 F120.00
G1 X28.3266 Y14.5155 F120.00
G1 X28.3226 Y14.5050 F120.00
G1 X28.2940 Y14.4252 F120.00
G1 X28.2905 Y14.4145 F120.00
G1 X28.2875 Y14.4036 F120.00
G1 X28.2644 Y14.3104 F120.00
G1 X28.2501 Y14.2154 F120.00
G1 X28.2487 Y14.2042 F120.00
G1 X28.2437 Y14.1083 F120.00
G1 X28.2434 Y14.0970 F120.00
G1 X28.2437 Y14.0857 F120.00
G1 X28.2487 Y13.9898 F120.00
G1 X28.2501 Y13.9786 F120.00
G1 X28.2634 Y13.8892 F120.00
G1 X28.2669 Y13.8726 F120.00
G1 X28.2905 Y13.7795 F120.00
G1 X28.3226 Y13.6890 F120.00
G1 X28.3266 Y13.6785 F120.00
G1 X28.3312 Y13.6682 F120.00
G1 X28.3675 Y13.5916 F120.00
G1 X28.3725 Y13.5815 F120.00
G1 X28.3781 Y13.5717 F120.00
G1 X28.4277 Y13.4894 F120.00
G1 X28.4847 Y13.4121 F120.00
G1 X28.4916 Y13.4032 F120.00
G1 X28.4990 Y13.3947 F120.00
G1 X28.5637 Y13.3237 F120.00
G1 X28.5719 Y13.3159 F120.00
G1 X28.6432 Y13.2516 F120.00
G1 X28.7202 Y13.1942 F120.00
G1 X28.7294 Y13.1877 F120.00
G1 X28.8117 Y13.1381 F120.00
G1 X28.8215 Y13.1325 F120.00
G1 X28.8316 Y13.1275 F120.00
G1 X28.9082 Y13.0912 F120.00
G1 X28.9185 Y13.0866 F120.00
G1 X28.9290 Y13.0826 F120.00
G1 X29.0195 Y13.0505 F120.00
G1 X29.1126 Y13.0269 F120.00
G1 X29.1236 Y13.0244 F120.00
G1 X29.2186 Y13.0101 F120.00
G1 X29.2298 Y13.0087 F120.00
G1 X29.2411 Y13.0078 F120.00
G1 X29.3370 Y13.0034 F120.00
G1 X29.4329 Y13.0078 F120.00
G1 X29.4442 Y13.0087 F120.00
G1 X29.5392 Y13.0225 F120.00
G1 X29.5504 Y13.0244 F120.00
G1 X29.5614 Y13.0269 F120.00
G1 X29.6436 Y13.0475 F120.00
G1 X29.6545 Y13.0505 F120.00
G1 X29.6652 Y13.0540 F120.00
G1 X29.7555 Y13.0866 F120.00
G1 X29.7658 Y13.0912 F120.00
G1 X29.8525 Y13.1325 F120.00
G1 X29.9350 Y13.1817 F120.00
G1 X29.9446 Y13.1877 F120.00
G1 X29.9538 Y13.1942 F120.00
G1 X30.0308 Y13.2516 F120.00
G1 X30.1021 Y13.3159 F120.00
G1 X30.1103 Y13.3237 F120.00
G1 X30.1181 Y13.3319 F120.00
G1 X30.1824 Y13.4032 F120.00
G1 X30.2398 Y13.4802 F120.00
G1 X30.2463 Y13.4894 F120.00
G1 X30.2959 Y13.5717 F120.00
G1 X30.3015 Y13.5815 F120.00
G1 X30.3065 Y13.5916 F120.00
G1 X30.3428 Y13.6682 F120.00
G1 X30.3474 Y13.6785 F120.00
G1 X30.3514 Y13.6890 F120.00
G1 X30.3835 Y13.7795 F120.00
G1 X30.4071 Y13.8726 F120.00
G1 X30.4106 Y13.8892 F120.00
G1 X30.4239 Y13.9786 F120.00
G1 X30.4253 Y13.9898 F120.00
G1 X30.4303 Y14.0857 F120.00
G1 X30.4306 Y14.0970 F120.00
G1 X30.4303 Y14.1083 F120.00
G1 X30.4253 Y14.2042 F120.00
G1 X30.4115 Y14.2992 F120.00
G1 X30.4096 Y14.3104 F120.00
G1 X30.3865 Y14.4036 F120.00
G1 X30.3835 Y14.4145 F120.00
G1 X30.3800 Y14.4252 F120.00
G1 X30.3514 Y14.5050 F120.00
G1 X30.3474 Y14.5155 F120.00
G1 X30.3428 Y14.5258 F120.00
G1 X30.3015 Y14.6125 F120.00
G1 X30.2523 Y14.6950 F120.00
G1 X30.2463 Y14.7046 F120.00
G1 X30.2398 Y14.7138 F120.00
G1 X30.1893 Y14.7819 F120.00
G1 X30.1824 Y14.7908 F120.00
G1 X30.1750 Y14.7993 F120.00
G1 X30.1103 Y14.8703 F120.00
G1 X30.1021 Y14.8781 F120.00
G1 X30.0308 Y14.9424 F120.00
G1 X29.9538 Y14.9998 F120.00
G1 X29.9446 Y15.0063 F120.00
G1 X29.8684 Y15.0523 F120.00
G1 X29.8542 Y16.1021 F120.00
G1 X41.4802 Y16.1020 F120.00
G1 X41.5239 Y9.5297 F120.00
G1 X38.0538 Y9.5500 F120.00
G1 X38.0385 Y9.5823 F120.00
G1 X38.0307 Y9.5973 F120.00
G1 X37.9779 Y9.6856 F120.00
G1 X37.9687 Y9.6998 F120.00
G1 X37.9075 Y9.7824 F120.00
G1 X37.9005 Y9.7913 F120.00
G1 X37.8279 Y9.8719 F120.00
G1 X37.8161 Y9.8840 F120.00
G1 X37.7399 Y9.9532 F120.00
G1 X37.7313 Y9.9605 F120.00
G1 X37.7224 Y9.9675 F120.00
G1 X37.6351 Y10.0319 F120.00
G1 X37.5422 Y10.0879 F120.00
G1 X37.5324 Y10.0935 F120.00
G1 X37.4344 Y10.1401 F120.00
G1 X37.4189 Y10.1468 F120.00
G1 X37.3220 Y10.1815 F120.00
G1 X37.3113 Y10.1850 F120.00
G1 X37.2061 Y10.2117 F120.00
G1 X37.1951 Y10.2141 F120.00
G1 X37.0878 Y10.2303 F120.00
G1 X37.0766 Y10.2317 F120.00
G1 X37.0654 Y10.2326 F120.00
G1 X36.9570 Y10.2376 F120.00
G1 X36.8486 Y10.2326 F120.00
G1 X36.8374 Y10.2317 F120.00
G1 X36.8262 Y10.2303 F120.00
G1 X36.7189 Y10.2141 F120.00
G1 X36.7079 Y10.2117 F120.00
G1 X36.6027 Y10.1850 F120.00
G1 X36.5920 Y10.1815 F120.00
G1 X36.4951 Y10.1468 F120.00
G1 X36.4796 Y10.1401 F120.00
G1 X36.3816 Y10.0935 F120.00
G1 X36.2884 Y10.0379 F120.00
G1 X36.2789 Y10.0319 F120.00
G1 X36.2696 Y10.0254 F120.00
G1 X36.1916 Y9.9675 F120.00
G1 X36.1827 Y9.9605 F120.00
G1 X36.1741 Y9.9532 F120.00
G1 X36.0939 Y9.8801 F120.00
G1 X36.0208 Y9.7999 F120.00
G1 X36.0135 Y9.7913 F120.00
G1 X35.9486 Y9.7044 F120.00
G1 X35.9421 Y9.6951 F120.00
G1 X35.8861 Y9.6022 F120.00
G1 X35.8805 Y9.5924 F120.00
G1 X35.8339 Y9.4944 F120.00
G1 X35.8293 Y9.4841 F120.00
G1 X35.7925 Y9.3820 F120.00
G1 X35.7890 Y9.3713 F120.00
G1 X35.7623 Y9.2661 F120.00
G1 X35.7599 Y9.2551 F120.00
G1 X35.7437 Y9.1478 F120.00
G1 X35.7423 Y9.1366 F120.00
G1 X35.7414 Y9.1254 F120.00
G1 X35.7367 Y9.0283 F120.00
G1 X35.7364 Y9.0170 F120.00
G1 X35.7367 Y9.0057 F120.00
G1 X35.7423 Y8.8974 F120.00
G1 X35.7437 Y8.8862 F120.00
G1 X35.7599 Y8.7789 F120.00
G1 X35.7860 Y8.6736 F120.00
G1 X35.7890 Y8.6627 F120.00
G1 X35.7925 Y8.6520 F120.00
G1 X35.8293 Y8.5499 F120.00
G1 X35.8339 Y8.5396 F120.00
G1 X35.8805 Y8.4416 F120.00
G1 X35.9361 Y8.3484 F120.00
G1 X35.9421 Y8.3389 F120.00
G1 X35.9486 Y8.3296 F120.00
G1 X36.0065 Y8.2516 F120.00
G1 X36.0135 Y8.2427 F120.00
G1 X36.0208 Y8.2341 F120.00
G1 X36.0939 Y8.1539 F120.00
G1 X36.1021 Y8.1461 F120.00
G1 X36.1827 Y8.0735 F120.00
G1 X36.1916 Y8.0665 F120.00
G1 X36.2789 Y8.0021 F120.00
G1 X36.3718 Y7.9461 F120.00
G1 X36.3816 Y7.9405 F120.00
G1 X36.4796 Y7.8939 F120.00
G1 X36.4899 Y7.8893 F120.00
G1 X36.5920 Y7.8525 F120.00
G1 X36.6027 Y7.8490 F120.00
G1 X36.6136 Y7.8460 F120.00
G1 X36.7079 Y7.8223 F120.00
G1 X36.7189 Y7.8199 F120.00
G1 X36.7300 Y7.8179 F120.00
G1 X36.8374 Y7.8023 F120.00
G1 X36.9457 Y7.7967 F120.00
G1 X36.9626 Y7.7965 F120.00
G1 X37.0654 Y7.8014 F120.00
G1 X37.0766 Y7.8023 F120.00
G1 X37.1840 Y7.8179 F120.00
G1 X37.1951 Y7.8199 F120.00
G1 X37.2061 Y7.8223 F120.00
G1 X37.3113 Y7.8490 F120.00
G1 X37.4136 Y7.8853 F120.00
G1 X37.4241 Y7.8893 F120.00
G1 X37.4344 Y7.8939 F120.00
G1 X37.5324 Y7.9405 F120.00
G1 X37.5422 Y7.9461 F120.00
G1 X37.6304 Y7.9990 F120.00
G1 X37.6444 Y8.0086 F120.00
G1 X37.7224 Y8.0665 F120.00
G1 X37.7313 Y8.0735 F120.00
G1 X37.7399 Y8.0808 F120.00
G1 X37.8201 Y8.1539 F120.00
G1 X37.8279 Y8.1621 F120.00
G1 X37.8969 Y8.2383 F120.00
G1 X37.9075 Y8.2516 F120.00
G1 X37.9654 Y8.3296 F120.00
G1 X37.9750 Y8.3436 F120.00
G1 X38.0307 Y8.4367 F120.00
G1 X38.0361 Y8.4466 F120.00
G1 X38.0520 Y8.4801 F120.00
G1 X42.0593 Y8.4567 F120.00
G1 X42.0709 Y8.4567 F120.00
G1 X42.1005 Y8.4582 F120.00
G1 X42.1233 Y8.4602 F120.00
G1 X42.1588 Y8.4654 F120.00
G1 X42.1751 Y8.4687 F120.00
G1 X42.2161 Y8.4792 F120.00
G1 X42.2318 Y8.4843 F120.00
G1 X42.2596 Y8.4944 F120.00
G1 X42.2691 Y8.4982 F120.00
G1 X42.3074 Y8.5161 F120.00
G1 X42.3275 Y8.5271 F120.00
G1 X42.3582 Y8.5459 F120.00
G1 X42.3666 Y8.5516 F120.00
G1 X42.3904 Y8.5692 F120.00
G1 X42.4083 Y8.5835 F120.00
G1 X42.4349 Y8.6077 F120.00
G1 X42.4466 Y8.6194 F120.00
G1 X42.4748 Y8.6509 F120.00
G1 X42.4812 Y8.6588 F120.00
G1 X42.4989 Y8.6826 F120.00
G1 X42.5118 Y8.7015 F120.00
G1 X42.5334 Y8.7379 F120.00
G1 X42.5381 Y8.7470 F120.00
G1 X42.5535 Y8.7795 F120.00
G1 X42.5620 Y8.8007 F120.00
G1 X42.5719 Y8.8286 F120.00
G1 X42.5749 Y8.8383 F120.00
G1 X42.5854 Y8.8794 F120.00
G1 X42.5896 Y8.9019 F120.00
G1 X42.5939 Y8.9312 F120.00
G1 X42.5950 Y8.9413 F120.00
G1 X42.5959 Y8.9540 F120.00
G1 X42.5973 Y8.9899 F120.00
G1 X42.5465 Y16.6406 F120.00
G1 X42.5448 Y16.6782 F120.00
G1 X42.5437 Y16.6922 F120.00
G1 X42.5382 Y16.7302 F120.00
G1 X42.5344 Y16.7500 F120.00
G1 X42.5265 Y16.7814 F120.00
G1 X42.5227 Y16.7950 F120.00
G1 X42.5189 Y16.8064 F120.00
G1 X42.5055 Y16.8424 F120.00
G1 X42.4998 Y16.8553 F120.00
G1 X42.4830 Y16.8898 F120.00
G1 X42.4624 Y16.9247 F120.00
G1 X42.4560 Y16.9348 F120.00
G1 X42.4478 Y16.9463 F120.00
G1 X42.4284 Y16.9723 F120.00
G1 X42.4194 Y16.9831 F120.00
G1 X42.3977 Y17.0071 F120.00
G1 X42.3879 Y17.0172 F120.00
G1 X42.3595 Y17.0431 F120.00
G1 X42.3488 Y17.0523 F120.00
G1 X42.3393 Y17.0597 F120.00
G1 X42.3082 Y17.0822 F120.00
G1 X42.2963 Y17.0897 F120.00
G1 X42.2684 Y17.1062 F120.00
G1 X42.2559 Y17.1128 F120.00
G1 X42.2266 Y17.1267 F120.00
G1 X42.2156 Y17.1315 F120.00
G1 X42.2025 Y17.1366 F120.00
G1 X42.1642 Y17.1497 F120.00
G1 X42.1270 Y17.1592 F120.00
G1 X42.1132 Y17.1622 F120.00
G1 X42.1013 Y17.1642 F120.00
G1 X42.0633 Y17.1694 F120.00
G1 X42.0492 Y17.1705 F120.00
G1 X42.0116 Y17.1719 F120.00
G1 X29.4741 Y17.1720 F120.00
G1 X29.4613 Y17.1760 F120.00
G1 X29.4490 Y17.1792 F120.00
G1 X29.4201 Y17.1862 F120.00
G1 X29.4040 Y17.1893 F120.00
G1 X29.3683 Y17.1943 F120.00
G1 X29.3582 Y17.1953 F120.00
G1 X29.3456 Y17.1961 F120.00
G1 X29.3109 Y17.1973 F120.00
G1 X9.0167 Y17.1719 F120.00
G1 X3.9370 Y17.1719 F120.00
G1 X3.9257 Y17.1717 F120.00
G1 X3.8846 Y17.1694 F120.00
G1 X3.8438 Y17.1636 F120.00
G1 X3.8271 Y17.1605 F120.00
G1 X3.7817 Y17.1489 F120.00
G1 X3.7428 Y17.1353 F120.00
G1 X3.7323 Y17.1312 F120.00
G1 X3.7220 Y17.1267 F120.00
G1 X3.6848 Y17.1088 F120.00
G1 X3.6493 Y17.0878 F120.00
G1 X3.6398 Y17.0818 F120.00
G1 X3.6261 Y17.0720 F120.00
G1 X3.6020 Y17.0540 F120.00
G1 X3.5891 Y17.0431 F120.00
G1 X3.5587 Y17.0153 F120.00
G1 X3.5309 Y16.9849 F120.00
G1 X3.5235 Y16.9764 F120.00
G1 X3.5105 Y16.9594 F120.00
G1 X3.4922 Y16.9342 F120.00
G1 X3.4708 Y16.8990 F120.00
G1 X3.4652 Y16.8892 F120.00
G1 X3.4601 Y16.8791 F120.00
G1 X3.4450 Y16.8469 F120.00
G1 X3.4387 Y16.8312 F120.00
G1 X3.4251 Y16.7923 F120.00
G1 X3.4221 Y16.7814 F120.00
G1 X3.4123 Y16.7414 F120.00
G1 X3.4104 Y16.7302 F120.00
G1 X3.4046 Y16.6894 F120.00
G1 X3.4023 Y16.6483 F120.00
G1 X3.4021 Y16.6370 F120.00
G1 X3.4020 Y7.5729 F120.00
G0 Z2.0000 F1500.00
G0 X11.2382 Y7.7470 F1500.00
G1 F60.00
G1 Z0.2855 F60.00
G1 F120.00
G1 X11.1917 Y7.7586 F120.00
G1 X11.1691 Y7.7652 F120.00
G1 X11.0701 Y7.8005 F120.00
G1 X11.0482 Y7.8093 F120.00
G1 X10.9532 Y7.8541 F120.00
G1 X10.9392 Y7.8612 F120.00
G1 X10.9255 Y7.8689 F120.00
G1 X10.8355 Y7.9230 F120.00
G1 X10.8160 Y7.9363 F120.00
G1 X10.7379 Y7.9942 F120.00
G1 X10.7256 Y8.0039 F120.00
G1 X10.7137 Y8.0142 F120.00
G1 X10.6416 Y8.0794 F120.00
G1 X10.6303 Y8.0903 F120.00
G1 X10.6194 Y8.1016 F120.00
G1 X10.5542 Y8.1737 F120.00
G1 X10.5390 Y8.1917 F120.00
G1 X10.4763 Y8.2760 F120.00
G1 X10.4673 Y8.2889 F120.00
G1 X10.4589 Y8.3021 F120.00
G1 X10.4089 Y8.3855 F120.00
G1 X10.4012 Y8.3992 F120.00
G1 X10.3941 Y8.4132 F120.00
G1 X10.3525 Y8.5011 F120.00
G1 X10.3462 Y8.5155 F120.00
G1 X10.3405 Y8.5301 F120.00
G1 X10.3078 Y8.6216 F120.00
G1 X10.3028 Y8.6366 F120.00
G1 X10.2986 Y8.6517 F120.00
G1 X10.2750 Y8.7460 F120.00
G1 X10.2716 Y8.7613 F120.00
G1 X10.2689 Y8.7768 F120.00
G1 X10.2546 Y8.8730 F120.00
G1 X10.2527 Y8.8885 F120.00
G1 X10.2516 Y8.9042 F120.00
G1 X10.2468 Y9.0013 F120.00
G1 X10.2464 Y9.0170 F120.00
G1 X10.2468 Y9.0327 F120.00
G1 X10.2516 Y9.1298 F120.00
G1 X10.2527 Y9.1455 F120.00
G1 X10.2546 Y9.1610 F120.00
G1 X10.2689 Y9.2572 F120.00
G1 X10.2716 Y9.2727 F120.00
G1 X10.2750 Y9.2880 F120.00
G1 X10.2986 Y9.3823 F120.00
G1 X10.3028 Y9.3974 F120.00
G1 X10.3078 Y9.4124 F120.00
G1 X10.3405 Y9.5039 F120.00
G1 X10.3462 Y9.5185 F120.00
G1 X10.3525 Y9.5329 F120.00
G1 X10.3941 Y9.6208 F120.00
G1 X10.4012 Y9.6348 F120.00
G1 X10.4089 Y9.6485 F120.00
G1 X10.4589 Y9.7319 F120.00
G1 X10.4673 Y9.7451 F120.00
G1 X10.4763 Y9.7580 F120.00
G1 X10.5390 Y9.8423 F120.00
G1 X10.5542 Y9.8603 F120.00
G1 X10.6194 Y9.9324 F120.00
G1 X10.6303 Y9.9437 F120.00
G1 X10.6416 Y9.9546 F120.00
G1 X10.7137 Y10.0198 F120.00
G1 X10.7256 Y10.0301 F120.00
G1 X10.7379 Y10.0398 F120.00
G1 X10.8160 Y10.0977 F120.00
G1 X10.8355 Y10.1110 F120.00
G1 X10.9255 Y10.1651 F120.00
G1 X10.9392 Y10.1728 F120.00
G1 X10.9532 Y10.1799 F120.00
G1 X11.0482 Y10.2247 F120.00
G1 X11.0701 Y10.2335 F120.00
G1 X11.1691 Y10.2688 F120.00
G1 X11.1917 Y10.2754 F120.00
G1 X11.2382 Y10.2870 F120.00
G1 X11.1917 Y10.2986 F120.00
G1 X11.1691 Y10.3052 F120.00
G1 X11.0701 Y10.3405 F120.00
G1 X11.0482 Y10.3493 F120.00
G1 X10.9532 Y10.3941 F120.00
G1 X10.9392 Y10.4012 F120.00
G1 X10.9255 Y10.4089 F120.00
G1 X10.8355 Y10.4630 F120.00
G1 X10.8160 Y10.4763 F120.00
G1 X10.7379 Y10.5342 F120.00
G1 X10.7256 Y10.5439 F120.00
G1 X10.7137 Y10.5542 F120.00
G1 X10.6416 Y10.6194 F120.00
G1 X10.6303 Y10.6303 F120.00
G1 X10.6194 Y10.6416 F120.00
G1 X10.5490 Y10.7196 F120.00
G1 X10.5342 Y10.7379 F120.00
G1 X10.4763 Y10.8160 F120.00
G1 X10.4673 Y10.8289 F120.00
G1 X10.4589 Y10.8421 F120.00
G1 X10.4089 Y10.9255 F120.00
G1 X10.4012 Y10.9392 F120.00
G1 X10.3941 Y10.9532 F120.00
G1 X10.3525 Y11.0411 F120.00
G1 X10.3462 Y11.0555 F120.00
G1 X10.3405 Y11.0701 F120.00
G1 X10.3078 Y11.1616 F120.00
G1 X10.3028 Y11.1766 F120.00
G1 X10.2986 Y11.1917 F120.00
G1 X10.2750 Y11.2860 F120.00
G1 X10.2716 Y11.3013 F120.00
G1 X10.2689 Y11.3168 F120.00
G1 X10.2546 Y11.4130 F120.00
G1 X10.2520 Y11.4364 F120.00
G1 X10.2468 Y11.5413 F120.00
G1 X10.2464 Y11.5570 F120.00
G1 X10.2468 Y11.5727 F120.00
G1 X10.2516 Y11.6698 F120.00
G1 X10.2527 Y11.6855 F120.00
G1 X10.2546 Y11.7010 F120.00
G1 X10.2689 Y11.7972 F120.00
G1 X10.2716 Y11.8127 F120.00
G1 X10.2750 Y11.8280 F120.00
G1 X10.2986 Y11.9223 F120.00
G1 X10.3028 Y11.9374 F120.00
G1 X10.3078 Y11.9524 F120.00
G1 X10.3405 Y12.0439 F120.00
G1 X10.3462 Y12.0585 F120.00
G1 X10.3525 Y12.0729 F120.00
G1 X10.3941 Y12.1608 F120.00
G1 X10.4012 Y12.1748 F120.00
G1 X10.4089 Y12.1885 F120.00
G1 X10.4589 Y12.2719 F120.00
G1 X10.4673 Y12.2851 F120.00
G1 X10.4763 Y12.2980 F120.00
G1 X10.5342 Y12.3761 F120.00
G1 X10.5439 Y12.3884 F120.00
G1 X10.5542 Y12.4003 F120.00
G1 X10.6194 Y12.4724 F120.00
G1 X10.6303 Y12.4837 F120.00
G1 X10.6416 Y12.4946 F120.00
G1 X10.7137 Y12.5598 F120.00
G1 X10.7256 Y12.5701 F120.00
G1 X10.7379 Y12.5798 F120.00
G1 X10.8160 Y12.6377 F120.00
G1 X10.8289 Y12.6467 F120.00
G1 X10.8421 Y12.6551 F120.00
G1 X10.9255 Y12.7051 F120.00
G1 X10.9392 Y12.7128 F120.00
G1 X10.9532 Y12.7199 F120.00
G1 X11.0411 Y12.7615 F120.00
G1 X11.0555 Y12.7678 F120.00
G1 X11.0701 Y12.7735 F120.00
G1 X11.1616 Y12.8062 F120.00
G1 X11.1766 Y12.8112 F120.00
G1 X11.1917 Y12.8154 F120.00
G1 X11.2860 Y12.8390 F120.00
G1 X11.3013 Y12.8424 F120.00
G1 X11.3168 Y12.8451 F120.00
G1 X11.4130 Y12.8594 F120.00
G1 X11.4285 Y12.8613 F120.00
G1 X11.4442 Y12.8624 F120.00
G1 X11.5413 Y12.8672 F120.00
G1 X11.5570 Y12.8676 F120.00
G1 X11.5727 Y12.8672 F120.00
G1 X11.6698 Y12.8624 F120.00
G1 X11.6855 Y12.8613 F120.00
G1 X11.7010 Y12.8594 F120.00
G1 X11.7972 Y12.8451 F120.00
G1 X11.8127 Y12.8424 F120.00
G1 X11.8280 Y12.8390 F120.00
G1 X11.9223 Y12.8154 F120.00
G1 X11.9374 Y12.8112 F120.00
G1 X11.9524 Y12.8062 F120.00
G1 X12.0439 Y12.7735 F120.00
G1 X12.0585 Y12.7678 F120.00
G1 X12.0729 Y12.7615 F120.00
G1 X12.1608 Y12.7199 F120.00
G1 X12.1748 Y12.7128 F120.00
G1 X12.1885 Y12.7051 F120.00
G1 X12.2719 Y12.6551 F120.00
G1 X12.2851 Y12.6467 F120.00
G1 X12.2980 Y12.6377 F120.00
G1 X12.3761 Y12.5798 F120.00
G1 X12.3884 Y12.5701 F120.00
G1 X12.4003 Y12.5598 F120.00
G1 X12.4724 Y12.4946 F120.00
G1 X12.4837 Y12.4837 F120.00
G1 X12.4946 Y12.4724 F120.00
G1 X12.5598 Y12.4003 F120.00
G1 X12.5701 Y12.3884 F120.00
G1 X12.5798 Y12.3761 F120.00
G1 X12.6377 Y12.2980 F120.00
G1 X12.6467 Y12.2851 F120.00
G1 X12.6551 Y12.2719 F120.00
G1 X12.7076 Y12.1842 F120.00
G1 X16.6642 Y12.2073 F120.00
G1 X20.7140 Y12.1838 F120.00
G1 X20.7286 Y12.2080 F120.00
G1 X20.7373 Y12.2210 F120.00
G1 X20.7972 Y12.3017 F120.00
G1 X20.8123 Y12.3198 F120.00
G1 X20.8692 Y12.3826 F120.00
G1 X20.8857 Y12.3994 F120.00
G1 X20.9542 Y12.4617 F120.00
G1 X20.9661 Y12.4719 F120.00
G1 X20.9785 Y12.4816 F120.00
G1 X21.0466 Y12.5321 F120.00
G1 X21.0594 Y12.5411 F120.00
G1 X21.0727 Y12.5495 F120.00
G1 X21.1454 Y12.5931 F120.00
G1 X21.1660 Y12.6045 F120.00
G1 X21.2497 Y12.6441 F120.00
G1 X21.2641 Y12.6505 F120.00
G1 X21.2787 Y12.6562 F120.00
G1 X21.3585 Y12.6847 F120.00
G1 X21.3734 Y12.6896 F120.00
G1 X21.3886 Y12.6938 F120.00
G1 X21.4708 Y12.7144 F120.00
G1 X21.4861 Y12.7179 F120.00
G1 X21.5016 Y12.7205 F120.00
G1 X21.5854 Y12.7330 F120.00
G1 X21.6010 Y12.7349 F120.00
G1 X21.6167 Y12.7361 F120.00
G1 X21.7013 Y12.7402 F120.00
G1 X21.7170 Y12.7406 F120.00
G1 X21.7327 Y12.7402 F120.00
G1 X21.8173 Y12.7361 F120.00
G1 X21.8408 Y12.7340 F120.00
G1 X21.9324 Y12.7205 F120.00
G1 X21.9479 Y12.7179 F120.00
G1 X21.9632 Y12.7144 F120.00
G1 X22.0454 Y12.6938 F120.00
G1 X22.0606 Y12.6896 F120.00
G1 X22.0755 Y12.6847 F120.00
G1 X22.1553 Y12.6562 F120.00
G1 X22.1699 Y12.6505 F120.00
G1 X22.1843 Y12.6441 F120.00
G1 X22.2609 Y12.6079 F120.00
G1 X22.2749 Y12.6008 F120.00
G1 X22.2886 Y12.5931 F120.00
G1 X22.3680 Y12.5454 F120.00
G1 X22.3874 Y12.5321 F120.00
G1 X22.4555 Y12.4816 F120.00
G1 X22.4679 Y12.4719 F120.00
G1 X22.4798 Y12.4617 F120.00
G1 X22.5426 Y12.4048 F120.00
G1 X22.5539 Y12.3939 F120.00
G1 X22.5648 Y12.3826 F120.00
G1 X22.6217 Y12.3198 F120.00
G1 X22.6319 Y12.3079 F120.00
G1 X22.6416 Y12.2955 F120.00
G1 X22.6921 Y12.2274 F120.00
G1 X22.7011 Y12.2146 F120.00
G1 X22.7095 Y12.2013 F120.00
G1 X22.7531 Y12.1286 F120.00
G1 X22.7608 Y12.1149 F120.00
G1 X22.7679 Y12.1009 F120.00
G1 X22.8041 Y12.0243 F120.00
G1 X22.8105 Y12.0099 F120.00
G1 X22.8162 Y11.9953 F120.00
G1 X22.8473 Y11.9081 F120.00
G1 X22.8538 Y11.8854 F120.00
G1 X22.8744 Y11.8032 F120.00
G1 X22.8793 Y11.7802 F120.00
G1 X22.8930 Y11.6886 F120.00
G1 X22.8949 Y11.6730 F120.00
G1 X22.8961 Y11.6573 F120.00
G1 X22.9002 Y11.5727 F120.00
G1 X22.9006 Y11.5570 F120.00
G1 X22.9002 Y11.5413 F120.00
G1 X22.8961 Y11.4567 F120.00
G1 X22.8949 Y11.4410 F120.00
G1 X22.8930 Y11.4254 F120.00
G1 X22.8805 Y11.3416 F120.00
G1 X22.8779 Y11.3261 F120.00
G1 X22.8744 Y11.3108 F120.00
G1 X22.8518 Y11.2210 F120.00
G1 X22.8447 Y11.1985 F120.00
G1 X22.8162 Y11.1187 F120.00
G1 X22.8105 Y11.1041 F120.00
G1 X22.8041 Y11.0897 F120.00
G1 X22.7679 Y11.0131 F120.00
G1 X22.7608 Y10.9991 F120.00
G1 X22.7531 Y10.9854 F120.00
G1 X22.7054 Y10.9060 F120.00
G1 X22.6921 Y10.8866 F120.00
G1 X22.6416 Y10.8185 F120.00
G1 X22.6319 Y10.8061 F120.00
G1 X22.6217 Y10.7942 F120.00
G1 X22.5648 Y10.7314 F120.00
G1 X22.5539 Y10.7201 F120.00
G1 X22.5426 Y10.7092 F120.00
G1 X22.4798 Y10.6523 F120.00
G1 X22.4679 Y10.6421 F120.00
G1 X22.4555 Y10.6324 F120.00
G1 X22.3874 Y10.5819 F120.00
G1 X22.3746 Y10.5729 F120.00
G1 X22.3613 Y10.5645 F120.00
G1 X22.2886 Y10.5209 F120.00
G1 X22.2749 Y10.5132 F120.00
G1 X22.2609 Y10.5061 F120.00
G1 X22.1843 Y10.4699 F120.00
G1 X22.1699 Y10.4635 F120.00
G1 X22.1553 Y10.4578 F120.00
G1 X22.0755 Y10.4293 F120.00
G1 X22.0606 Y10.4244 F120.00
G1 X22.0454 Y10.4202 F120.00
G1 X21.9632 Y10.3996 F120.00
G1 X21.9402 Y10.3947 F120.00
G1 X21.8486 Y10.3810 F120.00
G1 X21.8330 Y10.3791 F120.00
G1 X21.8173 Y10.3779 F120.00
G1 X21.7327 Y10.3738 F120.00
G1 X21.7170 Y10.3734 F120.00
G1 X21.7013 Y10.3738 F120.00
G1 X21.6167 Y10.3779 F120.00
G1 X21.6010 Y10.3791 F120.00
G1 X21.5854 Y10.3810 F120.00
G1 X21.5016 Y10.3935 F120.00
G1 X21.4861 Y10.3961 F120.00
G1 X21.4708 Y10.3996 F120.00
G1 X21.3886 Y10.4202 F120.00
G1 X21.3734 Y10.4244 F120.00
G1 X21.3585 Y10.4293 F120.00
G1 X21.2787 Y10.4578 F120.00
G1 X21.2641 Y10.4635 F120.00
G1 X21.2497 Y10.4699 F120.00
G1 X21.1731 Y10.5061 F120.00
G1 X21.1591 Y10.5132 F120.00
G1 X21.1454 Y10.5209 F120.00
G1 X21.0727 Y10.5645 F120.00
G1 X21.0594 Y10.5729 F120.00
G1 X21.0466 Y10.5819 F120.00
G1 X20.9785 Y10.6324 F120.00
G1 X20.9601 Y10.6471 F120.00
G1 X20.8914 Y10.7092 F120.00
G1 X20.8801 Y10.7201 F120.00
G1 X20.8692 Y10.7314 F120.00
G1 X20.8071 Y10.8001 F120.00
G1 X20.7924 Y10.8185 F120.00
G1 X20.7373 Y10.8930 F120.00
G1 X20.7286 Y10.9060 F120.00
G1 X20.7118 Y10.9339 F120.00
G1 X16.6624 Y10.9574 F120.00
G1 X12.7102 Y10.9343 F120.00
G1 X12.6551 Y10.8421 F120.00
G1 X12.6467 Y10.8289 F120.00
G1 X12.6377 Y10.8160 F120.00
G1 X12.5798 Y10.7379 F120.00
G1 X12.5701 Y10.7256 F120.00
G1 X12.5598 Y10.7137 F120.00
G1 X12.4946 Y10.6416 F120.00
G1 X12.4837 Y10.6303 F120.00
G1 X12.4724 Y10.6194 F120.00
G1 X12.4003 Y10.5542 F120.00
G1 X12.3823 Y10.5390 F120.00
G1 X12.2980 Y10.4763 F120.00
G1 X12.2851 Y10.4673 F120.00
G1 X12.2719 Y10.4589 F120.00
G1 X12.1885 Y10.4089 F120.00
G1 X12.1678 Y10.3975 F120.00
G1 X12.0729 Y10.3525 F120.00
G1 X12.0513 Y10.3432 F120.00
G1 X11.9449 Y10.3052 F120.00
G1 X11.9223 Y10.2986 F120.00
G1 X11.8758 Y10.2870 F120.00
G1 X11.9223 Y10.2754 F120.00
G1 X11.9449 Y10.2688 F120.00
G1 X12.0513 Y10.2308 F120.00
G1 X12.0729 Y10.2215 F120.00
G1 X12.1678 Y10.1765 F120.00
G1 X12.1885 Y10.1651 F120.00
G1 X12.2719 Y10.1151 F120.00
G1 X12.2851 Y10.1067 F120.00
G1 X12.2980 Y10.0977 F120.00
G1 X12.3823 Y10.0350 F120.00
G1 X12.4003 Y10.0198 F120.00
G1 X12.4724 Y9.9546 F120.00
G1 X12.4837 Y9.9437 F120.00
G1 X12.4946 Y9.9324 F120.00
G1 X12.5598 Y9.8603 F120.00
G1 X12.5701 Y9.8484 F120.00
G1 X12.5798 Y9.8361 F120.00
G1 X12.6377 Y9.7580 F120.00
G1 X12.6467 Y9.7451 F120.00
G1 X12.6551 Y9.7319 F120.00
G1 X12.7102 Y9.6396 F120.00
G1 X16.6153 Y9.6165 F120.00
G1 X16.6310 Y9.6161 F120.00
G1 X16.6655 Y9.6142 F120.00
G1 X16.6839 Y9.6123 F120.00
G1 X16.7263 Y9.6059 F120.00
G1 X16.7444 Y9.6022 F120.00
G1 X16.7859 Y9.5917 F120.00
G1 X16.8036 Y9.5863 F120.00
G1 X16.8439 Y9.5717 F120.00
G1 X16.8609 Y9.5646 F120.00
G1 X16.8997 Y9.5462 F120.00
G1 X16.9159 Y9.5374 F120.00
G1 X16.9526 Y9.5153 F120.00
G1 X16.9679 Y9.5050 F120.00
G1 X17.0023 Y9.4793 F120.00
G1 X17.0165 Y9.4676 F120.00
G1 X17.0482 Y9.4387 F120.00
G1 X17.0612 Y9.4256 F120.00
G1 X17.0844 Y9.4000 F120.00
G1 X17.0964 Y9.3859 F120.00
G1 X17.1222 Y9.3516 F120.00
G1 X17.1327 Y9.3365 F120.00
G1 X17.1550 Y9.2999 F120.00
G1 X17.1632 Y9.2854 F120.00
G1 X17.1715 Y9.2689 F120.00
G1 X17.1893 Y9.2299 F120.00
G1 X17.1959 Y9.2127 F120.00
G1 X17.2099 Y9.1721 F120.00
G1 X17.2148 Y9.1543 F120.00
G1 X17.2247 Y9.1126 F120.00
G1 X17.2278 Y9.0944 F120.00
G1 X17.2336 Y9.0519 F120.00
G1 X17.2350 Y9.0335 F120.00
G1 X17.2365 Y8.9995 F120.00
G1 X17.2365 Y4.5620 F120.00
G1 X21.1088 Y4.5620 F120.00
G1 X21.0964 Y5.4703 F120.00
G1 X21.0660 Y5.4886 F120.00
G1 X21.0530 Y5.4973 F120.00
G1 X20.9785 Y5.5524 F120.00
G1 X20.9601 Y5.5671 F120.00
G1 X20.8914 Y5.6292 F120.00
G1 X20.8801 Y5.6401 F120.00
G1 X20.8692 Y5.6514 F120.00
G1 X20.8071 Y5.7201 F120.00
G1 X20.7924 Y5.7385 F120.00
G1 X20.7419 Y5.8066 F120.00
G1 X20.7329 Y5.8194 F120.00
G1 X20.7245 Y5.8327 F120.00
G1 X20.6809 Y5.9054 F120.00
G1 X20.6732 Y5.9191 F120.00
G1 X20.6661 Y5.9331 F120.00
G1 X20.6266 Y6.0168 F120.00
G1 X20.6178 Y6.0387 F120.00
G1 X20.5893 Y6.1185 F120.00
G1 X20.5844 Y6.1334 F120.00
G1 X20.5802 Y6.1486 F120.00
G1 X20.5596 Y6.2308 F120.00
G1 X20.5561 Y6.2461 F120.00
G1 X20.5535 Y6.2616 F120.00
G1 X20.5410 Y6.3454 F120.00
G1 X20.5391 Y6.3610 F120.00
G1 X20.5379 Y6.3767 F120.00
G1 X20.5338 Y6.4613 F120.00
G1 X20.5334 Y6.4770 F120.00
G1 X20.5338 Y6.4927 F120.00
G1 X20.5379 Y6.5773 F120.00
G1 X20.5391 Y6.5930 F120.00
G1 X20.5410 Y6.6086 F120.00
G1 X20.5535 Y6.6924 F120.00
G1 X20.5561 Y6.7079 F120.00
G1 X20.5596 Y6.7232 F120.00
G1 X20.5802 Y6.8054 F120.00
