(G-CODE GENERATED BY FLATCAM v8.994 - www.flatcam.org - Version Date: 2020/11/7)

(Name: transmitter_copperBottom.gbl_copy_iso_combined_cnc)
(Type: G-code from Geometry)
(Units: MM)

(Created on Wednesday, 04 August 2021 at 08:49)

(This preprocessor is the default preprocessor used by FlatCAM.)
(It is made to work with MACH3 compatible motion controllers.)

(TOOL DIAMETER: 0.1 mm)
(Feedrate_XY: 120.0 mm/min)
(Feedrate_Z: 60.0 mm/min)
(Feedrate rapids 1500.0 mm/min)

(Z_Cut: -0.0 mm)
(Z_Move: 2.0 mm)
(Z Start: None mm)
(Z End: 15.0 mm)
(X,Y End: None mm)
(Steps per circle: 64)
(Preprocessor Geometry: default)

(X range:    2.6264 ...   42.6873  mm)
(Y range:    2.6264 ...   17.2873  mm)

(Spindle Speed: 0.0 RPM)
G21
G90
G94

G01 F120.00

M5
G00 Z15.0000
G00 X0.0000 Y0.0000
T1
M6    
(MSG, Change to Tool Dia = 0.1000)
M0
G00 Z15.0000

M03
G01 F120.00
G00 X5.0889 Y3.3121
G01 F60.00
G01 Z-0.0000
G01 F120.00
G01 X36.9570 Y3.3121
G01 X36.9727 Y3.3124
G01 X37.0026 Y3.3139
G01 X37.0183 Y3.3151
G01 X37.0338 Y3.3170
G01 X37.0634 Y3.3214
G01 X37.0789 Y3.3241
G01 X37.0942 Y3.3275
G01 X37.1233 Y3.3348
G01 X37.1384 Y3.3390
G01 X37.1533 Y3.3439
G01 X37.1815 Y3.3540
G01 X37.2034 Y3.3627
G01 X37.2376 Y3.3788
G01 X37.2516 Y3.3858
G01 X37.2653 Y3.3936
G01 X37.2909 Y3.4090
G01 X37.3107 Y3.4218
G01 X37.3411 Y3.4442
G01 X37.3535 Y3.4539
G01 X37.3654 Y3.4642
G01 X37.3875 Y3.4843
G01 X37.4044 Y3.5007
G01 X37.4350 Y3.5345
G01 X37.4498 Y3.5529
G01 X37.4676 Y3.5770
G01 X37.4766 Y3.5898
G01 X37.4850 Y3.6031
G01 X37.5044 Y3.6355
G01 X37.5152 Y3.6564
G01 X37.5280 Y3.6835
G01 X37.5344 Y3.6978
G01 X37.5400 Y3.7125
G01 X37.5501 Y3.7407
G01 X37.5572 Y3.7631
G01 X37.5665 Y3.7998
G01 X37.5699 Y3.8151
G01 X37.5726 Y3.8306
G01 X37.5770 Y3.8602
G01 X37.5789 Y3.8757
G01 X37.5801 Y3.8914
G01 X37.5816 Y3.9213
G01 X37.5819 Y3.9370
G01 X37.5820 Y5.3251
G01 X37.6719 Y5.3789
G01 X37.6851 Y5.3873
G01 X37.6980 Y5.3963
G01 X37.7761 Y5.4542
G01 X37.7884 Y5.4639
G01 X37.8003 Y5.4742
G01 X37.8724 Y5.5394
G01 X37.8837 Y5.5503
G01 X37.8946 Y5.5616
G01 X37.9598 Y5.6337
G01 X37.9701 Y5.6456
G01 X37.9798 Y5.6579
G01 X38.0377 Y5.7360
G01 X38.0467 Y5.7489
G01 X38.0551 Y5.7621
G01 X38.1051 Y5.8455
G01 X38.1128 Y5.8592
G01 X38.1199 Y5.8732
G01 X38.1615 Y5.9611
G01 X38.1678 Y5.9755
G01 X38.1735 Y5.9901
G01 X38.2062 Y6.0816
G01 X38.2112 Y6.0966
G01 X38.2154 Y6.1117
G01 X38.2390 Y6.2060
G01 X38.2424 Y6.2213
G01 X38.2451 Y6.2368
G01 X38.2594 Y6.3330
G01 X38.2613 Y6.3485
G01 X38.2624 Y6.3642
G01 X38.2675 Y6.4691
G01 X38.2672 Y6.4927
G01 X38.2624 Y6.5898
G01 X38.2613 Y6.6055
G01 X38.2594 Y6.6210
G01 X38.2451 Y6.7172
G01 X38.2424 Y6.7327
G01 X38.2390 Y6.7480
G01 X38.2154 Y6.8423
G01 X38.2112 Y6.8574
G01 X38.2062 Y6.8724
G01 X38.1735 Y6.9639
G01 X38.1678 Y6.9785
G01 X38.1615 Y6.9929
G01 X38.1199 Y7.0808
G01 X38.1128 Y7.0948
G01 X38.1051 Y7.1085
G01 X38.0551 Y7.1919
G01 X38.0467 Y7.2051
G01 X38.0377 Y7.2180
G01 X37.9750 Y7.3023
G01 X37.9598 Y7.3203
G01 X37.8946 Y7.3924
G01 X37.8837 Y7.4037
G01 X37.8724 Y7.4146
G01 X37.8003 Y7.4798
G01 X37.7884 Y7.4901
G01 X37.7761 Y7.4998
G01 X37.6980 Y7.5577
G01 X37.6785 Y7.5710
G01 X37.5885 Y7.6251
G01 X37.5748 Y7.6328
G01 X37.5608 Y7.6399
G01 X37.4658 Y7.6847
G01 X37.4439 Y7.6935
G01 X37.3449 Y7.7288
G01 X37.3223 Y7.7354
G01 X37.2758 Y7.7470
G01 X37.3223 Y7.7586
G01 X37.3449 Y7.7652
G01 X37.4513 Y7.8032
G01 X37.4729 Y7.8125
G01 X37.5678 Y7.8575
G01 X37.5885 Y7.8689
G01 X37.6719 Y7.9189
G01 X37.6851 Y7.9273
G01 X37.6980 Y7.9363
G01 X37.7823 Y7.9990
G01 X37.8003 Y8.0142
G01 X37.8724 Y8.0794
G01 X37.8837 Y8.0903
G01 X37.8946 Y8.1016
G01 X37.9598 Y8.1737
G01 X37.9701 Y8.1856
G01 X37.9798 Y8.1979
G01 X38.0377 Y8.2760
G01 X38.0467 Y8.2889
G01 X38.0551 Y8.3021
G01 X38.1076 Y8.3898
G01 X42.0587 Y8.3667
G01 X42.0734 Y8.3668
G01 X42.1132 Y8.3688
G01 X42.1258 Y8.3699
G01 X42.1434 Y8.3721
G01 X42.1740 Y8.3767
G01 X42.1951 Y8.3809
G01 X42.2252 Y8.3884
G01 X42.2422 Y8.3931
G01 X42.2543 Y8.3969
G01 X42.2835 Y8.4073
G01 X42.3000 Y8.4136
G01 X42.3117 Y8.4186
G01 X42.3397 Y8.4318
G01 X42.3555 Y8.4397
G01 X42.3666 Y8.4457
G01 X42.4008 Y8.4662
G01 X42.4114 Y8.4732
G01 X42.4258 Y8.4834
G01 X42.4507 Y8.5019
G01 X42.4605 Y8.5099
G01 X42.4739 Y8.5215
G01 X42.4968 Y8.5424
G01 X42.5058 Y8.5512
G01 X42.5180 Y8.5641
G01 X42.5387 Y8.5871
G01 X42.5524 Y8.6037
G01 X42.5709 Y8.6286
G01 X42.5811 Y8.6430
G01 X42.5880 Y8.6536
G01 X42.6085 Y8.6878
G01 X42.6146 Y8.6989
G01 X42.6225 Y8.7147
G01 X42.6356 Y8.7428
G01 X42.6406 Y8.7544
G01 X42.6544 Y8.7918
G01 X42.6611 Y8.8122
G01 X42.6711 Y8.8508
G01 X42.6758 Y8.8718
G01 X42.6820 Y8.9111
G01 X42.6845 Y8.9325
G01 X42.6869 Y8.9722
G01 X42.6873 Y8.9958
G01 X42.6365 Y16.6412
G01 X42.6347 Y16.6826
G01 X42.6334 Y16.6993
G01 X42.6311 Y16.7180
G01 X42.6259 Y16.7517
G01 X42.6222 Y16.7701
G01 X42.6138 Y16.8033
G01 X42.6093 Y16.8194
G01 X42.6034 Y16.8373
G01 X42.5917 Y16.8694
G01 X42.5878 Y16.8790
G01 X42.5809 Y16.8943
G01 X42.5623 Y16.9325
G01 X42.5530 Y16.9489
G01 X42.5352 Y16.9781
G01 X42.5247 Y16.9937
G01 X42.5044 Y17.0211
G01 X42.4940 Y17.0343
G01 X42.4817 Y17.0485
G01 X42.4586 Y17.0737
G01 X42.4453 Y17.0869
G01 X42.4200 Y17.1098
G01 X42.4072 Y17.1208
G01 X42.3924 Y17.1323
G01 X42.3648 Y17.1525
G01 X42.3492 Y17.1629
G01 X42.3199 Y17.1804
G01 X42.3053 Y17.1887
G01 X42.2885 Y17.1971
G01 X42.2575 Y17.2115
G01 X42.2479 Y17.2156
G01 X42.2322 Y17.2215
G01 X42.1920 Y17.2353
G01 X42.1739 Y17.2403
G01 X42.1407 Y17.2484
G01 X42.1140 Y17.2533
G01 X42.0801 Y17.2581
G01 X42.0698 Y17.2592
G01 X42.0531 Y17.2604
G01 X42.0116 Y17.2619
G01 X29.4879 Y17.2620
G01 X29.4697 Y17.2668
G01 X29.4395 Y17.2741
G01 X29.4272 Y17.2766
G01 X29.4097 Y17.2794
G01 X29.3789 Y17.2837
G01 X29.3664 Y17.2849
G01 X29.3488 Y17.2861
G01 X29.3108 Y17.2873
G01 X9.0166 Y17.2619
G01 X3.9370 Y17.2619
G01 X3.9213 Y17.2616
G01 X3.8914 Y17.2601
G01 X3.8757 Y17.2589
G01 X3.8602 Y17.2570
G01 X3.8306 Y17.2526
G01 X3.8151 Y17.2499
G01 X3.7998 Y17.2465
G01 X3.7707 Y17.2392
G01 X3.7556 Y17.2350
G01 X3.7407 Y17.2301
G01 X3.7125 Y17.2200
G01 X3.6978 Y17.2144
G01 X3.6835 Y17.2080
G01 X3.6494 Y17.1918
G01 X3.6355 Y17.1844
G01 X3.6031 Y17.1650
G01 X3.5898 Y17.1566
G01 X3.5770 Y17.1476
G01 X3.5467 Y17.1250
G01 X3.5345 Y17.1150
G01 X3.5115 Y17.0943
G01 X3.5007 Y17.0844
G01 X3.4896 Y17.0733
G01 X3.4642 Y17.0454
G01 X3.4539 Y17.0335
G01 X3.4442 Y17.0211
G01 X3.4218 Y16.9907
G01 X3.4131 Y16.9776
G01 X3.3936 Y16.9453
G01 X3.3822 Y16.9246
G01 X3.3660 Y16.8905
G01 X3.3596 Y16.8762
G01 X3.3540 Y16.8615
G01 X3.3413 Y16.8259
G01 X3.3348 Y16.8033
G01 X3.3257 Y16.7666
G01 X3.3226 Y16.7512
G01 X3.3170 Y16.7138
G01 X3.3151 Y16.6983
G01 X3.3139 Y16.6826
G01 X3.3124 Y16.6527
G01 X3.3121 Y16.6370
G01 X3.3120 Y7.6289
G01 X3.2221 Y7.5751
G01 X3.2089 Y7.5667
G01 X3.1960 Y7.5577
G01 X3.1179 Y7.4998
G01 X3.1056 Y7.4901
G01 X3.0937 Y7.4798
G01 X3.0216 Y7.4146
G01 X3.0103 Y7.4037
G01 X2.9994 Y7.3924
G01 X2.9342 Y7.3203
G01 X2.9239 Y7.3084
G01 X2.9142 Y7.2961
G01 X2.8563 Y7.2180
G01 X2.8473 Y7.2051
G01 X2.8389 Y7.1919
G01 X2.7889 Y7.1085
G01 X2.7812 Y7.0948
G01 X2.7741 Y7.0808
G01 X2.7325 Y6.9929
G01 X2.7262 Y6.9785
G01 X2.7205 Y6.9639
G01 X2.6878 Y6.8724
G01 X2.6828 Y6.8574
G01 X2.6786 Y6.8423
G01 X2.6550 Y6.7480
G01 X2.6516 Y6.7327
G01 X2.6489 Y6.7172
G01 X2.6346 Y6.6210
G01 X2.6327 Y6.6055
G01 X2.6316 Y6.5898
G01 X2.6268 Y6.4927
G01 X2.6264 Y6.4770
G01 X2.6268 Y6.4613
G01 X2.6316 Y6.3642
G01 X2.6327 Y6.3485
G01 X2.6346 Y6.3330
G01 X2.6489 Y6.2368
G01 X2.6516 Y6.2213
G01 X2.6550 Y6.2060
G01 X2.6786 Y6.1117
G01 X2.6828 Y6.0966
G01 X2.6878 Y6.0816
G01 X2.7205 Y5.9901
G01 X2.7262 Y5.9755
G01 X2.7325 Y5.9611
G01 X2.7741 Y5.8732
G01 X2.7812 Y5.8592
G01 X2.7889 Y5.8455
G01 X2.8389 Y5.7621
G01 X2.8473 Y5.7489
G01 X2.8563 Y5.7360
G01 X2.9190 Y5.6517
G01 X2.9342 Y5.6337
G01 X2.9994 Y5.5616
G01 X3.0103 Y5.5503
G01 X3.0216 Y5.5394
G01 X3.0937 Y5.4742
G01 X3.1056 Y5.4639
G01 X3.1179 Y5.4542
G01 X3.1960 Y5.3963
G01 X3.2155 Y5.3830
G01 X3.3055 Y5.3289
G01 X3.3192 Y5.3212
G01 X3.3332 Y5.3141
G01 X3.4282 Y5.2693
G01 X3.4501 Y5.2605
G01 X3.5491 Y5.2252
G01 X3.5717 Y5.2186
G01 X3.6182 Y5.2070
G01 X3.5717 Y5.1954
G01 X3.5491 Y5.1888
G01 X3.4501 Y5.1535
G01 X3.4282 Y5.1447
G01 X3.3332 Y5.0999
G01 X3.3192 Y5.0928
G01 X3.3055 Y5.0851
G01 X3.2221 Y5.0351
G01 X3.2024 Y5.0223
G01 X3.1179 Y4.9598
G01 X3.1056 Y4.9501
G01 X3.0937 Y4.9398
G01 X3.0216 Y4.8746
G01 X3.0103 Y4.8637
G01 X2.9994 Y4.8524
G01 X2.9342 Y4.7803
G01 X2.9239 Y4.7684
G01 X2.9142 Y4.7561
G01 X2.8517 Y4.6716
G01 X2.8389 Y4.6519
G01 X2.7889 Y4.5685
G01 X2.7812 Y4.5548
G01 X2.7741 Y4.5408
G01 X2.7325 Y4.4529
G01 X2.7262 Y4.4385
G01 X2.7205 Y4.4239
G01 X2.6878 Y4.3324
G01 X2.6828 Y4.3174
G01 X2.6786 Y4.3023
G01 X2.6550 Y4.2080
G01 X2.6516 Y4.1927
G01 X2.6489 Y4.1772
G01 X2.6346 Y4.0810
G01 X2.6327 Y4.0655
G01 X2.6316 Y4.0498
G01 X2.6268 Y3.9527
G01 X2.6264 Y3.9370
G01 X2.6268 Y3.9213
G01 X2.6316 Y3.8242
G01 X2.6327 Y3.8085
G01 X2.6346 Y3.7930
G01 X2.6489 Y3.6968
G01 X2.6516 Y3.6813
G01 X2.6550 Y3.6660
G01 X2.6786 Y3.5717
G01 X2.6828 Y3.5566
G01 X2.6878 Y3.5416
G01 X2.7205 Y3.4501
G01 X2.7262 Y3.4355
G01 X2.7325 Y3.4211
G01 X2.7741 Y3.3332
G01 X2.7812 Y3.3192
G01 X2.7889 Y3.3055
G01 X2.8389 Y3.2221
G01 X2.8473 Y3.2089
G01 X2.8563 Y3.1960
G01 X2.9142 Y3.1179
G01 X2.9239 Y3.1056
G01 X2.9342 Y3.0937
G01 X2.9994 Y3.0216
G01 X3.0103 Y3.0103
G01 X3.0216 Y2.9994
G01 X3.0937 Y2.9342
G01 X3.1056 Y2.9239
G01 X3.1179 Y2.9142
G01 X3.1960 Y2.8563
G01 X3.2089 Y2.8473
G01 X3.2221 Y2.8389
G01 X3.3055 Y2.7889
G01 X3.3192 Y2.7812
G01 X3.3332 Y2.7741
G01 X3.4211 Y2.7325
G01 X3.4355 Y2.7262
G01 X3.4501 Y2.7205
G01 X3.5416 Y2.6878
G01 X3.5566 Y2.6828
G01 X3.5717 Y2.6786
G01 X3.6660 Y2.6550
G01 X3.6813 Y2.6516
G01 X3.6968 Y2.6489
G01 X3.7930 Y2.6346
G01 X3.8085 Y2.6327
G01 X3.8242 Y2.6316
G01 X3.9213 Y2.6268
G01 X3.9370 Y2.6264
G01 X3.9527 Y2.6268
G01 X4.0498 Y2.6316
G01 X4.0655 Y2.6327
G01 X4.0810 Y2.6346
G01 X4.1772 Y2.6489
G01 X4.1927 Y2.6516
G01 X4.2080 Y2.6550
G01 X4.3023 Y2.6786
G01 X4.3174 Y2.6828
G01 X4.3324 Y2.6878
G01 X4.4239 Y2.7205
G01 X4.4385 Y2.7262
G01 X4.4529 Y2.7325
G01 X4.5408 Y2.7741
G01 X4.5548 Y2.7812
G01 X4.5685 Y2.7889
G01 X4.6519 Y2.8389
G01 X4.6651 Y2.8473
G01 X4.6780 Y2.8563
G01 X4.7561 Y2.9142
G01 X4.7684 Y2.9239
G01 X4.7803 Y2.9342
G01 X4.8524 Y2.9994
G01 X4.8637 Y3.0103
G01 X4.8746 Y3.0216
G01 X4.9398 Y3.0937
G01 X4.9501 Y3.1056
G01 X4.9598 Y3.1179
G01 X5.0177 Y3.1960
G01 X5.0267 Y3.2089
G01 X5.0351 Y3.2221
G01 X5.0889 Y3.3121
G00 Z2.0000
G00 X5.0329 Y3.4021
G01 F60.00
G01 Z-0.0000
G01 F120.00
G01 X36.9570 Y3.4021
G01 X36.9683 Y3.4023
G01 X37.0094 Y3.4046
G01 X37.0558 Y3.4113
G01 X37.0724 Y3.4148
G01 X37.1123 Y3.4251
G01 X37.1512 Y3.4387
G01 X37.1617 Y3.4428
G01 X37.2042 Y3.4626
G01 X37.2190 Y3.4708
G01 X37.2542 Y3.4922
G01 X37.2875 Y3.5165
G01 X37.3007 Y3.5271
G01 X37.3353 Y3.5587
G01 X37.3669 Y3.5933
G01 X37.3775 Y3.6065
G01 X37.4018 Y3.6398
G01 X37.4261 Y3.6799
G01 X37.4314 Y3.6898
G01 X37.4467 Y3.7220
G01 X37.4512 Y3.7323
G01 X37.4553 Y3.7428
G01 X37.4689 Y3.7817
G01 X37.4719 Y3.7926
G01 X37.4817 Y3.8326
G01 X37.4836 Y3.8438
G01 X37.4894 Y3.8846
G01 X37.4919 Y3.9314
G01 X37.4920 Y5.3811
G01 X37.5274 Y5.3979
G01 X37.5373 Y5.4033
G01 X37.6256 Y5.4561
G01 X37.6398 Y5.4653
G01 X37.7224 Y5.5265
G01 X37.7313 Y5.5335
G01 X37.7399 Y5.5408
G01 X37.8161 Y5.6100
G01 X37.8279 Y5.6221
G01 X37.8932 Y5.6941
G01 X37.9005 Y5.7027
G01 X37.9075 Y5.7116
G01 X37.9719 Y5.7989
G01 X37.9779 Y5.8084
G01 X38.0307 Y5.8967
G01 X38.0385 Y5.9117
G01 X38.0801 Y5.9996
G01 X38.0847 Y6.0099
G01 X38.0887 Y6.0204
G01 X38.1250 Y6.1227
G01 X38.1280 Y6.1336
G01 X38.1541 Y6.2389
G01 X38.1561 Y6.2500
G01 X38.1717 Y6.3574
G01 X38.1773 Y6.4657
G01 X38.1776 Y6.4770
G01 X38.1773 Y6.4883
G01 X38.1717 Y6.5966
G01 X38.1561 Y6.7040
G01 X38.1541 Y6.7151
G01 X38.1517 Y6.7261
G01 X38.1250 Y6.8313
G01 X38.1215 Y6.8420
G01 X38.0847 Y6.9441
G01 X38.0801 Y6.9544
G01 X38.0335 Y7.0524
G01 X37.9779 Y7.1456
G01 X37.9719 Y7.1551
G01 X37.9654 Y7.1644
G01 X37.9005 Y7.2513
G01 X37.8279 Y7.3319
G01 X37.8201 Y7.3401
G01 X37.8119 Y7.3479
G01 X37.7313 Y7.4205
G01 X37.7224 Y7.4275
G01 X37.6351 Y7.4919
G01 X37.5422 Y7.5479
G01 X37.5324 Y7.5535
G01 X37.5223 Y7.5585
G01 X37.4241 Y7.6047
G01 X37.4136 Y7.6087
G01 X37.3113 Y7.6450
G01 X37.2061 Y7.6717
G01 X37.1951 Y7.6741
G01 X37.0878 Y7.6903
G01 X37.0766 Y7.6917
G01 X37.0654 Y7.6926
G01 X36.9570 Y7.6976
G01 X36.8486 Y7.6926
G01 X36.8374 Y7.6917
G01 X36.8262 Y7.6903
G01 X36.7189 Y7.6741
G01 X36.7079 Y7.6717
G01 X36.6027 Y7.6450
G01 X36.5004 Y7.6087
G01 X36.4899 Y7.6047
G01 X36.4796 Y7.6001
G01 X36.3816 Y7.5535
G01 X36.2884 Y7.4979
G01 X36.2789 Y7.4919
G01 X36.1916 Y7.4275
G01 X36.1827 Y7.4205
G01 X36.1741 Y7.4132
G01 X36.0939 Y7.3401
G01 X36.0208 Y7.2599
G01 X36.0135 Y7.2513
G01 X35.9486 Y7.1644
G01 X35.9421 Y7.1551
G01 X35.8861 Y7.0622
G01 X35.8805 Y7.0524
G01 X35.8755 Y7.0423
G01 X35.8293 Y6.9441
G01 X35.7925 Y6.8420
G01 X35.7890 Y6.8313
G01 X35.7623 Y6.7261
G01 X35.7599 Y6.7151
G01 X35.7437 Y6.6078
G01 X35.7423 Y6.5966
G01 X35.7414 Y6.5854
G01 X35.7364 Y6.4770
G01 X35.7414 Y6.3686
G01 X35.7423 Y6.3574
G01 X35.7437 Y6.3462
G01 X35.7579 Y6.2500
G01 X35.7599 Y6.2389
G01 X35.7623 Y6.2279
G01 X35.7890 Y6.1227
G01 X35.8253 Y6.0204
G01 X35.8293 Y6.0099
G01 X35.8339 Y5.9996
G01 X35.8805 Y5.9016
G01 X35.9361 Y5.8084
G01 X35.9453 Y5.7942
G01 X36.0065 Y5.7116
G01 X36.0135 Y5.7027
G01 X36.0208 Y5.6941
G01 X36.0939 Y5.6139
G01 X36.1021 Y5.6061
G01 X36.1783 Y5.5371
G01 X36.1916 Y5.5265
G01 X36.2696 Y5.4686
G01 X36.2836 Y5.4590
G01 X36.3767 Y5.4033
G01 X36.3866 Y5.3979
G01 X36.4220 Y5.3811
G01 X36.4220 Y4.4719
G01 X22.2701 Y4.4720
G01 X22.2556 Y5.5261
G01 X22.3246 Y5.5677
G01 X22.4019 Y5.6247
G01 X22.4108 Y5.6316
G01 X22.4193 Y5.6390
G01 X22.4903 Y5.7037
G01 X22.5550 Y5.7747
G01 X22.5624 Y5.7832
G01 X22.5693 Y5.7921
G01 X22.6198 Y5.8602
G01 X22.6263 Y5.8694
G01 X22.6323 Y5.8790
G01 X22.6815 Y5.9615
G01 X22.6865 Y5.9716
G01 X22.7251 Y6.0533
G01 X22.7314 Y6.0690
G01 X22.7600 Y6.1488
G01 X22.7635 Y6.1595
G01 X22.7665 Y6.1704
G01 X22.7896 Y6.2636
G01 X22.7915 Y6.2748
G01 X22.8053 Y6.3698
G01 X22.8103 Y6.4657
G01 X22.8106 Y6.4770
G01 X22.8062 Y6.5729
G01 X22.8053 Y6.5842
G01 X22.8039 Y6.5954
G01 X22.7915 Y6.6792
G01 X22.7884 Y6.6959
G01 X22.7665 Y6.7836
G01 X22.7635 Y6.7945
G01 X22.7314 Y6.8850
G01 X22.7274 Y6.8955
G01 X22.7228 Y6.9058
G01 X22.6815 Y6.9925
G01 X22.6759 Y7.0023
G01 X22.6263 Y7.0846
G01 X22.5693 Y7.1619
G01 X22.5624 Y7.1708
G01 X22.5550 Y7.1793
G01 X22.4903 Y7.2503
G01 X22.4193 Y7.3150
G01 X22.4108 Y7.3224
G01 X22.3338 Y7.3798
G01 X22.3246 Y7.3863
G01 X22.3150 Y7.3923
G01 X22.2423 Y7.4359
G01 X22.2325 Y7.4415
G01 X22.2224 Y7.4465
G01 X22.1355 Y7.4874
G01 X22.0452 Y7.5200
G01 X22.0345 Y7.5235
G01 X22.0236 Y7.5265
G01 X21.9304 Y7.5496
G01 X21.8354 Y7.5639
G01 X21.8242 Y7.5653
G01 X21.7283 Y7.5703
G01 X21.7170 Y7.5706
G01 X21.7057 Y7.5703
G01 X21.6098 Y7.5653
G01 X21.5986 Y7.5639
G01 X21.5036 Y7.5496
G01 X21.4104 Y7.5265
G01 X21.3995 Y7.5235
G01 X21.3090 Y7.4914
G01 X21.2985 Y7.4874
G01 X21.2116 Y7.4465
G01 X21.2015 Y7.4415
G01 X21.1917 Y7.4359
G01 X21.1190 Y7.3923
G01 X21.1094 Y7.3863
G01 X21.1002 Y7.3798
G01 X21.0232 Y7.3224
G01 X20.9519 Y7.2581
G01 X20.9437 Y7.2503
G01 X20.8790 Y7.1793
G01 X20.8716 Y7.1708
G01 X20.8142 Y7.0938
G01 X20.8077 Y7.0846
G01 X20.8017 Y7.0750
G01 X20.7581 Y7.0023
G01 X20.7525 Y6.9925
G01 X20.7475 Y6.9824
G01 X20.7066 Y6.8955
G01 X20.6740 Y6.8052
G01 X20.6705 Y6.7945
G01 X20.6675 Y6.7836
G01 X20.6444 Y6.6904
G01 X20.6425 Y6.6792
G01 X20.6293 Y6.5898
G01 X20.6278 Y6.5729
G01 X20.6237 Y6.4883
G01 X20.6234 Y6.4770
G01 X20.6237 Y6.4657
G01 X20.6287 Y6.3698
G01 X20.6301 Y6.3586
G01 X20.6444 Y6.2636
G01 X20.6675 Y6.1704
G01 X20.6705 Y6.1595
G01 X20.6740 Y6.1488
G01 X20.7066 Y6.0585
G01 X20.7112 Y6.0482
G01 X20.7525 Y5.9615
G01 X20.8017 Y5.8790
G01 X20.8077 Y5.8694
G01 X20.8142 Y5.8602
G01 X20.8716 Y5.7832
G01 X20.8790 Y5.7747
G01 X20.9437 Y5.7037
G01 X21.0147 Y5.6390
G01 X21.0232 Y5.6316
G01 X21.0321 Y5.6247
G01 X21.1094 Y5.5677
G01 X21.1857 Y5.5217
G01 X21.2001 Y4.4720
G01 X17.1465 Y4.4720
G01 X17.1465 Y8.9972
G01 X17.1450 Y9.0296
G01 X17.1440 Y9.0434
G01 X17.1387 Y9.0817
G01 X17.1364 Y9.0953
G01 X17.1274 Y9.1330
G01 X17.1237 Y9.1462
G01 X17.1110 Y9.1828
G01 X17.1061 Y9.1957
G01 X17.0899 Y9.2309
G01 X17.0837 Y9.2432
G01 X17.0641 Y9.2766
G01 X17.0568 Y9.2882
G01 X17.0340 Y9.3196
G01 X17.0256 Y9.3304
G01 X17.0177 Y9.3395
G01 X16.9916 Y9.3681
G01 X16.9817 Y9.3777
G01 X16.9529 Y9.4035
G01 X16.9421 Y9.4121
G01 X16.9109 Y9.4350
G01 X16.8993 Y9.4424
G01 X16.8660 Y9.4622
G01 X16.8537 Y9.4685
G01 X16.8186 Y9.4849
G01 X16.8058 Y9.4899
G01 X16.7693 Y9.5028
G01 X16.7560 Y9.5065
G01 X16.7184 Y9.5158
G01 X16.7048 Y9.5182
G01 X16.6665 Y9.5237
G01 X16.6528 Y9.5248
G01 X16.6204 Y9.5264
G01 X12.6538 Y9.5500
G01 X12.6385 Y9.5823
G01 X12.6307 Y9.5973
G01 X12.5779 Y9.6856
G01 X12.5687 Y9.6998
G01 X12.5075 Y9.7824
G01 X12.5005 Y9.7913
G01 X12.4932 Y9.7999
G01 X12.4240 Y9.8761
G01 X12.4119 Y9.8879
G01 X12.3399 Y9.9532
G01 X12.3313 Y9.9605
G01 X12.3224 Y9.9675
G01 X12.2351 Y10.0319
G01 X12.2256 Y10.0379
G01 X12.1373 Y10.0907
G01 X12.1223 Y10.0985
G01 X12.0344 Y10.1401
G01 X12.0241 Y10.1447
G01 X12.0136 Y10.1487
G01 X11.9113 Y10.1850
G01 X11.9004 Y10.1880
G01 X11.7951 Y10.2141
G01 X11.6878 Y10.2303
G01 X11.6766 Y10.2317
G01 X11.5683 Y10.2373
G01 X11.5570 Y10.2376
G01 X11.5457 Y10.2373
G01 X11.4374 Y10.2317
G01 X11.3300 Y10.2161
G01 X11.3189 Y10.2141
G01 X11.2136 Y10.1880
G01 X11.2027 Y10.1850
G01 X11.1920 Y10.1815
G01 X11.0899 Y10.1447
G01 X10.9917 Y10.0985
G01 X10.9816 Y10.0935
G01 X10.9718 Y10.0879
G01 X10.8884 Y10.0379
G01 X10.8789 Y10.0319
G01 X10.8696 Y10.0254
G01 X10.7827 Y9.9605
G01 X10.7021 Y9.8879
G01 X10.6939 Y9.8801
G01 X10.6861 Y9.8719
G01 X10.6135 Y9.7913
G01 X10.5486 Y9.7044
G01 X10.5421 Y9.6951
G01 X10.5361 Y9.6856
G01 X10.4861 Y9.6022
G01 X10.4805 Y9.5924
G01 X10.4755 Y9.5823
G01 X10.4293 Y9.4841
G01 X10.3925 Y9.3820
G01 X10.3890 Y9.3713
G01 X10.3860 Y9.3604
G01 X10.3599 Y9.2551
G01 X10.3437 Y9.1478
G01 X10.3423 Y9.1366
G01 X10.3414 Y9.1254
G01 X10.3367 Y9.0283
G01 X10.3364 Y9.0170
G01 X10.3367 Y9.0057
G01 X10.3423 Y8.8974
G01 X10.3579 Y8.7900
G01 X10.3599 Y8.7789
G01 X10.3623 Y8.7679
G01 X10.3890 Y8.6627
G01 X10.4253 Y8.5604
G01 X10.4293 Y8.5499
G01 X10.4339 Y8.5396
G01 X10.4755 Y8.4517
G01 X10.4805 Y8.4416
G01 X10.4861 Y8.4318
G01 X10.5421 Y8.3389
G01 X10.6065 Y8.2516
G01 X10.6135 Y8.2427
G01 X10.6208 Y8.2341
G01 X10.6939 Y8.1539
G01 X10.7741 Y8.0808
G01 X10.7827 Y8.0735
G01 X10.7916 Y8.0665
G01 X10.8696 Y8.0086
G01 X10.8789 Y8.0021
G01 X10.8884 Y7.9961
G01 X10.9816 Y7.9405
G01 X11.0796 Y7.8939
G01 X11.0951 Y7.8872
G01 X11.1920 Y7.8525
G01 X11.2027 Y7.8490
G01 X11.2136 Y7.8460
G01 X11.3189 Y7.8199
G01 X11.4262 Y7.8037
G01 X11.4374 Y7.8023
G01 X11.5457 Y7.7967
G01 X11.5570 Y7.7964
G01 X11.5683 Y7.7967
G01 X11.6766 Y7.8023
G01 X11.7840 Y7.8179
G01 X11.7951 Y7.8199
G01 X11.8061 Y7.8223
G01 X11.9113 Y7.8490
G01 X11.9220 Y7.8525
G01 X12.0189 Y7.8872
G01 X12.0344 Y7.8939
G01 X12.1324 Y7.9405
G01 X12.1422 Y7.9461
G01 X12.2351 Y8.0021
G01 X12.3224 Y8.0665
G01 X12.3313 Y8.0735
G01 X12.3399 Y8.0808
G01 X12.4161 Y8.1500
G01 X12.4279 Y8.1621
G01 X12.5005 Y8.2427
G01 X12.5075 Y8.2516
G01 X12.5687 Y8.3342
G01 X12.5779 Y8.3484
G01 X12.6307 Y8.4367
G01 X12.6361 Y8.4466
G01 X12.6520 Y8.4801
G01 X16.0766 Y8.4598
G01 X16.0766 Y4.4719
G01 X5.0329 Y4.4720
G01 X5.0161 Y4.5074
G01 X5.0107 Y4.5173
G01 X4.9550 Y4.6104
G01 X4.9454 Y4.6244
G01 X4.8875 Y4.7024
G01 X4.8769 Y4.7157
G01 X4.8079 Y4.7919
G01 X4.8001 Y4.8001
G01 X4.7199 Y4.8732
G01 X4.7113 Y4.8805
G01 X4.7024 Y4.8875
G01 X4.6244 Y4.9454
G01 X4.6104 Y4.9550
G01 X4.5222 Y5.0079
G01 X4.5124 Y5.0135
G01 X4.4144 Y5.0601
G01 X4.4041 Y5.0647
G01 X4.3936 Y5.0687
G01 X4.2913 Y5.1050
G01 X4.1861 Y5.1317
G01 X4.1751 Y5.1341
G01 X4.0678 Y5.1503
G01 X4.0566 Y5.1517
G01 X4.0454 Y5.1526
G01 X3.9370 Y5.1576
G01 X3.9257 Y5.1573
G01 X3.8174 Y5.1517
G01 X3.7100 Y5.1361
G01 X3.6989 Y5.1341
G01 X3.6879 Y5.1317
G01 X3.5827 Y5.1050
G01 X3.4804 Y5.0687
G01 X3.4699 Y5.0647
G01 X3.4596 Y5.0601
G01 X3.3616 Y5.0135
G01 X3.2684 Y4.9579
G01 X3.2589 Y4.9519
G01 X3.2496 Y4.9454
G01 X3.1627 Y4.8805
G01 X3.0821 Y4.8079
G01 X3.0739 Y4.8001
G01 X3.0661 Y4.7919
G01 X2.9935 Y4.7113
G01 X2.9286 Y4.6244
G01 X2.9221 Y4.6151
G01 X2.9161 Y4.6056
G01 X2.8661 Y4.5222
G01 X2.8579 Y4.5074
G01 X2.8139 Y4.4144
G01 X2.8093 Y4.4041
G01 X2.8053 Y4.3936
G01 X2.7690 Y4.2913
G01 X2.7660 Y4.2804
G01 X2.7399 Y4.1751
G01 X2.7379 Y4.1640
G01 X2.7223 Y4.0566
G01 X2.7167 Y3.9483
G01 X2.7164 Y3.9370
G01 X2.7167 Y3.9257
G01 X2.7223 Y3.8174
G01 X2.7379 Y3.7100
G01 X2.7399 Y3.6989
G01 X2.7660 Y3.5936
G01 X2.7690 Y3.5827
G01 X2.7725 Y3.5720
G01 X2.8093 Y3.4699
G01 X2.8555 Y3.3717
G01 X2.8605 Y3.3616
G01 X2.8661 Y3.3518
G01 X2.9221 Y3.2589
G01 X2.9286 Y3.2496
G01 X2.9935 Y3.1627
G01 X3.0661 Y3.0821
G01 X3.0739 Y3.0739
G01 X3.0821 Y3.0661
G01 X3.1627 Y2.9935
G01 X3.2496 Y2.9286
G01 X3.2589 Y2.9221
G01 X3.3518 Y2.8661
G01 X3.3666 Y2.8579
G01 X3.4596 Y2.8139
G01 X3.4699 Y2.8093
G01 X3.4804 Y2.8053
G01 X3.5827 Y2.7690
G01 X3.6879 Y2.7423
G01 X3.6989 Y2.7399
G01 X3.7100 Y2.7379
G01 X3.8174 Y2.7223
G01 X3.9257 Y2.7167
G01 X3.9370 Y2.7164
G01 X3.9483 Y2.7167
G01 X4.0566 Y2.7223
G01 X4.1640 Y2.7379
G01 X4.1751 Y2.7399
G01 X4.2804 Y2.7660
G01 X4.2967 Y2.7707
G01 X4.3936 Y2.8053
G01 X4.4041 Y2.8093
G01 X4.4144 Y2.8139
G01 X4.5124 Y2.8605
G01 X4.6056 Y2.9161
G01 X4.6151 Y2.9221
G01 X4.7024 Y2.9865
G01 X4.7157 Y2.9971
G01 X4.7919 Y3.0661
G01 X4.8001 Y3.0739
G01 X4.8732 Y3.1541
G01 X4.8841 Y3.1671
G01 X4.9454 Y3.2496
G01 X4.9550 Y3.2636
G01 X5.0107 Y3.3567
G01 X5.0161 Y3.3666
G01 X5.0329 Y3.4021
G00 Z2.0000
G00 X4.9759 Y3.4921
G01 F60.00
G01 Z-0.0000
G01 F120.00
G01 X36.9570 Y3.4921
G01 X37.0006 Y3.4942
G01 X37.0370 Y3.4994
G01 X37.0505 Y3.5021
G01 X37.0862 Y3.5112
G01 X37.1273 Y3.5259
G01 X37.1667 Y3.5446
G01 X37.1984 Y3.5634
G01 X37.2070 Y3.5690
G01 X37.2339 Y3.5888
G01 X37.2445 Y3.5975
G01 X37.2716 Y3.6224
G01 X37.3010 Y3.6547
G01 X37.3270 Y3.6898
G01 X37.3460 Y3.7213
G01 X37.3510 Y3.7303
G01 X37.3653 Y3.7604
G01 X37.3706 Y3.7731
G01 X37.3828 Y3.8078
G01 X37.3934 Y3.8502
G01 X37.3998 Y3.8934
G01 X37.4019 Y3.9370
G01 X37.4020 Y5.4381
G01 X37.4900 Y5.4799
G01 X37.5851 Y5.5369
G01 X37.6742 Y5.6030
G01 X37.7515 Y5.6728
G01 X37.7612 Y5.6825
G01 X37.8265 Y5.7546
G01 X37.8352 Y5.7652
G01 X37.8971 Y5.8489
G01 X37.9507 Y5.9381
G01 X37.9572 Y5.9502
G01 X37.9988 Y6.0381
G01 X38.0040 Y6.0508
G01 X38.0389 Y6.1488
G01 X38.0659 Y6.2564
G01 X38.0822 Y6.3662
G01 X38.0874 Y6.4701
G01 X38.0874 Y6.4839
G01 X38.0822 Y6.5878
G01 X38.0670 Y6.6908
G01 X38.0644 Y6.7043
G01 X38.0389 Y6.8052
G01 X38.0015 Y6.9097
G01 X37.9541 Y7.0100
G01 X37.9007 Y7.0993
G01 X37.8931 Y7.1107
G01 X37.8310 Y7.1942
G01 X37.7612 Y7.2715
G01 X37.7515 Y7.2812
G01 X37.6742 Y7.3510
G01 X37.5851 Y7.4171
G01 X37.4900 Y7.4741
G01 X37.3959 Y7.5188
G01 X37.3832 Y7.5240
G01 X37.2917 Y7.5568
G01 X37.2786 Y7.5607
G01 X37.1776 Y7.5859
G01 X37.0746 Y7.6013
G01 X37.0610 Y7.6027
G01 X36.9639 Y7.6074
G01 X36.9501 Y7.6074
G01 X36.8462 Y7.6022
G01 X36.7364 Y7.5859
G01 X36.6288 Y7.5589
G01 X36.5308 Y7.5240
G01 X36.5181 Y7.5188
G01 X36.4302 Y7.4772
G01 X36.4181 Y7.4707
G01 X36.3289 Y7.4171
G01 X36.2398 Y7.3510
G01 X36.1625 Y7.2812
G01 X36.1528 Y7.2715
G01 X36.0830 Y7.1942
G01 X36.0189 Y7.1080
G01 X36.0133 Y7.0993
G01 X35.9599 Y7.0100
G01 X35.9125 Y6.9097
G01 X35.8751 Y6.8052
G01 X35.8481 Y6.6976
G01 X35.8318 Y6.5878
G01 X35.8264 Y6.4770
G01 X35.8318 Y6.3662
G01 X35.8475 Y6.2598
G01 X35.8496 Y6.2497
G01 X35.8751 Y6.1488
G01 X35.9100 Y6.0508
G01 X35.9152 Y6.0381
G01 X35.9599 Y5.9440
G01 X36.0133 Y5.8547
G01 X36.0209 Y5.8433
G01 X36.0830 Y5.7598
G01 X36.1575 Y5.6775
G01 X36.2346 Y5.6075
G01 X36.2452 Y5.5988
G01 X36.3233 Y5.5409
G01 X36.3347 Y5.5333
G01 X36.4240 Y5.4799
G01 X36.5120 Y5.4381
G01 X36.5120 Y4.3819
G01 X22.1813 Y4.3820
G01 X22.1649 Y5.5798
G01 X22.1840 Y5.5888
G01 X22.1931 Y5.5936
G01 X22.2688 Y5.6389
G01 X22.2774 Y5.6445
G01 X22.3537 Y5.7012
G01 X22.4242 Y5.7649
G01 X22.4314 Y5.7723
G01 X22.4928 Y5.8403
G01 X22.5475 Y5.9138
G01 X22.5551 Y5.9252
G01 X22.5987 Y5.9979
G01 X22.6037 Y6.0070
G01 X22.6442 Y6.0929
G01 X22.6752 Y6.1791
G01 X22.6792 Y6.1923
G01 X22.6998 Y6.2745
G01 X22.7025 Y6.2880
G01 X22.7158 Y6.3786
G01 X22.7206 Y6.4770
G01 X22.7158 Y6.5754
G01 X22.7019 Y6.6694
G01 X22.6998 Y6.6795
G01 X22.6774 Y6.7683
G01 X22.6442 Y6.8611
G01 X22.6021 Y6.9501
G01 X22.5551 Y7.0288
G01 X22.5475 Y7.0402
G01 X22.4970 Y7.1083
G01 X22.4883 Y7.1189
G01 X22.4267 Y7.1867
G01 X22.3589 Y7.2483
G01 X22.3483 Y7.2570
G01 X22.2746 Y7.3115
G01 X22.1901 Y7.3621
G01 X22.1011 Y7.4042
G01 X22.0083 Y7.4374
G01 X21.9128 Y7.4613
G01 X21.8154 Y7.4758
G01 X21.7170 Y7.4806
G01 X21.6186 Y7.4758
G01 X21.5212 Y7.4613
G01 X21.4257 Y7.4374
G01 X21.3329 Y7.4042
G01 X21.2500 Y7.3652
G01 X21.2379 Y7.3587
G01 X21.1652 Y7.3151
G01 X21.1538 Y7.3075
G01 X21.0803 Y7.2528
G01 X21.0073 Y7.1867
G01 X20.9412 Y7.1137
G01 X20.8825 Y7.0346
G01 X20.8319 Y6.9501
G01 X20.7926 Y6.8673
G01 X20.7873 Y6.8546
G01 X20.7588 Y6.7749
G01 X20.7548 Y6.7617
G01 X20.7327 Y6.6728
G01 X20.7182 Y6.5754
G01 X20.7134 Y6.4770
G01 X20.7177 Y6.3855
G01 X20.7191 Y6.3718
G01 X20.7327 Y6.2812
G01 X20.7566 Y6.1857
G01 X20.7873 Y6.0994
G01 X20.7926 Y6.0867
G01 X20.8288 Y6.0100
G01 X20.8336 Y6.0009
G01 X20.8825 Y5.9194
G01 X20.9370 Y5.8457
G01 X20.9457 Y5.8351
G01 X21.0026 Y5.7723
G01 X21.0098 Y5.7649
G01 X21.0803 Y5.7012
G01 X21.1566 Y5.6445
G01 X21.1652 Y5.6389
G01 X21.2409 Y5.5936
G01 X21.2500 Y5.5888
G01 X21.2749 Y5.5770
G01 X21.2913 Y4.3820
G01 X17.0565 Y4.3820
G01 X17.0565 Y8.9950
G01 X17.0544 Y9.0348
G01 X17.0481 Y9.0780
G01 X17.0375 Y9.1204
G01 X17.0228 Y9.1615
G01 X17.0042 Y9.2010
G01 X16.9818 Y9.2385
G01 X16.9558 Y9.2736
G01 X16.9278 Y9.3047
G01 X16.8956 Y9.3341
G01 X16.8606 Y9.3603
G01 X16.8233 Y9.3830
G01 X16.7839 Y9.4018
G01 X16.7429 Y9.4167
G01 X16.7006 Y9.4276
G01 X16.6574 Y9.4342
G01 X16.6177 Y9.4365
G01 X12.5967 Y9.4603
G01 X12.5541 Y9.5500
G01 X12.4971 Y9.6451
G01 X12.4310 Y9.7342
G01 X12.3612 Y9.8115
G01 X12.3515 Y9.8212
G01 X12.2794 Y9.8865
G01 X12.2688 Y9.8952
G01 X12.1851 Y9.9571
G01 X12.0959 Y10.0107
G01 X12.0838 Y10.0172
G01 X11.9959 Y10.0588
G01 X11.9832 Y10.0640
G01 X11.8852 Y10.0989
G01 X11.7776 Y10.1259
G01 X11.6678 Y10.1422
G01 X11.5639 Y10.1474
G01 X11.5501 Y10.1474
G01 X11.4462 Y10.1422
G01 X11.3364 Y10.1259
G01 X11.2288 Y10.0989
G01 X11.1243 Y10.0615
G01 X11.0302 Y10.0172
G01 X11.0181 Y10.0107
G01 X10.9347 Y9.9607
G01 X10.9233 Y9.9531
G01 X10.8398 Y9.8910
G01 X10.7575 Y9.8165
G01 X10.6830 Y9.7342
G01 X10.6209 Y9.6507
G01 X10.6133 Y9.6393
G01 X10.5633 Y9.5559
G01 X10.5568 Y9.5438
G01 X10.5125 Y9.4497
G01 X10.4751 Y9.3452
G01 X10.4481 Y9.2376
G01 X10.4318 Y9.1278
G01 X10.4264 Y9.0170
G01 X10.4313 Y8.9130
G01 X10.4327 Y8.8994
G01 X10.4470 Y8.8032
G01 X10.4496 Y8.7897
G01 X10.4751 Y8.6888
G01 X10.5125 Y8.5843
G01 X10.5599 Y8.4840
G01 X10.6169 Y8.3889
G01 X10.6830 Y8.2998
G01 X10.7528 Y8.2225
G01 X10.7625 Y8.2128
G01 X10.8346 Y8.1475
G01 X10.8452 Y8.1388
G01 X10.9289 Y8.0769
G01 X11.0240 Y8.0199
G01 X11.1243 Y7.9725
G01 X11.2255 Y7.9361
G01 X11.2354 Y7.9333
G01 X11.3364 Y7.9081
G01 X11.4462 Y7.8918
G01 X11.5570 Y7.8864
G01 X11.6610 Y7.8913
G01 X11.6746 Y7.8927
G01 X11.7708 Y7.9070
G01 X11.7843 Y7.9096
G01 X11.8852 Y7.9351
G01 X11.9832 Y7.9700
G01 X11.9959 Y7.9752
G01 X12.0900 Y8.0199
G01 X12.1851 Y8.0769
G01 X12.2742 Y8.1430
G01 X12.3565 Y8.2175
G01 X12.4310 Y8.2998
G01 X12.4971 Y8.3889
G01 X12.5541 Y8.4840
G01 X12.5951 Y8.5704
G01 X16.1666 Y8.5493
G01 X16.1666 Y4.3819
G01 X4.9759 Y4.3820
G01 X4.9341 Y4.4700
G01 X4.8807 Y4.5593
G01 X4.8731 Y4.5707
G01 X4.8110 Y4.6542
G01 X4.7412 Y4.7315
G01 X4.7315 Y4.7412
G01 X4.6542 Y4.8110
G01 X4.5651 Y4.8771
G01 X4.4700 Y4.9341
G01 X4.3759 Y4.9788
G01 X4.3632 Y4.9840
G01 X4.2652 Y5.0189
G01 X4.1576 Y5.0459
G01 X4.0546 Y5.0613
G01 X4.0410 Y5.0627
G01 X3.9370 Y5.0676
G01 X3.8262 Y5.0622
G01 X3.7232 Y5.0470
G01 X3.7097 Y5.0444
G01 X3.6088 Y5.0189
G01 X3.5043 Y4.9815
G01 X3.4102 Y4.9372
G01 X3.3981 Y4.9307
G01 X3.3089 Y4.8771
G01 X3.2198 Y4.8110
G01 X3.1425 Y4.7412
G01 X3.1328 Y4.7315
G01 X3.0630 Y4.6542
G01 X3.0009 Y4.5707
G01 X2.9933 Y4.5593
G01 X2.9399 Y4.4700
G01 X2.8925 Y4.3697
G01 X2.8551 Y4.2652
G01 X2.8281 Y4.1576
G01 X2.8118 Y4.0478
G01 X2.8064 Y3.9370
G01 X2.8118 Y3.8262
G01 X2.8281 Y3.7164
G01 X2.8551 Y3.6088
G01 X2.8925 Y3.5043
G01 X2.9399 Y3.4040
G01 X2.9969 Y3.3089
G01 X3.0630 Y3.2198
G01 X3.1375 Y3.1375
G01 X3.2198 Y3.0630
G01 X3.3089 Y2.9969
G01 X3.4040 Y2.9399
G01 X3.5043 Y2.8925
G01 X3.6088 Y2.8551
G01 X3.7164 Y2.8281
G01 X3.8262 Y2.8118
G01 X3.9370 Y2.8064
G01 X4.0478 Y2.8118
G01 X4.1576 Y2.8281
G01 X4.2652 Y2.8551
G01 X4.3697 Y2.8925
G01 X4.4700 Y2.9399
G01 X4.5651 Y2.9969
G01 X4.6542 Y3.0630
G01 X4.7365 Y3.1375
G01 X4.8110 Y3.2198
G01 X4.8771 Y3.3089
G01 X4.9341 Y3.4040
G01 X4.9759 Y3.4921
G00 Z2.0000
G00 X4.9139 Y3.5821
G01 F60.00
G01 Z-0.0000
G01 F120.00
G01 X36.9570 Y3.5821
G01 X36.9918 Y3.5838
G01 X37.0262 Y3.5889
G01 X37.0577 Y3.5967
G01 X37.0951 Y3.6101
G01 X37.1243 Y3.6240
G01 X37.1542 Y3.6419
G01 X37.1822 Y3.6626
G01 X37.2062 Y3.6843
G01 X37.2329 Y3.7138
G01 X37.2521 Y3.7398
G01 X37.2700 Y3.7697
G01 X37.2849 Y3.8012
G01 X37.2959 Y3.8316
G01 X37.3054 Y3.8690
G01 X37.3102 Y3.9022
G01 X37.3119 Y3.9370
G01 X37.3120 Y5.5001
G01 X37.3563 Y5.5161
G01 X37.4486 Y5.5599
G01 X37.5351 Y5.6118
G01 X37.6162 Y5.6718
G01 X37.6945 Y5.7430
G01 X37.7614 Y5.8169
G01 X37.8229 Y5.8999
G01 X37.8747 Y5.9865
G01 X37.9184 Y6.0788
G01 X37.9528 Y6.1749
G01 X37.9771 Y6.2716
G01 X37.9928 Y6.3775
G01 X37.9976 Y6.4770
G01 X37.9926 Y6.5790
G01 X37.9771 Y6.6824
G01 X37.9528 Y6.7791
G01 X37.9184 Y6.8752
G01 X37.8747 Y6.9675
G01 X37.8235 Y7.0531
G01 X37.7598 Y7.1390
G01 X37.6928 Y7.2128
G01 X37.6171 Y7.2814
G01 X37.5351 Y7.3422
G01 X37.4497 Y7.3935
G01 X37.3529 Y7.4393
G01 X37.2591 Y7.4728
G01 X37.1624 Y7.4971
G01 X37.0565 Y7.5128
G01 X36.9570 Y7.5176
G01 X36.8550 Y7.5126
G01 X36.7516 Y7.4971
G01 X36.6549 Y7.4728
G01 X36.5588 Y7.4384
G01 X36.4665 Y7.3947
G01 X36.3809 Y7.3435
G01 X36.2969 Y7.2814
G01 X36.2212 Y7.2128
G01 X36.1542 Y7.1390
G01 X36.0905 Y7.0531
G01 X36.0393 Y6.9675
G01 X35.9956 Y6.8752
G01 X35.9612 Y6.7791
G01 X35.9364 Y6.6800
G01 X35.9214 Y6.5790
G01 X35.9164 Y6.4770
G01 X35.9214 Y6.3750
G01 X35.9362 Y6.2752
G01 X35.9620 Y6.1726
G01 X35.9956 Y6.0788
G01 X36.0382 Y5.9887
G01 X36.0918 Y5.8989
G01 X36.1534 Y5.8159
G01 X36.2212 Y5.7412
G01 X36.2950 Y5.6742
G01 X36.3779 Y5.6125
G01 X36.4676 Y5.5587
G01 X36.5577 Y5.5161
G01 X36.6020 Y5.5001
G01 X36.6020 Y4.2919
G01 X22.0925 Y4.2920
G01 X22.0741 Y5.6364
G01 X22.1477 Y5.6713
G01 X22.2246 Y5.7174
G01 X22.2966 Y5.7708
G01 X22.3612 Y5.8293
G01 X22.4247 Y5.8994
G01 X22.4766 Y5.9694
G01 X22.5227 Y6.0463
G01 X22.5611 Y6.1274
G01 X22.5905 Y6.2095
G01 X22.6135 Y6.3012
G01 X22.6262 Y6.3875
G01 X22.6306 Y6.4770
G01 X22.6262 Y6.5665
G01 X22.6135 Y6.6528
G01 X22.5913 Y6.7422
G01 X22.5611 Y6.8266
G01 X22.5227 Y6.9077
G01 X22.4779 Y6.9825
G01 X22.4216 Y7.0584
G01 X22.3630 Y7.1230
G01 X22.2946 Y7.1847
G01 X22.2246 Y7.2366
G01 X22.1477 Y7.2827
G01 X22.0666 Y7.3211
G01 X21.9822 Y7.3513
G01 X21.8952 Y7.3730
G01 X21.8065 Y7.3862
G01 X21.7170 Y7.3906
G01 X21.6275 Y7.3862
G01 X21.5388 Y7.3730
G01 X21.4518 Y7.3513
G01 X21.3674 Y7.3211
G01 X21.2885 Y7.2838
G01 X21.2074 Y7.2352
G01 X21.1374 Y7.1832
G01 X21.0710 Y7.1230
G01 X21.0108 Y7.0566
G01 X20.9574 Y6.9846
G01 X20.9113 Y6.9077
G01 X20.8739 Y6.8289
G01 X20.8421 Y6.7398
G01 X20.8210 Y6.6552
G01 X20.8077 Y6.5653
G01 X20.8034 Y6.4770
G01 X20.8076 Y6.3899
G01 X20.8210 Y6.2988
G01 X20.8427 Y6.2118
G01 X20.8721 Y6.1297
G01 X20.9125 Y6.0442
G01 X20.9574 Y5.9694
G01 X21.0093 Y5.8994
G01 X21.0728 Y5.8293
G01 X21.1374 Y5.7708
G01 X21.2094 Y5.7174
G01 X21.2863 Y5.6713
G01 X21.3642 Y5.6344
G01 X21.3826 Y4.2919
G01 X16.9665 Y4.2920
G01 X16.9665 Y8.9928
G01 X16.9648 Y9.0264
G01 X16.9597 Y9.0608
G01 X16.9513 Y9.0946
G01 X16.9395 Y9.1274
G01 X16.9246 Y9.1589
G01 X16.9079 Y9.1870
G01 X16.8873 Y9.2152
G01 X16.8649 Y9.2402
G01 X16.8384 Y9.2646
G01 X16.8105 Y9.2856
G01 X16.7808 Y9.3036
G01 X16.7494 Y9.3187
G01 X16.7166 Y9.3307
G01 X16.6829 Y9.3393
G01 X16.6485 Y9.3446
G01 X16.6149 Y9.3465
G01 X12.5344 Y9.3707
G01 X12.5179 Y9.4163
G01 X12.4741 Y9.5086
G01 X12.4222 Y9.5951
G01 X12.3622 Y9.6762
G01 X12.2928 Y9.7528
G01 X12.2190 Y9.8198
G01 X12.1341 Y9.8829
G01 X12.0475 Y9.9347
G01 X11.9552 Y9.9784
G01 X11.8591 Y10.0128
G01 X11.7624 Y10.0371
G01 X11.6565 Y10.0528
G01 X11.5570 Y10.0576
G01 X11.4550 Y10.0526
G01 X11.3540 Y10.0376
G01 X11.2549 Y10.0128
G01 X11.1588 Y9.9784
G01 X11.0687 Y9.9358
G01 X10.9769 Y9.8808
G01 X10.8969 Y9.8214
G01 X10.8212 Y9.7528
G01 X10.7526 Y9.6771
G01 X10.6932 Y9.5971
G01 X10.6382 Y9.5053
G01 X10.5956 Y9.4152
G01 X10.5612 Y9.3191
G01 X10.5364 Y9.2200
G01 X10.5214 Y9.1190
G01 X10.5164 Y9.0170
G01 X10.5212 Y8.9175
G01 X10.5369 Y8.8116
G01 X10.5612 Y8.7149
G01 X10.5956 Y8.6188
G01 X10.6393 Y8.5265
G01 X10.6918 Y8.4389
G01 X10.7526 Y8.3569
G01 X10.8195 Y8.2830
G01 X10.8988 Y8.2111
G01 X10.9789 Y8.1518
G01 X11.0665 Y8.0993
G01 X11.1588 Y8.0556
G01 X11.2549 Y8.0212
G01 X11.3540 Y7.9964
G01 X11.4550 Y7.9814
G01 X11.5570 Y7.9764
G01 X11.6590 Y7.9814
G01 X11.7600 Y7.9964
G01 X11.8591 Y8.0212
G01 X11.9552 Y8.0556
G01 X12.0464 Y8.0987
G01 X12.1351 Y8.1518
G01 X12.2171 Y8.2126
G01 X12.2928 Y8.2812
G01 X12.3606 Y8.3559
G01 X12.4222 Y8.4389
G01 X12.4741 Y8.5254
G01 X12.5179 Y8.6177
G01 X12.5335 Y8.6608
G01 X16.2567 Y8.6387
G01 X16.2566 Y4.2919
G01 X4.9139 Y4.2920
G01 X4.8979 Y4.3363
G01 X4.8541 Y4.4286
G01 X4.8022 Y4.5151
G01 X4.7422 Y4.5962
G01 X4.6710 Y4.6745
G01 X4.5971 Y4.7414
G01 X4.5161 Y4.8015
G01 X4.4253 Y4.8558
G01 X4.3352 Y4.8984
G01 X4.2391 Y4.9328
G01 X4.1376 Y4.9580
G01 X4.0390 Y4.9726
G01 X3.9370 Y4.9776
G01 X3.8350 Y4.9726
G01 X3.7364 Y4.9580
G01 X3.6349 Y4.9328
G01 X3.5388 Y4.8984
G01 X3.4487 Y4.8558
G01 X3.3589 Y4.8022
G01 X3.2769 Y4.7414
G01 X3.2030 Y4.6745
G01 X3.1326 Y4.5971
G01 X3.0718 Y4.5151
G01 X3.0205 Y4.4297
G01 X2.9752 Y4.3341
G01 X2.9412 Y4.2391
G01 X2.9164 Y4.1400
G01 X2.9014 Y4.0390
G01 X2.8964 Y3.9370
G01 X2.9014 Y3.8350
G01 X2.9164 Y3.7340
G01 X2.9412 Y3.6349
G01 X2.9756 Y3.5388
G01 X3.0193 Y3.4465
G01 X3.0718 Y3.3589
G01 X3.1326 Y3.2769
G01 X3.2012 Y3.2012
G01 X3.2769 Y3.1326
G01 X3.3589 Y3.0718
G01 X3.4465 Y3.0193
G01 X3.5399 Y2.9752
G01 X3.6349 Y2.9412
G01 X3.7340 Y2.9164
G01 X3.8350 Y2.9014
G01 X3.9370 Y2.8964
G01 X4.0390 Y2.9014
G01 X4.1400 Y2.9164
G01 X4.2391 Y2.9412
G01 X4.3363 Y2.9761
G01 X4.4275 Y3.0193
G01 X4.5151 Y3.0718
G01 X4.5971 Y3.1326
G01 X4.6737 Y3.2021
G01 X4.7414 Y3.2769
G01 X4.8029 Y3.3599
G01 X4.8553 Y3.4476
G01 X4.8979 Y3.5377
G01 X4.9139 Y3.5821
G00 Z2.0000
G00 X4.2558 Y5.2070
G01 F60.00
G01 Z-0.0000
G01 F120.00
G01 X4.3023 Y5.1954
G01 X4.3249 Y5.1888
G01 X4.4313 Y5.1508
G01 X4.4529 Y5.1415
G01 X4.5478 Y5.0965
G01 X4.5685 Y5.0851
G01 X4.6519 Y5.0351
G01 X4.6651 Y5.0267
G01 X4.6780 Y5.0177
G01 X4.7623 Y4.9550
G01 X4.7803 Y4.9398
G01 X4.8524 Y4.8746
G01 X4.8637 Y4.8637
G01 X4.8746 Y4.8524
G01 X4.9398 Y4.7803
G01 X4.9501 Y4.7684
G01 X4.9598 Y4.7561
G01 X5.0177 Y4.6780
G01 X5.0267 Y4.6651
G01 X5.0351 Y4.6519
G01 X5.0889 Y4.5620
G01 X15.9866 Y4.5619
G01 X15.9866 Y8.3703
G01 X12.7076 Y8.3897
G01 X12.6551 Y8.3021
G01 X12.6467 Y8.2889
G01 X12.6377 Y8.2760
G01 X12.5798 Y8.1979
G01 X12.5701 Y8.1856
G01 X12.5598 Y8.1737
G01 X12.4946 Y8.1016
G01 X12.4837 Y8.0903
G01 X12.4724 Y8.0794
G01 X12.4003 Y8.0142
G01 X12.3823 Y7.9990
G01 X12.2980 Y7.9363
G01 X12.2851 Y7.9273
G01 X12.2719 Y7.9189
G01 X12.1885 Y7.8689
G01 X12.1678 Y7.8575
G01 X12.0729 Y7.8125
G01 X12.0513 Y7.8032
G01 X11.9449 Y7.7652
G01 X11.9223 Y7.7586
G01 X11.8758 Y7.7470
G01 X11.9223 Y7.7354
G01 X11.9449 Y7.7288
G01 X12.0439 Y7.6935
G01 X12.0658 Y7.6847
G01 X12.1608 Y7.6399
G01 X12.1748 Y7.6328
G01 X12.1885 Y7.6251
G01 X12.2785 Y7.5710
G01 X12.2980 Y7.5577
G01 X12.3761 Y7.4998
G01 X12.3884 Y7.4901
G01 X12.4003 Y7.4798
G01 X12.4724 Y7.4146
G01 X12.4837 Y7.4037
G01 X12.4946 Y7.3924
G01 X12.5598 Y7.3203
G01 X12.5750 Y7.3023
G01 X12.6377 Y7.2180
G01 X12.6467 Y7.2051
G01 X12.6551 Y7.1919
G01 X12.7051 Y7.1085
G01 X12.7128 Y7.0948
G01 X12.7199 Y7.0808
G01 X12.7615 Y6.9929
G01 X12.7678 Y6.9785
G01 X12.7735 Y6.9639
G01 X12.8062 Y6.8724
G01 X12.8112 Y6.8574
G01 X12.8154 Y6.8423
G01 X12.8390 Y6.7480
G01 X12.8424 Y6.7327
G01 X12.8451 Y6.7172
G01 X12.8594 Y6.6210
G01 X12.8613 Y6.6055
G01 X12.8624 Y6.5898
G01 X12.8675 Y6.4849
G01 X12.8672 Y6.4613
G01 X12.8624 Y6.3642
G01 X12.8613 Y6.3485
G01 X12.8594 Y6.3330
G01 X12.8451 Y6.2368
G01 X12.8424 Y6.2213
G01 X12.8390 Y6.2060
G01 X12.8154 Y6.1117
G01 X12.8112 Y6.0966
G01 X12.8062 Y6.0816
G01 X12.7735 Y5.9901
G01 X12.7678 Y5.9755
G01 X12.7615 Y5.9611
G01 X12.7199 Y5.8732
G01 X12.7128 Y5.8592
G01 X12.7051 Y5.8455
G01 X12.6551 Y5.7621
G01 X12.6467 Y5.7489
G01 X12.6377 Y5.7360
G01 X12.5798 Y5.6579
G01 X12.5701 Y5.6456
G01 X12.5598 Y5.6337
G01 X12.4946 Y5.5616
G01 X12.4837 Y5.5503
G01 X12.4724 Y5.5394
G01 X12.4003 Y5.4742
G01 X12.3884 Y5.4639
G01 X12.3761 Y5.4542
G01 X12.2980 Y5.3963
G01 X12.2851 Y5.3873
G01 X12.2719 Y5.3789
G01 X12.1885 Y5.3289
G01 X12.1748 Y5.3212
G01 X12.1608 Y5.3141
G01 X12.0729 Y5.2725
G01 X12.0585 Y5.2662
G01 X12.0439 Y5.2605
G01 X11.9524 Y5.2278
G01 X11.9299 Y5.2206
G01 X11.8280 Y5.1950
G01 X11.8127 Y5.1916
G01 X11.7972 Y5.1889
G01 X11.7010 Y5.1746
G01 X11.6855 Y5.1727
G01 X11.6698 Y5.1716
G01 X11.5727 Y5.1668
G01 X11.5570 Y5.1664
G01 X11.5413 Y5.1668
G01 X11.4442 Y5.1716
G01 X11.4285 Y5.1727
G01 X11.4130 Y5.1746
G01 X11.3168 Y5.1889
G01 X11.3013 Y5.1916
G01 X11.2860 Y5.1950
G01 X11.1917 Y5.2186
G01 X11.1766 Y5.2228
G01 X11.1616 Y5.2278
G01 X11.0701 Y5.2605
G01 X11.0555 Y5.2662
G01 X11.0411 Y5.2725
G01 X10.9532 Y5.3141
G01 X10.9392 Y5.3212
G01 X10.9255 Y5.3289
G01 X10.8421 Y5.3789
G01 X10.8289 Y5.3873
G01 X10.8160 Y5.3963
G01 X10.7379 Y5.4542
G01 X10.7256 Y5.4639
G01 X10.7137 Y5.4742
G01 X10.6416 Y5.5394
G01 X10.6303 Y5.5503
G01 X10.6194 Y5.5616
G01 X10.5542 Y5.6337
G01 X10.5439 Y5.6456
G01 X10.5342 Y5.6579
G01 X10.4763 Y5.7360
G01 X10.4673 Y5.7489
G01 X10.4589 Y5.7621
G01 X10.4064 Y5.8497
G01 X6.5029 Y5.8267
G01 X5.0857 Y5.8465
G01 X5.0351 Y5.7621
G01 X5.0267 Y5.7489
G01 X5.0177 Y5.7360
G01 X4.9598 Y5.6579
G01 X4.9501 Y5.6456
G01 X4.9398 Y5.6337
G01 X4.8746 Y5.5616
G01 X4.8637 Y5.5503
G01 X4.8524 Y5.5394
G01 X4.7803 Y5.4742
G01 X4.7623 Y5.4590
G01 X4.6780 Y5.3963
G01 X4.6651 Y5.3873
G01 X4.6519 Y5.3789
G01 X4.5685 Y5.3289
G01 X4.5478 Y5.3175
G01 X4.4529 Y5.2725
G01 X4.4313 Y5.2632
G01 X4.3249 Y5.2252
G01 X4.3023 Y5.2186
G01 X4.2558 Y5.2070
G00 Z2.0000
G00 X3.5820 Y7.4539
G01 F60.00
G01 Z-0.0000
G01 F120.00
G01 X3.5377 Y7.4379
G01 X3.4454 Y7.3941
G01 X3.3589 Y7.3422
G01 X3.2778 Y7.2822
G01 X3.2012 Y7.2128
G01 X3.1342 Y7.1390
G01 X3.0711 Y7.0541
G01 X3.0193 Y6.9675
G01 X2.9756 Y6.8752
G01 X2.9412 Y6.7791
G01 X2.9169 Y6.6824
G01 X2.9012 Y6.5765
G01 X2.8964 Y6.4770
G01 X2.9015 Y6.3738
G01 X2.9164 Y6.2740
G01 X2.9412 Y6.1749
G01 X2.9756 Y6.0788
G01 X3.0182 Y5.9887
G01 X3.0732 Y5.8969
G01 X3.1326 Y5.8169
G01 X3.2012 Y5.7412
G01 X3.2769 Y5.6726
G01 X3.3569 Y5.6132
G01 X3.4487 Y5.5582
G01 X3.5388 Y5.5156
G01 X3.6349 Y5.4812
G01 X3.7340 Y5.4564
G01 X3.8338 Y5.4415
G01 X3.9370 Y5.4364
G01 X4.0365 Y5.4412
G01 X4.1424 Y5.4569
G01 X4.2391 Y5.4812
G01 X4.3352 Y5.5156
G01 X4.4275 Y5.5593
G01 X4.5141 Y5.6111
G01 X4.5971 Y5.6726
G01 X4.6710 Y5.7395
G01 X4.7422 Y5.8178
G01 X4.8022 Y5.8989
G01 X4.8541 Y5.9854
G01 X4.8979 Y6.0777
G01 X4.9128 Y6.1190
G01 X6.5045 Y6.0967
G01 X10.5805 Y6.1208
G01 X10.5961 Y6.0777
G01 X10.6399 Y5.9854
G01 X10.6918 Y5.8989
G01 X10.7518 Y5.8178
G01 X10.8212 Y5.7412
G01 X10.8950 Y5.6742
G01 X10.9799 Y5.6111
G01 X11.0665 Y5.5593
G01 X11.1588 Y5.5156
G01 X11.2549 Y5.4812
G01 X11.3516 Y5.4569
G01 X11.4575 Y5.4412
G01 X11.5570 Y5.4364
G01 X11.6590 Y5.4414
G01 X11.7600 Y5.4564
G01 X11.8591 Y5.4812
G01 X11.9552 Y5.5156
G01 X12.0453 Y5.5582
G01 X12.1371 Y5.6132
G01 X12.2171 Y5.6726
G01 X12.2928 Y5.7412
G01 X12.3614 Y5.8169
G01 X12.4208 Y5.8969
G01 X12.4758 Y5.9887
G01 X12.5184 Y6.0788
G01 X12.5528 Y6.1749
G01 X12.5776 Y6.2740
G01 X12.5925 Y6.3738
G01 X12.5976 Y6.4770
G01 X12.5926 Y6.5790
G01 X12.5776 Y6.6800
G01 X12.5528 Y6.7791
G01 X12.5184 Y6.8752
G01 X12.4747 Y6.9675
G01 X12.4222 Y7.0551
G01 X12.3614 Y7.1371
G01 X12.2928 Y7.2128
G01 X12.2171 Y7.2814
G01 X12.1351 Y7.3422
G01 X12.0475 Y7.3947
G01 X11.9552 Y7.4384
G01 X11.8591 Y7.4728
G01 X11.7600 Y7.4976
G01 X11.6602 Y7.5125
G01 X11.5570 Y7.5176
G01 X11.4575 Y7.5128
G01 X11.3516 Y7.4971
G01 X11.2549 Y7.4728
G01 X11.1588 Y7.4384
G01 X11.0665 Y7.3947
G01 X10.9799 Y7.3429
G01 X10.8950 Y7.2798
G01 X10.8212 Y7.2128
G01 X10.7518 Y7.1362
G01 X10.6918 Y7.0551
G01 X10.6399 Y6.9686
G01 X10.5961 Y6.8763
G01 X10.5796 Y6.8307
G01 X6.5038 Y6.8066
G01 X4.9150 Y6.8289
G01 X4.8979 Y6.8763
G01 X4.8553 Y6.9664
G01 X4.8029 Y7.0541
G01 X4.7414 Y7.1371
G01 X4.6728 Y7.2128
G01 X4.5971 Y7.2814
G01 X4.5141 Y7.3429
G01 X4.4264 Y7.3953
G01 X4.3363 Y7.4379
G01 X4.2919 Y7.4539
G01 X4.2920 Y16.2821
G01 X9.0174 Y16.2821
G01 X28.9611 Y16.3070
G01 X28.9799 Y14.9376
G01 X28.9063 Y14.9027
G01 X28.8294 Y14.8566
G01 X28.7574 Y14.8032
G01 X28.6928 Y14.7447
G01 X28.6293 Y14.6746
G01 X28.5774 Y14.6046
G01 X28.5325 Y14.5298
G01 X28.4921 Y14.4443
G01 X28.4627 Y14.3622
G01 X28.4410 Y14.2752
G01 X28.4278 Y14.1865
G01 X28.4235 Y14.0995
G01 X28.4279 Y14.0062
G01 X28.4410 Y13.9188
G01 X28.4627 Y13.8318
G01 X28.4929 Y13.7474
G01 X28.5313 Y13.6663
G01 X28.5774 Y13.5894
G01 X28.6308 Y13.5174
G01 X28.6910 Y13.4510
G01 X28.7556 Y13.3924
G01 X28.8294 Y13.3374
G01 X28.9042 Y13.2925
G01 X28.9897 Y13.2521
G01 X29.0718 Y13.2227
G01 X29.1588 Y13.2010
G01 X29.2475 Y13.1878
G01 X29.3370 Y13.1834
G01 X29.4265 Y13.1878
G01 X29.5152 Y13.2010
G01 X29.6022 Y13.2227
G01 X29.6843 Y13.2521
G01 X29.7677 Y13.2913
G01 X29.8425 Y13.3361
G01 X29.9184 Y13.3924
G01 X29.9830 Y13.4510
G01 X30.0432 Y13.5174
G01 X30.0966 Y13.5894
G01 X30.1427 Y13.6663
G01 X30.1811 Y13.7474
G01 X30.2113 Y13.8318
G01 X30.2330 Y13.9188
G01 X30.2462 Y14.0075
G01 X30.2505 Y14.0995
G01 X30.2462 Y14.1865
G01 X30.2330 Y14.2752
G01 X30.2113 Y14.3622
G01 X30.1819 Y14.4443
G01 X30.1415 Y14.5298
G01 X30.0966 Y14.6046
G01 X30.0447 Y14.6746
G01 X29.9812 Y14.7447
G01 X29.9166 Y14.8032
G01 X29.8446 Y14.8566
G01 X29.7677 Y14.9027
G01 X29.6899 Y14.9396
G01 X29.6717 Y16.2821
G01 X41.6590 Y16.2820
G01 X41.7051 Y9.3486
G01 X37.9344 Y9.3707
G01 X37.9179 Y9.4163
G01 X37.8741 Y9.5086
G01 X37.8222 Y9.5951
G01 X37.7606 Y9.6781
G01 X37.6928 Y9.7528
G01 X37.6171 Y9.8214
G01 X37.5351 Y9.8822
G01 X37.4464 Y9.9353
G01 X37.3552 Y9.9784
G01 X37.2591 Y10.0128
G01 X37.1600 Y10.0376
G01 X37.0590 Y10.0526
G01 X36.9570 Y10.0576
G01 X36.8550 Y10.0526
G01 X36.7540 Y10.0376
G01 X36.6561 Y10.0131
G01 X36.5588 Y9.9784
G01 X36.4687 Y9.9358
G01 X36.3769 Y9.8808
G01 X36.2969 Y9.8214
G01 X36.2212 Y9.7528
G01 X36.1526 Y9.6771
G01 X36.0918 Y9.5951
G01 X36.0393 Y9.5075
G01 X35.9956 Y9.4152
G01 X35.9612 Y9.3191
G01 X35.9369 Y9.2224
G01 X35.9212 Y9.1165
G01 X35.9164 Y9.0170
G01 X35.9217 Y8.9126
G01 X35.9364 Y8.8140
G01 X35.9612 Y8.7149
G01 X35.9956 Y8.6188
G01 X36.0393 Y8.5265
G01 X36.0918 Y8.4389
G01 X36.1526 Y8.3569
G01 X36.2212 Y8.2812
G01 X36.2950 Y8.2142
G01 X36.3809 Y8.1505
G01 X36.4665 Y8.0993
G01 X36.5611 Y8.0547
G01 X36.6549 Y8.0212
G01 X36.7540 Y7.9964
G01 X36.8550 Y7.9814
G01 X36.9570 Y7.9764
G01 X37.0614 Y7.9817
G01 X37.1600 Y7.9964
G01 X37.2591 Y8.0212
G01 X37.3552 Y8.0556
G01 X37.4453 Y8.0982
G01 X37.5361 Y8.1525
G01 X37.6171 Y8.2126
G01 X37.6910 Y8.2795
G01 X37.7622 Y8.3578
G01 X37.8222 Y8.4389
G01 X37.8741 Y8.5254
G01 X37.9179 Y8.6177
G01 X37.9335 Y8.6608
G01 X42.0660 Y8.6367
G01 X42.0939 Y8.6381
G01 X42.1020 Y8.6389
G01 X42.1340 Y8.6439
G01 X42.1623 Y8.6510
G01 X42.1689 Y8.6530
G01 X42.1963 Y8.6629
G01 X42.2026 Y8.6656
G01 X42.2318 Y8.6797
G01 X42.2568 Y8.6947
G01 X42.2636 Y8.6992
G01 X42.2894 Y8.7187
G01 X42.3110 Y8.7383
G01 X42.3167 Y8.7441
G01 X42.3383 Y8.7683
G01 X42.3557 Y8.7917
G01 X42.3595 Y8.7974
G01 X42.3765 Y8.8264
G01 X42.3890 Y8.8527
G01 X42.3921 Y8.8602
G01 X42.4027 Y8.8908
G01 X42.4099 Y8.9191
G01 X42.4114 Y8.9271
G01 X42.4159 Y8.9592
G01 X42.4173 Y8.9895
G01 X42.3665 Y16.6394
G01 X42.3646 Y16.6741
G01 X42.3590 Y16.7098
G01 X42.3506 Y16.7423
G01 X42.3395 Y16.7728
G01 X42.3246 Y16.8043
G01 X42.3080 Y16.8321
G01 X42.3040 Y16.8382
G01 X42.2867 Y16.8612
G01 X42.2829 Y16.8658
G01 X42.2609 Y16.8896
G01 X42.2349 Y16.9129
G01 X42.2068 Y16.9334
G01 X42.1789 Y16.9500
G01 X42.1474 Y16.9649
G01 X42.1170 Y16.9759
G01 X42.1100 Y16.9780
G01 X42.0820 Y16.9849
G01 X42.0761 Y16.9860
G01 X42.0440 Y16.9905
G01 X42.0116 Y16.9919
G01 X29.4434 Y16.9920
G01 X29.4142 Y17.0022
G01 X29.3804 Y17.0106
G01 X29.3459 Y17.0157
G01 X29.3112 Y17.0173
G01 X9.0168 Y16.9919
G01 X3.9370 Y16.9919
G01 X3.9022 Y16.9902
G01 X3.8654 Y16.9846
G01 X3.8340 Y16.9767
G01 X3.8012 Y16.9649
G01 X3.7697 Y16.9500
G01 X3.7419 Y16.9334
G01 X3.7100 Y16.9098
G01 X3.6860 Y16.8880
G01 X3.6626 Y16.8622
G01 X3.6419 Y16.8342
G01 X3.6252 Y16.8065
G01 X3.6082 Y16.7705
G01 X3.5973 Y16.7400
G01 X3.5889 Y16.7062
G01 X3.5838 Y16.6718
G01 X3.5821 Y16.6382
G01 X3.5820 Y7.4539
G00 Z2.0000
G00 X3.4920 Y7.5159
G01 F60.00
G01 Z-0.0000
G01 F120.00
G01 X3.4040 Y7.4741
G01 X3.3089 Y7.4171
G01 X3.2198 Y7.3510
G01 X3.1425 Y7.2812
G01 X3.1328 Y7.2715
G01 X3.0675 Y7.1994
G01 X3.0588 Y7.1888
G01 X2.9969 Y7.1051
G01 X2.9399 Y7.0100
G01 X2.8925 Y6.9097
G01 X2.8572 Y6.8117
G01 X2.8533 Y6.7986
G01 X2.8296 Y6.7043
G01 X2.8270 Y6.6908
G01 X2.8118 Y6.5878
G01 X2.8064 Y6.4770
G01 X2.8118 Y6.3662
G01 X2.8270 Y6.2632
G01 X2.8296 Y6.2497
G01 X2.8533 Y6.1554
G01 X2.8572 Y6.1423
G01 X2.8925 Y6.0443
G01 X2.9399 Y5.9440
G01 X2.9969 Y5.8489
G01 X3.0588 Y5.7652
G01 X3.0675 Y5.7546
G01 X3.1328 Y5.6825
G01 X3.1425 Y5.6728
G01 X3.2198 Y5.6030
G01 X3.3089 Y5.5369
G01 X3.4040 Y5.4799
G01 X3.4981 Y5.4352
G01 X3.5108 Y5.4300
G01 X3.6023 Y5.3972
G01 X3.6154 Y5.3933
G01 X3.7164 Y5.3681
G01 X3.8228 Y5.3522
G01 X3.8330 Y5.3513
G01 X3.9301 Y5.3466
G01 X3.9439 Y5.3466
G01 X4.0478 Y5.3518
G01 X4.1576 Y5.3681
G01 X4.2652 Y5.3951
G01 X4.3632 Y5.4300
G01 X4.3759 Y5.4352
G01 X4.4638 Y5.4768
G01 X4.4759 Y5.4833
G01 X4.5651 Y5.5369
G01 X4.6488 Y5.5988
G01 X4.6594 Y5.6075
G01 X4.7315 Y5.6728
G01 X4.7412 Y5.6825
G01 X4.8110 Y5.7598
G01 X4.8771 Y5.8489
G01 X4.9341 Y5.9440
G01 X4.9741 Y6.0281
G01 X6.5050 Y6.0067
G01 X10.5189 Y6.0304
G01 X10.5599 Y5.9440
G01 X10.6169 Y5.8489
G01 X10.6830 Y5.7598
G01 X10.7528 Y5.6825
G01 X10.7625 Y5.6728
G01 X10.8346 Y5.6075
G01 X10.8452 Y5.5988
G01 X10.9289 Y5.5369
G01 X11.0181 Y5.4833
G01 X11.0302 Y5.4768
G01 X11.1181 Y5.4352
G01 X11.1308 Y5.4300
G01 X11.2288 Y5.3951
G01 X11.3364 Y5.3681
G01 X11.4462 Y5.3518
G01 X11.5501 Y5.3466
G01 X11.5639 Y5.3466
G01 X11.6610 Y5.3513
G01 X11.6712 Y5.3522
G01 X11.7776 Y5.3681
G01 X11.8852 Y5.3951
G01 X11.9897 Y5.4325
G01 X12.0838 Y5.4768
G01 X12.0959 Y5.4833
G01 X12.1793 Y5.5333
G01 X12.1907 Y5.5409
G01 X12.2742 Y5.6030
G01 X12.3565 Y5.6775
G01 X12.4310 Y5.7598
G01 X12.4931 Y5.8433
G01 X12.5007 Y5.8547
G01 X12.5507 Y5.9381
G01 X12.5572 Y5.9502
G01 X12.6015 Y6.0443
G01 X12.6389 Y6.1488
G01 X12.6659 Y6.2564
G01 X12.6818 Y6.3628
G01 X12.6827 Y6.3730
G01 X12.6876 Y6.4770
G01 X12.6822 Y6.5878
G01 X12.6659 Y6.6976
G01 X12.6389 Y6.8052
G01 X12.6015 Y6.9097
G01 X12.5541 Y7.0100
G01 X12.4971 Y7.1051
G01 X12.4310 Y7.1942
G01 X12.3565 Y7.2765
G01 X12.2742 Y7.3510
G01 X12.1851 Y7.4171
G01 X12.0900 Y7.4741
G01 X11.9897 Y7.5215
G01 X11.8852 Y7.5589
G01 X11.7776 Y7.5859
G01 X11.6746 Y7.6013
G01 X11.6610 Y7.6027
G01 X11.5639 Y7.6074
G01 X11.5501 Y7.6074
G01 X11.4462 Y7.6022
G01 X11.3364 Y7.5859
G01 X11.2288 Y7.5589
G01 X11.1308 Y7.5240
G01 X11.1181 Y7.5188
G01 X11.0302 Y7.4772
G01 X11.0181 Y7.4707
G01 X10.9289 Y7.4171
G01 X10.8452 Y7.3552
G01 X10.8346 Y7.3465
G01 X10.7625 Y7.2812
G01 X10.7528 Y7.2715
G01 X10.6830 Y7.1942
G01 X10.6169 Y7.1051
G01 X10.5599 Y7.0100
G01 X10.5173 Y6.9203
G01 X6.5042 Y6.8966
G01 X4.9777 Y6.9181
G01 X4.9341 Y7.0100
G01 X4.8771 Y7.1051
G01 X4.8110 Y7.1942
G01 X4.7365 Y7.2765
G01 X4.6542 Y7.3510
G01 X4.5651 Y7.4171
G01 X4.4700 Y7.4741
G01 X4.3819 Y7.5159
G01 X4.3820 Y16.1921
G01 X9.0176 Y16.1921
G01 X28.8724 Y16.2169
G01 X28.8891 Y14.9942
G01 X28.8700 Y14.9852
G01 X28.8609 Y14.9804
G01 X28.7852 Y14.9351
G01 X28.7766 Y14.9295
G01 X28.7003 Y14.8728
G01 X28.6298 Y14.8091
G01 X28.6226 Y14.8017
G01 X28.5612 Y14.7337
G01 X28.5065 Y14.6602
G01 X28.4989 Y14.6488
G01 X28.4553 Y14.5761
G01 X28.4503 Y14.5670
G01 X28.4098 Y14.4811
G01 X28.3788 Y14.3949
G01 X28.3748 Y14.3817
G01 X28.3542 Y14.2995
G01 X28.3515 Y14.2860
G01 X28.3382 Y14.1954
G01 X28.3334 Y14.0970
G01 X28.3382 Y13.9986
G01 X28.3515 Y13.9080
G01 X28.3542 Y13.8945
G01 X28.3748 Y13.8123
G01 X28.3788 Y13.7991
G01 X28.4098 Y13.7129
G01 X28.4488 Y13.6300
G01 X28.4553 Y13.6179
G01 X28.5025 Y13.5394
G01 X28.5612 Y13.4603
G01 X28.6273 Y13.3873
G01 X28.7003 Y13.3212
G01 X28.7794 Y13.2625
G01 X28.8579 Y13.2153
G01 X28.8700 Y13.2088
G01 X28.9467 Y13.1726
G01 X28.9594 Y13.1673
G01 X29.0457 Y13.1366
G01 X29.1412 Y13.1127
G01 X29.2386 Y13.0982
G01 X29.3370 Y13.0934
G01 X29.4354 Y13.0982
G01 X29.5328 Y13.1127
G01 X29.6283 Y13.1366
G01 X29.7146 Y13.1673
G01 X29.7273 Y13.1726
G01 X29.8101 Y13.2119
G01 X29.8888 Y13.2589
G01 X29.9002 Y13.2665
G01 X29.9683 Y13.3170
G01 X29.9789 Y13.3257
G01 X30.0467 Y13.3873
G01 X30.1128 Y13.4603
G01 X30.1715 Y13.5394
G01 X30.2221 Y13.6239
G01 X30.2642 Y13.7129
G01 X30.2974 Y13.8057
G01 X30.3213 Y13.9012
G01 X30.3349 Y13.9918
G01 X30.3363 Y14.0055
G01 X30.3404 Y14.0901
G01 X30.3404 Y14.1039
G01 X30.3358 Y14.1954
G01 X30.3213 Y14.2928
G01 X30.2974 Y14.3883
G01 X30.2667 Y14.4746
G01 X30.2614 Y14.4873
G01 X30.2252 Y14.5640
G01 X30.2204 Y14.5731
G01 X30.1715 Y14.6546
G01 X30.1170 Y14.7283
G01 X30.1083 Y14.7389
G01 X30.0514 Y14.8017
G01 X30.0442 Y14.8091
G01 X29.9737 Y14.8728
G01 X29.8974 Y14.9295
G01 X29.8888 Y14.9351
G01 X29.8131 Y14.9804
G01 X29.8040 Y14.9852
G01 X29.7791 Y14.9969
G01 X29.7629 Y16.1921
G01 X41.5696 Y16.1920
G01 X41.6145 Y9.4392
G01 X37.9967 Y9.4603
G01 X37.9541 Y9.5500
G01 X37.8971 Y9.6451
G01 X37.8310 Y9.7342
G01 X37.7565 Y9.8165
G01 X37.6742 Y9.8910
G01 X37.5851 Y9.9571
G01 X37.4900 Y10.0141
G01 X37.3959 Y10.0588
G01 X37.3832 Y10.0640
G01 X37.2917 Y10.0968
G01 X37.2786 Y10.1007
G01 X37.1776 Y10.1259
G01 X37.0746 Y10.1413
G01 X37.0610 Y10.1427
G01 X36.9570 Y10.1476
G01 X36.8462 Y10.1422
G01 X36.7364 Y10.1259
G01 X36.6354 Y10.1007
G01 X36.6255 Y10.0979
G01 X36.5243 Y10.0615
G01 X36.4240 Y10.0141
G01 X36.3289 Y9.9571
G01 X36.2452 Y9.8952
G01 X36.2346 Y9.8865
G01 X36.1625 Y9.8212
G01 X36.1528 Y9.8115
G01 X36.0830 Y9.7342
G01 X36.0209 Y9.6507
G01 X36.0133 Y9.6393
G01 X35.9599 Y9.5500
G01 X35.9125 Y9.4497
G01 X35.8751 Y9.3452
G01 X35.8481 Y9.2376
G01 X35.8318 Y9.1278
G01 X35.8264 Y9.0170
G01 X35.8318 Y8.9062
G01 X35.8470 Y8.8032
G01 X35.8496 Y8.7897
G01 X35.8751 Y8.6888
G01 X35.9100 Y8.5908
G01 X35.9152 Y8.5781
G01 X35.9568 Y8.4902
G01 X35.9633 Y8.4781
G01 X36.0169 Y8.3889
G01 X36.0830 Y8.2998
G01 X36.1575 Y8.2175
G01 X36.2398 Y8.1430
G01 X36.3289 Y8.0769
G01 X36.4240 Y8.0199
G01 X36.5243 Y7.9725
G01 X36.6223 Y7.9372
G01 X36.6354 Y7.9333
G01 X36.7297 Y7.9096
G01 X36.7432 Y7.9070
G01 X36.8462 Y7.8918
G01 X36.9501 Y7.8866
G01 X36.9604 Y7.8864
G01 X37.0678 Y7.8918
G01 X37.1708 Y7.9070
G01 X37.1843 Y7.9096
G01 X37.2852 Y7.9351
G01 X37.3832 Y7.9700
G01 X37.3959 Y7.9752
G01 X37.4900 Y8.0199
G01 X37.5851 Y8.0769
G01 X37.6688 Y8.1388
G01 X37.6794 Y8.1475
G01 X37.7565 Y8.2175
G01 X37.8310 Y8.2998
G01 X37.8931 Y8.3833
G01 X37.9007 Y8.3947
G01 X37.9541 Y8.4840
G01 X37.9951 Y8.5704
G01 X42.0688 Y8.5467
G01 X42.1000 Y8.5483
G01 X42.1158 Y8.5500
G01 X42.1433 Y8.5541
G01 X42.1521 Y8.5558
G01 X42.1858 Y8.5641
G01 X42.1977 Y8.5677
G01 X42.2303 Y8.5795
G01 X42.2417 Y8.5845
G01 X42.2668 Y8.5964
G01 X42.2748 Y8.6006
G01 X42.3045 Y8.6183
G01 X42.3176 Y8.6273
G01 X42.3400 Y8.6439
G01 X42.3470 Y8.6495
G01 X42.3727 Y8.6728
G01 X42.3838 Y8.6841
G01 X42.4025 Y8.7047
G01 X42.4082 Y8.7116
G01 X42.4289 Y8.7394
G01 X42.4359 Y8.7498
G01 X42.4519 Y8.7766
G01 X42.4562 Y8.7845
G01 X42.4711 Y8.8158
G01 X42.4770 Y8.8305
G01 X42.4864 Y8.8567
G01 X42.4890 Y8.8653
G01 X42.4976 Y8.8989
G01 X42.5005 Y8.9145
G01 X42.5045 Y8.9420
G01 X42.5055 Y8.9509
G01 X42.5073 Y8.9890
G01 X42.4565 Y16.6400
G01 X42.4542 Y16.6831
G01 X42.4492 Y16.7170
G01 X42.4467 Y16.7298
G01 X42.4367 Y16.7685
G01 X42.4225 Y16.8077
G01 X42.4038 Y16.8472
G01 X42.3852 Y16.8784
G01 X42.3759 Y16.8922
G01 X42.3576 Y16.9168
G01 X42.3491 Y16.9267
G01 X42.3245 Y16.9534
G01 X42.2919 Y16.9825
G01 X42.2584 Y17.0072
G01 X42.2242 Y17.0279
G01 X42.2159 Y17.0323
G01 X42.1882 Y17.0453
G01 X42.1727 Y17.0516
G01 X42.1384 Y17.0635
G01 X42.0960 Y17.0739
G01 X42.0547 Y17.0799
G01 X42.0116 Y17.0819
G01 X29.4587 Y17.0820
G01 X29.4435 Y17.0873
G01 X29.4317 Y17.0908
G01 X29.4012 Y17.0982
G01 X29.3891 Y17.1005
G01 X29.3581 Y17.1049
G01 X29.3492 Y17.1058
G01 X29.3110 Y17.1073
G01 X9.0167 Y17.0819
G01 X3.9370 Y17.0819
G01 X3.8934 Y17.0798
G01 X3.8570 Y17.0746
G01 X3.8468 Y17.0727
G01 X3.8078 Y17.0628
G01 X3.7667 Y17.0481
G01 X3.7273 Y17.0294
G01 X3.6956 Y17.0106
G01 X3.6870 Y17.0050
G01 X3.6797 Y16.9997
G01 X3.6574 Y16.9831
G01 X3.6495 Y16.9765
G01 X3.6224 Y16.9516
G01 X3.5930 Y16.9193
G01 X3.5670 Y16.8842
G01 X3.5480 Y16.8527
G01 X3.5415 Y16.8406
G01 X3.5273 Y16.8104
G01 X3.5234 Y16.8009
G01 X3.5112 Y16.7662
G01 X3.5006 Y16.7238
G01 X3.4942 Y16.6806
G01 X3.4922 Y16.6439
G01 X3.4920 Y7.5159
G00 Z2.0000
G00 X3.4020 Y7.5729
G01 F60.00
G01 Z-0.0000
G01 F120.00
G01 X3.3666 Y7.5561
G01 X3.3567 Y7.5507
G01 X3.2684 Y7.4979
G01 X3.2542 Y7.4887
G01 X3.1716 Y7.4275
G01 X3.1627 Y7.4205
G01 X3.1541 Y7.4132
G01 X3.0779 Y7.3440
G01 X3.0661 Y7.3319
G01 X3.0008 Y7.2599
G01 X2.9935 Y7.2513
G01 X2.9865 Y7.2424
G01 X2.9221 Y7.1551
G01 X2.8661 Y7.0622
G01 X2.8579 Y7.0474
G01 X2.8139 Y6.9544
G01 X2.8093 Y6.9441
G01 X2.7725 Y6.8420
G01 X2.7690 Y6.8313
G01 X2.7660 Y6.8204
G01 X2.7423 Y6.7261
G01 X2.7399 Y6.7151
G01 X2.7379 Y6.7040
G01 X2.7223 Y6.5966
G01 X2.7167 Y6.4883
G01 X2.7164 Y6.4770
G01 X2.7167 Y6.4657
G01 X2.7223 Y6.3574
G01 X2.7237 Y6.3462
G01 X2.7388 Y6.2444
G01 X2.7423 Y6.2279
G01 X2.7660 Y6.1336
G01 X2.7690 Y6.1227
G01 X2.7725 Y6.1120
G01 X2.8093 Y6.0099
G01 X2.8555 Y5.9117
G01 X2.8605 Y5.9016
G01 X2.8661 Y5.8918
G01 X2.9221 Y5.7989
G01 X2.9865 Y5.7116
G01 X2.9935 Y5.7027
G01 X3.0008 Y5.6941
G01 X3.0661 Y5.6221
G01 X3.0739 Y5.6139
G01 X3.0821 Y5.6061
G01 X3.1627 Y5.5335
G01 X3.1716 Y5.5265
G01 X3.2589 Y5.4621
G01 X3.2684 Y5.4561
G01 X3.3616 Y5.4005
G01 X3.4596 Y5.3539
G01 X3.4699 Y5.3493
G01 X3.4804 Y5.3453
G01 X3.5720 Y5.3125
G01 X3.5827 Y5.3090
G01 X3.5936 Y5.3060
G01 X3.6989 Y5.2799
G01 X3.7100 Y5.2779
G01 X3.8118 Y5.2629
G01 X3.8286 Y5.2614
G01 X3.9257 Y5.2567
G01 X3.9370 Y5.2564
G01 X3.9483 Y5.2567
G01 X4.0566 Y5.2623
G01 X4.1640 Y5.2779
G01 X4.1751 Y5.2799
G01 X4.1861 Y5.2823
G01 X4.2913 Y5.3090
G01 X4.3936 Y5.3453
G01 X4.4041 Y5.3493
G01 X4.4144 Y5.3539
G01 X4.5023 Y5.3955
G01 X4.5173 Y5.4033
G01 X4.6056 Y5.4561
G01 X4.6151 Y5.4621
G01 X4.7024 Y5.5265
G01 X4.7113 Y5.5335
G01 X4.7199 Y5.5408
G01 X4.7919 Y5.6061
G01 X4.8040 Y5.6179
G01 X4.8732 Y5.6941
G01 X4.8805 Y5.7027
G01 X4.8875 Y5.7116
G01 X4.9487 Y5.7942
G01 X4.9579 Y5.8084
G01 X5.0107 Y5.8967
G01 X5.0161 Y5.9066
G01 X5.0307 Y5.9373
G01 X6.5056 Y5.9167
G01 X10.4620 Y5.9401
G01 X10.4779 Y5.9066
G01 X10.4833 Y5.8967
G01 X10.5361 Y5.8084
G01 X10.5453 Y5.7942
G01 X10.6065 Y5.7116
G01 X10.6135 Y5.7027
G01 X10.6208 Y5.6941
G01 X10.6900 Y5.6179
G01 X10.7021 Y5.6061
G01 X10.7741 Y5.5408
G01 X10.7827 Y5.5335
G01 X10.7916 Y5.5265
G01 X10.8789 Y5.4621
G01 X10.8884 Y5.4561
G01 X10.9767 Y5.4033
G01 X10.9917 Y5.3955
G01 X11.0796 Y5.3539
G01 X11.0899 Y5.3493
G01 X11.1004 Y5.3453
G01 X11.2027 Y5.3090
G01 X11.2136 Y5.3060
G01 X11.3189 Y5.2799
G01 X11.4262 Y5.2637
G01 X11.4374 Y5.2623
G01 X11.5457 Y5.2567
G01 X11.5570 Y5.2564
G01 X11.5683 Y5.2567
G01 X11.6654 Y5.2614
G01 X11.6822 Y5.2629
G01 X11.7840 Y5.2779
G01 X11.7951 Y5.2799
G01 X11.9004 Y5.3060
G01 X11.9113 Y5.3090
G01 X12.0136 Y5.3453
G01 X12.0241 Y5.3493
G01 X12.1223 Y5.3955
G01 X12.1324 Y5.4005
G01 X12.1422 Y5.4061
G01 X12.2256 Y5.4561
G01 X12.2351 Y5.4621
G01 X12.2444 Y5.4686
G01 X12.3313 Y5.5335
G01 X12.4119 Y5.6061
G01 X12.4201 Y5.6139
G01 X12.4279 Y5.6221
G01 X12.5005 Y5.7027
G01 X12.5654 Y5.7896
G01 X12.5719 Y5.7989
G01 X12.5779 Y5.8084
G01 X12.6279 Y5.8918
G01 X12.6335 Y5.9016
G01 X12.6385 Y5.9117
G01 X12.6847 Y6.0099
G01 X12.7215 Y6.1120
G01 X12.7250 Y6.1227
G01 X12.7517 Y6.2279
G01 X12.7541 Y6.2389
G01 X12.7561 Y6.2500
G01 X12.7711 Y6.3518
G01 X12.7726 Y6.3686
G01 X12.7776 Y6.4770
G01 X12.7773 Y6.4883
G01 X12.7717 Y6.5966
G01 X12.7703 Y6.6078
G01 X12.7541 Y6.7151
G01 X12.7517 Y6.7261
G01 X12.7250 Y6.8313
G01 X12.6887 Y6.9336
G01 X12.6847 Y6.9441
G01 X12.6801 Y6.9544
G01 X12.6335 Y7.0524
G01 X12.5779 Y7.1456
G01 X12.5719 Y7.1551
G01 X12.5654 Y7.1644
G01 X12.5005 Y7.2513
G01 X12.4932 Y7.2599
G01 X12.4201 Y7.3401
G01 X12.3399 Y7.4132
G01 X12.3313 Y7.4205
G01 X12.3224 Y7.4275
G01 X12.2351 Y7.4919
G01 X12.1422 Y7.5479
G01 X12.1324 Y7.5535
G01 X12.1223 Y7.5585
G01 X12.0241 Y7.6047
G01 X11.9220 Y7.6415
G01 X11.9113 Y7.6450
G01 X11.8061 Y7.6717
G01 X11.7951 Y7.6741
G01 X11.6878 Y7.6903
G01 X11.6766 Y7.6917
G01 X11.6654 Y7.6926
G01 X11.5683 Y7.6973
G01 X11.5570 Y7.6976
G01 X11.5457 Y7.6973
G01 X11.4374 Y7.6917
G01 X11.4262 Y7.6903
G01 X11.3189 Y7.6741
G01 X11.2136 Y7.6480
G01 X11.2027 Y7.6450
G01 X11.1004 Y7.6087
G01 X11.0899 Y7.6047
G01 X11.0796 Y7.6001
G01 X10.9917 Y7.5585
G01 X10.9767 Y7.5507
G01 X10.8884 Y7.4979
G01 X10.8789 Y7.4919
G01 X10.7916 Y7.4275
G01 X10.7827 Y7.4205
G01 X10.7741 Y7.4132
G01 X10.7021 Y7.3479
G01 X10.6900 Y7.3361
G01 X10.6208 Y7.2599
G01 X10.6135 Y7.2513
G01 X10.6065 Y7.2424
G01 X10.5453 Y7.1598
G01 X10.5361 Y7.1456
G01 X10.4833 Y7.0573
G01 X10.4755 Y7.0423
G01 X10.4602 Y7.0100
G01 X6.5046 Y6.9866
G01 X5.0351 Y7.0073
G01 X5.0185 Y7.0423
G01 X5.0107 Y7.0573
G01 X4.9579 Y7.1456
G01 X4.9487 Y7.1598
G01 X4.8875 Y7.2424
G01 X4.8805 Y7.2513
G01 X4.8079 Y7.3319
G01 X4.8001 Y7.3401
G01 X4.7919 Y7.3479
G01 X4.7113 Y7.4205
G01 X4.7024 Y7.4275
G01 X4.6198 Y7.4887
G01 X4.6056 Y7.4979
G01 X4.5173 Y7.5507
G01 X4.5074 Y7.5561
G01 X4.4719 Y7.5729
G01 X4.4720 Y16.1021
G01 X9.0177 Y16.1021
G01 X28.7836 Y16.1268
G01 X28.7984 Y15.0479
G01 X28.7294 Y15.0063
G01 X28.7202 Y14.9998
G01 X28.6432 Y14.9424
G01 X28.6347 Y14.9350
G01 X28.5637 Y14.8703
G01 X28.4990 Y14.7993
G01 X28.4916 Y14.7908
G01 X28.4847 Y14.7819
G01 X28.4342 Y14.7138
G01 X28.4277 Y14.7046
G01 X28.4217 Y14.6950
G01 X28.3725 Y14.6125
G01 X28.3312 Y14.5258
G01 X28.3266 Y14.5155
G01 X28.3226 Y14.5050
G01 X28.2940 Y14.4252
G01 X28.2905 Y14.4145
G01 X28.2875 Y14.4036
G01 X28.2644 Y14.3104
G01 X28.2501 Y14.2154
G01 X28.2487 Y14.2042
G01 X28.2437 Y14.1083
G01 X28.2434 Y14.0970
G01 X28.2437 Y14.0857
G01 X28.2487 Y13.9898
G01 X28.2501 Y13.9786
G01 X28.2634 Y13.8892
G01 X28.2669 Y13.8726
G01 X28.2905 Y13.7795
G01 X28.3226 Y13.6890
G01 X28.3266 Y13.6785
G01 X28.3312 Y13.6682
G01 X28.3675 Y13.5916
G01 X28.3725 Y13.5815
G01 X28.3781 Y13.5717
G01 X28.4277 Y13.4894
G01 X28.4847 Y13.4121
G01 X28.4916 Y13.4032
G01 X28.4990 Y13.3947
G01 X28.5637 Y13.3237
G01 X28.5719 Y13.3159
G01 X28.6432 Y13.2516
G01 X28.7202 Y13.1942
G01 X28.7294 Y13.1877
G01 X28.8117 Y13.1381
G01 X28.8215 Y13.1325
G01 X28.8316 Y13.1275
G01 X28.9082 Y13.0912
G01 X28.9185 Y13.0866
G01 X28.9290 Y13.0826
G01 X29.0195 Y13.0505
G01 X29.1126 Y13.0269
G01 X29.1236 Y13.0244
G01 X29.2186 Y13.0101
G01 X29.2298 Y13.0087
G01 X29.2411 Y13.0078
G01 X29.3370 Y13.0034
G01 X29.4329 Y13.0078
G01 X29.4442 Y13.0087
G01 X29.5392 Y13.0225
G01 X29.5504 Y13.0244
G01 X29.5614 Y13.0269
G01 X29.6436 Y13.0475
G01 X29.6545 Y13.0505
G01 X29.6652 Y13.0540
G01 X29.7555 Y13.0866
G01 X29.7658 Y13.0912
G01 X29.8525 Y13.1325
G01 X29.9350 Y13.1817
G01 X29.9446 Y13.1877
G01 X29.9538 Y13.1942
G01 X30.0308 Y13.2516
G01 X30.1021 Y13.3159
G01 X30.1103 Y13.3237
G01 X30.1181 Y13.3319
G01 X30.1824 Y13.4032
G01 X30.2398 Y13.4802
G01 X30.2463 Y13.4894
G01 X30.2959 Y13.5717
G01 X30.3015 Y13.5815
G01 X30.3065 Y13.5916
G01 X30.3428 Y13.6682
G01 X30.3474 Y13.6785
G01 X30.3514 Y13.6890
G01 X30.3835 Y13.7795
G01 X30.4071 Y13.8726
G01 X30.4106 Y13.8892
G01 X30.4239 Y13.9786
G01 X30.4253 Y13.9898
G01 X30.4303 Y14.0857
G01 X30.4306 Y14.0970
G01 X30.4303 Y14.1083
G01 X30.4253 Y14.2042
G01 X30.4115 Y14.2992
G01 X30.4096 Y14.3104
G01 X30.3865 Y14.4036
G01 X30.3835 Y14.4145
G01 X30.3800 Y14.4252
G01 X30.3514 Y14.5050
G01 X30.3474 Y14.5155
G01 X30.3428 Y14.5258
G01 X30.3015 Y14.6125
G01 X30.2523 Y14.6950
G01 X30.2463 Y14.7046
G01 X30.2398 Y14.7138
G01 X30.1893 Y14.7819
G01 X30.1824 Y14.7908
G01 X30.1750 Y14.7993
G01 X30.1103 Y14.8703
G01 X30.1021 Y14.8781
G01 X30.0308 Y14.9424
G01 X29.9538 Y14.9998
G01 X29.9446 Y15.0063
G01 X29.8684 Y15.0523
G01 X29.8542 Y16.1021
G01 X41.4802 Y16.1020
G01 X41.5239 Y9.5297
G01 X38.0538 Y9.5500
G01 X38.0385 Y9.5823
G01 X38.0307 Y9.5973
G01 X37.9779 Y9.6856
G01 X37.9687 Y9.6998
G01 X37.9075 Y9.7824
G01 X37.9005 Y9.7913
G01 X37.8279 Y9.8719
G01 X37.8161 Y9.8840
G01 X37.7399 Y9.9532
G01 X37.7313 Y9.9605
G01 X37.7224 Y9.9675
G01 X37.6351 Y10.0319
G01 X37.5422 Y10.0879
G01 X37.5324 Y10.0935
G01 X37.4344 Y10.1401
G01 X37.4189 Y10.1468
G01 X37.3220 Y10.1815
G01 X37.3113 Y10.1850
G01 X37.2061 Y10.2117
G01 X37.1951 Y10.2141
G01 X37.0878 Y10.2303
G01 X37.0766 Y10.2317
G01 X37.0654 Y10.2326
G01 X36.9570 Y10.2376
G01 X36.8486 Y10.2326
G01 X36.8374 Y10.2317
G01 X36.8262 Y10.2303
G01 X36.7189 Y10.2141
G01 X36.7079 Y10.2117
G01 X36.6027 Y10.1850
G01 X36.5920 Y10.1815
G01 X36.4951 Y10.1468
G01 X36.4796 Y10.1401
G01 X36.3816 Y10.0935
G01 X36.2884 Y10.0379
G01 X36.2789 Y10.0319
G01 X36.2696 Y10.0254
G01 X36.1916 Y9.9675
G01 X36.1827 Y9.9605
G01 X36.1741 Y9.9532
G01 X36.0939 Y9.8801
G01 X36.0208 Y9.7999
G01 X36.0135 Y9.7913
G01 X35.9486 Y9.7044
G01 X35.9421 Y9.6951
G01 X35.8861 Y9.6022
G01 X35.8805 Y9.5924
G01 X35.8339 Y9.4944
G01 X35.8293 Y9.4841
G01 X35.7925 Y9.3820
G01 X35.7890 Y9.3713
G01 X35.7623 Y9.2661
G01 X35.7599 Y9.2551
G01 X35.7437 Y9.1478
G01 X35.7423 Y9.1366
G01 X35.7414 Y9.1254
G01 X35.7367 Y9.0283
G01 X35.7364 Y9.0170
G01 X35.7367 Y9.0057
G01 X35.7423 Y8.8974
G01 X35.7437 Y8.8862
G01 X35.7599 Y8.7789
G01 X35.7860 Y8.6736
G01 X35.7890 Y8.6627
G01 X35.7925 Y8.6520
G01 X35.8293 Y8.5499
G01 X35.8339 Y8.5396
G01 X35.8805 Y8.4416
G01 X35.9361 Y8.3484
G01 X35.9421 Y8.3389
G01 X35.9486 Y8.3296
G01 X36.0065 Y8.2516
G01 X36.0135 Y8.2427
G01 X36.0208 Y8.2341
G01 X36.0939 Y8.1539
G01 X36.1021 Y8.1461
G01 X36.1827 Y8.0735
G01 X36.1916 Y8.0665
G01 X36.2789 Y8.0021
G01 X36.3718 Y7.9461
G01 X36.3816 Y7.9405
G01 X36.4796 Y7.8939
G01 X36.4899 Y7.8893
G01 X36.5920 Y7.8525
G01 X36.6027 Y7.8490
G01 X36.6136 Y7.8460
G01 X36.7079 Y7.8223
G01 X36.7189 Y7.8199
G01 X36.7300 Y7.8179
G01 X36.8374 Y7.8023
G01 X36.9457 Y7.7967
G01 X36.9626 Y7.7965
G01 X37.0654 Y7.8014
G01 X37.0766 Y7.8023
G01 X37.1840 Y7.8179
G01 X37.1951 Y7.8199
G01 X37.2061 Y7.8223
G01 X37.3113 Y7.8490
G01 X37.4136 Y7.8853
G01 X37.4241 Y7.8893
G01 X37.4344 Y7.8939
G01 X37.5324 Y7.9405
G01 X37.5422 Y7.9461
G01 X37.6304 Y7.9990
G01 X37.6444 Y8.0086
G01 X37.7224 Y8.0665
G01 X37.7313 Y8.0735
G01 X37.7399 Y8.0808
G01 X37.8201 Y8.1539
G01 X37.8279 Y8.1621
G01 X37.8969 Y8.2383
G01 X37.9075 Y8.2516
G01 X37.9654 Y8.3296
G01 X37.9750 Y8.3436
G01 X38.0307 Y8.4367
G01 X38.0361 Y8.4466
G01 X38.0520 Y8.4801
G01 X42.0593 Y8.4567
G01 X42.0709 Y8.4567
G01 X42.1005 Y8.4582
G01 X42.1233 Y8.4602
G01 X42.1588 Y8.4654
G01 X42.1751 Y8.4687
G01 X42.2161 Y8.4792
G01 X42.2318 Y8.4843
G01 X42.2596 Y8.4944
G01 X42.2691 Y8.4982
G01 X42.3074 Y8.5161
G01 X42.3275 Y8.5271
G01 X42.3582 Y8.5459
G01 X42.3666 Y8.5516
G01 X42.3904 Y8.5692
G01 X42.4083 Y8.5835
G01 X42.4349 Y8.6077
G01 X42.4466 Y8.6194
G01 X42.4748 Y8.6509
G01 X42.4812 Y8.6588
G01 X42.4989 Y8.6826
G01 X42.5118 Y8.7015
G01 X42.5334 Y8.7379
G01 X42.5381 Y8.7470
G01 X42.5535 Y8.7795
G01 X42.5620 Y8.8007
G01 X42.5719 Y8.8286
G01 X42.5749 Y8.8383
G01 X42.5854 Y8.8794
G01 X42.5896 Y8.9019
G01 X42.5939 Y8.9312
G01 X42.5950 Y8.9413
G01 X42.5959 Y8.9540
G01 X42.5973 Y8.9899
G01 X42.5465 Y16.6406
G01 X42.5448 Y16.6782
G01 X42.5437 Y16.6922
G01 X42.5382 Y16.7302
G01 X42.5344 Y16.7500
G01 X42.5265 Y16.7814
G01 X42.5227 Y16.7950
G01 X42.5189 Y16.8064
G01 X42.5055 Y16.8424
G01 X42.4998 Y16.8553
G01 X42.4830 Y16.8898
G01 X42.4624 Y16.9247
G01 X42.4560 Y16.9348
G01 X42.4478 Y16.9463
G01 X42.4284 Y16.9723
G01 X42.4194 Y16.9831
G01 X42.3977 Y17.0071
G01 X42.3879 Y17.0172
G01 X42.3595 Y17.0431
G01 X42.3488 Y17.0523
G01 X42.3393 Y17.0597
G01 X42.3082 Y17.0822
G01 X42.2963 Y17.0897
G01 X42.2684 Y17.1062
G01 X42.2559 Y17.1128
G01 X42.2266 Y17.1267
G01 X42.2156 Y17.1315
G01 X42.2025 Y17.1366
G01 X42.1642 Y17.1497
G01 X42.1270 Y17.1592
G01 X42.1132 Y17.1622
G01 X42.1013 Y17.1642
G01 X42.0633 Y17.1694
G01 X42.0492 Y17.1705
G01 X42.0116 Y17.1719
G01 X29.4741 Y17.1720
G01 X29.4613 Y17.1760
G01 X29.4490 Y17.1792
G01 X29.4201 Y17.1862
G01 X29.4040 Y17.1893
G01 X29.3683 Y17.1943
G01 X29.3582 Y17.1953
G01 X29.3456 Y17.1961
G01 X29.3109 Y17.1973
G01 X9.0167 Y17.1719
G01 X3.9370 Y17.1719
G01 X3.9257 Y17.1717
G01 X3.8846 Y17.1694
G01 X3.8438 Y17.1636
G01 X3.8271 Y17.1605
G01 X3.7817 Y17.1489
G01 X3.7428 Y17.1353
G01 X3.7323 Y17.1312
G01 X3.7220 Y17.1267
G01 X3.6848 Y17.1088
G01 X3.6493 Y17.0878
G01 X3.6398 Y17.0818
G01 X3.6261 Y17.0720
G01 X3.6020 Y17.0540
G01 X3.5891 Y17.0431
G01 X3.5587 Y17.0153
G01 X3.5309 Y16.9849
G01 X3.5235 Y16.9764
G01 X3.5105 Y16.9594
G01 X3.4922 Y16.9342
G01 X3.4708 Y16.8990
G01 X3.4652 Y16.8892
G01 X3.4601 Y16.8791
G01 X3.4450 Y16.8469
G01 X3.4387 Y16.8312
G01 X3.4251 Y16.7923
G01 X3.4221 Y16.7814
G01 X3.4123 Y16.7414
G01 X3.4104 Y16.7302
G01 X3.4046 Y16.6894
G01 X3.4023 Y16.6483
G01 X3.4021 Y16.6370
G01 X3.4020 Y7.5729
G00 Z2.0000
G00 X11.2382 Y7.7470
G01 F60.00
G01 Z-0.0000
G01 F120.00
G01 X11.1917 Y7.7586
G01 X11.1691 Y7.7652
G01 X11.0701 Y7.8005
G01 X11.0482 Y7.8093
G01 X10.9532 Y7.8541
G01 X10.9392 Y7.8612
G01 X10.9255 Y7.8689
G01 X10.8355 Y7.9230
G01 X10.8160 Y7.9363
G01 X10.7379 Y7.9942
G01 X10.7256 Y8.0039
G01 X10.7137 Y8.0142
G01 X10.6416 Y8.0794
G01 X10.6303 Y8.0903
G01 X10.6194 Y8.1016
G01 X10.5542 Y8.1737
G01 X10.5390 Y8.1917
G01 X10.4763 Y8.2760
G01 X10.4673 Y8.2889
G01 X10.4589 Y8.3021
G01 X10.4089 Y8.3855
G01 X10.4012 Y8.3992
G01 X10.3941 Y8.4132
G01 X10.3525 Y8.5011
G01 X10.3462 Y8.5155
G01 X10.3405 Y8.5301
G01 X10.3078 Y8.6216
G01 X10.3028 Y8.6366
G01 X10.2986 Y8.6517
G01 X10.2750 Y8.7460
G01 X10.2716 Y8.7613
G01 X10.2689 Y8.7768
G01 X10.2546 Y8.8730
G01 X10.2527 Y8.8885
G01 X10.2516 Y8.9042
G01 X10.2468 Y9.0013
G01 X10.2464 Y9.0170
G01 X10.2468 Y9.0327
G01 X10.2516 Y9.1298
G01 X10.2527 Y9.1455
G01 X10.2546 Y9.1610
G01 X10.2689 Y9.2572
G01 X10.2716 Y9.2727
G01 X10.2750 Y9.2880
G01 X10.2986 Y9.3823
G01 X10.3028 Y9.3974
G01 X10.3078 Y9.4124
G01 X10.3405 Y9.5039
G01 X10.3462 Y9.5185
G01 X10.3525 Y9.5329
G01 X10.3941 Y9.6208
G01 X10.4012 Y9.6348
G01 X10.4089 Y9.6485
G01 X10.4589 Y9.7319
G01 X10.4673 Y9.7451
G01 X10.4763 Y9.7580
G01 X10.5390 Y9.8423
G01 X10.5542 Y9.8603
G01 X10.6194 Y9.9324
G01 X10.6303 Y9.9437
G01 X10.6416 Y9.9546
G01 X10.7137 Y10.0198
G01 X10.7256 Y10.0301
G01 X10.7379 Y10.0398
G01 X10.8160 Y10.0977
G01 X10.8355 Y10.1110
G01 X10.9255 Y10.1651
G01 X10.9392 Y10.1728
G01 X10.9532 Y10.1799
G01 X11.0482 Y10.2247
G01 X11.0701 Y10.2335
G01 X11.1691 Y10.2688
G01 X11.1917 Y10.2754
G01 X11.2382 Y10.2870
G01 X11.1917 Y10.2986
G01 X11.1691 Y10.3052
G01 X11.0701 Y10.3405
G01 X11.0482 Y10.3493
G01 X10.9532 Y10.3941
G01 X10.9392 Y10.4012
G01 X10.9255 Y10.4089
G01 X10.8355 Y10.4630
G01 X10.8160 Y10.4763
G01 X10.7379 Y10.5342
G01 X10.7256 Y10.5439
G01 X10.7137 Y10.5542
G01 X10.6416 Y10.6194
G01 X10.6303 Y10.6303
G01 X10.6194 Y10.6416
G01 X10.5490 Y10.7196
G01 X10.5342 Y10.7379
G01 X10.4763 Y10.8160
G01 X10.4673 Y10.8289
G01 X10.4589 Y10.8421
G01 X10.4089 Y10.9255
G01 X10.4012 Y10.9392
G01 X10.3941 Y10.9532
G01 X10.3525 Y11.0411
G01 X10.3462 Y11.0555
G01 X10.3405 Y11.0701
G01 X10.3078 Y11.1616
G01 X10.3028 Y11.1766
G01 X10.2986 Y11.1917
G01 X10.2750 Y11.2860
G01 X10.2716 Y11.3013
G01 X10.2689 Y11.3168
G01 X10.2546 Y11.4130
G01 X10.2520 Y11.4364
G01 X10.2468 Y11.5413
G01 X10.2464 Y11.5570
G01 X10.2468 Y11.5727
G01 X10.2516 Y11.6698
G01 X10.2527 Y11.6855
G01 X10.2546 Y11.7010
G01 X10.2689 Y11.7972
G01 X10.2716 Y11.8127
G01 X10.2750 Y11.8280
G01 X10.2986 Y11.9223
G01 X10.3028 Y11.9374
G01 X10.3078 Y11.9524
G01 X10.3405 Y12.0439
G01 X10.3462 Y12.0585
G01 X10.3525 Y12.0729
G01 X10.3941 Y12.1608
G01 X10.4012 Y12.1748
G01 X10.4089 Y12.1885
G01 X10.4589 Y12.2719
G01 X10.4673 Y12.2851
G01 X10.4763 Y12.2980
G01 X10.5342 Y12.3761
G01 X10.5439 Y12.3884
G01 X10.5542 Y12.4003
G01 X10.6194 Y12.4724
G01 X10.6303 Y12.4837
G01 X10.6416 Y12.4946
G01 X10.7137 Y12.5598
G01 X10.7256 Y12.5701
G01 X10.7379 Y12.5798
G01 X10.8160 Y12.6377
G01 X10.8289 Y12.6467
G01 X10.8421 Y12.6551
G01 X10.9255 Y12.7051
G01 X10.9392 Y12.7128
G01 X10.9532 Y12.7199
G01 X11.0411 Y12.7615
G01 X11.0555 Y12.7678
G01 X11.0701 Y12.7735
G01 X11.1616 Y12.8062
G01 X11.1766 Y12.8112
G01 X11.1917 Y12.8154
G01 X11.2860 Y12.8390
G01 X11.3013 Y12.8424
G01 X11.3168 Y12.8451
G01 X11.4130 Y12.8594
G01 X11.4285 Y12.8613
G01 X11.4442 Y12.8624
G01 X11.5413 Y12.8672
G01 X11.5570 Y12.8676
G01 X11.5727 Y12.8672
G01 X11.6698 Y12.8624
G01 X11.6855 Y12.8613
G01 X11.7010 Y12.8594
G01 X11.7972 Y12.8451
G01 X11.8127 Y12.8424
G01 X11.8280 Y12.8390
G01 X11.9223 Y12.8154
G01 X11.9374 Y12.8112
G01 X11.9524 Y12.8062
G01 X12.0439 Y12.7735
G01 X12.0585 Y12.7678
G01 X12.0729 Y12.7615
G01 X12.1608 Y12.7199
G01 X12.1748 Y12.7128
G01 X12.1885 Y12.7051
G01 X12.2719 Y12.6551
G01 X12.2851 Y12.6467
G01 X12.2980 Y12.6377
G01 X12.3761 Y12.5798
G01 X12.3884 Y12.5701
G01 X12.4003 Y12.5598
G01 X12.4724 Y12.4946
G01 X12.4837 Y12.4837
G01 X12.4946 Y12.4724
G01 X12.5598 Y12.4003
G01 X12.5701 Y12.3884
G01 X12.5798 Y12.3761
G01 X12.6377 Y12.2980
G01 X12.6467 Y12.2851
G01 X12.6551 Y12.2719
G01 X12.7076 Y12.1842
G01 X16.6642 Y12.2073
G01 X20.7140 Y12.1838
G01 X20.7286 Y12.2080
G01 X20.7373 Y12.2210
G01 X20.7972 Y12.3017
G01 X20.8123 Y12.3198
G01 X20.8692 Y12.3826
G01 X20.8857 Y12.3994
G01 X20.9542 Y12.4617
G01 X20.9661 Y12.4719
G01 X20.9785 Y12.4816
G01 X21.0466 Y12.5321
G01 X21.0594 Y12.5411
G01 X21.0727 Y12.5495
G01 X21.1454 Y12.5931
G01 X21.1660 Y12.6045
G01 X21.2497 Y12.6441
G01 X21.2641 Y12.6505
G01 X21.2787 Y12.6562
G01 X21.3585 Y12.6847
G01 X21.3734 Y12.6896
G01 X21.3886 Y12.6938
G01 X21.4708 Y12.7144
G01 X21.4861 Y12.7179
G01 X21.5016 Y12.7205
G01 X21.5854 Y12.7330
G01 X21.6010 Y12.7349
G01 X21.6167 Y12.7361
G01 X21.7013 Y12.7402
G01 X21.7170 Y12.7406
G01 X21.7327 Y12.7402
G01 X21.8173 Y12.7361
G01 X21.8408 Y12.7340
G01 X21.9324 Y12.7205
G01 X21.9479 Y12.7179
G01 X21.9632 Y12.7144
G01 X22.0454 Y12.6938
G01 X22.0606 Y12.6896
G01 X22.0755 Y12.6847
G01 X22.1553 Y12.6562
G01 X22.1699 Y12.6505
G01 X22.1843 Y12.6441
G01 X22.2609 Y12.6079
G01 X22.2749 Y12.6008
G01 X22.2886 Y12.5931
G01 X22.3680 Y12.5454
G01 X22.3874 Y12.5321
G01 X22.4555 Y12.4816
G01 X22.4679 Y12.4719
G01 X22.4798 Y12.4617
G01 X22.5426 Y12.4048
G01 X22.5539 Y12.3939
G01 X22.5648 Y12.3826
G01 X22.6217 Y12.3198
G01 X22.6319 Y12.3079
G01 X22.6416 Y12.2955
G01 X22.6921 Y12.2274
G01 X22.7011 Y12.2146
G01 X22.7095 Y12.2013
G01 X22.7531 Y12.1286
G01 X22.7608 Y12.1149
G01 X22.7679 Y12.1009
G01 X22.8041 Y12.0243
G01 X22.8105 Y12.0099
G01 X22.8162 Y11.9953
G01 X22.8473 Y11.9081
G01 X22.8538 Y11.8854
G01 X22.8744 Y11.8032
G01 X22.8793 Y11.7802
G01 X22.8930 Y11.6886
G01 X22.8949 Y11.6730
G01 X22.8961 Y11.6573
G01 X22.9002 Y11.5727
G01 X22.9006 Y11.5570
G01 X22.9002 Y11.5413
G01 X22.8961 Y11.4567
G01 X22.8949 Y11.4410
G01 X22.8930 Y11.4254
G01 X22.8805 Y11.3416
G01 X22.8779 Y11.3261
G01 X22.8744 Y11.3108
G01 X22.8518 Y11.2210
G01 X22.8447 Y11.1985
G01 X22.8162 Y11.1187
G01 X22.8105 Y11.1041
G01 X22.8041 Y11.0897
G01 X22.7679 Y11.0131
G01 X22.7608 Y10.9991
G01 X22.7531 Y10.9854
G01 X22.7054 Y10.9060
G01 X22.6921 Y10.8866
G01 X22.6416 Y10.8185
G01 X22.6319 Y10.8061
G01 X22.6217 Y10.7942
G01 X22.5648 Y10.7314
G01 X22.5539 Y10.7201
G01 X22.5426 Y10.7092
G01 X22.4798 Y10.6523
G01 X22.4679 Y10.6421
G01 X22.4555 Y10.6324
G01 X22.3874 Y10.5819
G01 X22.3746 Y10.5729
G01 X22.3613 Y10.5645
G01 X22.2886 Y10.5209
G01 X22.2749 Y10.5132
G01 X22.2609 Y10.5061
G01 X22.1843 Y10.4699
G01 X22.1699 Y10.4635
G01 X22.1553 Y10.4578
G01 X22.0755 Y10.4293
G01 X22.0606 Y10.4244
G01 X22.0454 Y10.4202
G01 X21.9632 Y10.3996
G01 X21.9402 Y10.3947
G01 X21.8486 Y10.3810
G01 X21.8330 Y10.3791
G01 X21.8173 Y10.3779
G01 X21.7327 Y10.3738
G01 X21.7170 Y10.3734
G01 X21.7013 Y10.3738
G01 X21.6167 Y10.3779
G01 X21.6010 Y10.3791
G01 X21.5854 Y10.3810
G01 X21.5016 Y10.3935
G01 X21.4861 Y10.3961
G01 X21.4708 Y10.3996
G01 X21.3886 Y10.4202
G01 X21.3734 Y10.4244
G01 X21.3585 Y10.4293
G01 X21.2787 Y10.4578
G01 X21.2641 Y10.4635
G01 X21.2497 Y10.4699
G01 X21.1731 Y10.5061
G01 X21.1591 Y10.5132
G01 X21.1454 Y10.5209
G01 X21.0727 Y10.5645
G01 X21.0594 Y10.5729
G01 X21.0466 Y10.5819
G01 X20.9785 Y10.6324
G01 X20.9601 Y10.6471
G01 X20.8914 Y10.7092
G01 X20.8801 Y10.7201
G01 X20.8692 Y10.7314
G01 X20.8071 Y10.8001
G01 X20.7924 Y10.8185
G01 X20.7373 Y10.8930
G01 X20.7286 Y10.9060
G01 X20.7118 Y10.9339
G01 X16.6624 Y10.9574
G01 X12.7102 Y10.9343
G01 X12.6551 Y10.8421
G01 X12.6467 Y10.8289
G01 X12.6377 Y10.8160
G01 X12.5798 Y10.7379
G01 X12.5701 Y10.7256
G01 X12.5598 Y10.7137
G01 X12.4946 Y10.6416
G01 X12.4837 Y10.6303
G01 X12.4724 Y10.6194
G01 X12.4003 Y10.5542
G01 X12.3823 Y10.5390
G01 X12.2980 Y10.4763
G01 X12.2851 Y10.4673
G01 X12.2719 Y10.4589
G01 X12.1885 Y10.4089
G01 X12.1678 Y10.3975
G01 X12.0729 Y10.3525
G01 X12.0513 Y10.3432
G01 X11.9449 Y10.3052
G01 X11.9223 Y10.2986
G01 X11.8758 Y10.2870
G01 X11.9223 Y10.2754
G01 X11.9449 Y10.2688
G01 X12.0513 Y10.2308
G01 X12.0729 Y10.2215
G01 X12.1678 Y10.1765
G01 X12.1885 Y10.1651
G01 X12.2719 Y10.1151
G01 X12.2851 Y10.1067
G01 X12.2980 Y10.0977
G01 X12.3823 Y10.0350
G01 X12.4003 Y10.0198
G01 X12.4724 Y9.9546
G01 X12.4837 Y9.9437
G01 X12.4946 Y9.9324
G01 X12.5598 Y9.8603
G01 X12.5701 Y9.8484
G01 X12.5798 Y9.8361
G01 X12.6377 Y9.7580
G01 X12.6467 Y9.7451
G01 X12.6551 Y9.7319
G01 X12.7102 Y9.6396
G01 X16.6153 Y9.6165
G01 X16.6310 Y9.6161
G01 X16.6655 Y9.6142
G01 X16.6839 Y9.6123
G01 X16.7263 Y9.6059
G01 X16.7444 Y9.6022
G01 X16.7859 Y9.5917
G01 X16.8036 Y9.5863
G01 X16.8439 Y9.5717
G01 X16.8609 Y9.5646
G01 X16.8997 Y9.5462
G01 X16.9159 Y9.5374
G01 X16.9526 Y9.5153
G01 X16.9679 Y9.5050
G01 X17.0023 Y9.4793
G01 X17.0165 Y9.4676
G01 X17.0482 Y9.4387
G01 X17.0612 Y9.4256
G01 X17.0844 Y9.4000
G01 X17.0964 Y9.3859
G01 X17.1222 Y9.3516
G01 X17.1327 Y9.3365
G01 X17.1550 Y9.2999
G01 X17.1632 Y9.2854
G01 X17.1715 Y9.2689
G01 X17.1893 Y9.2299
G01 X17.1959 Y9.2127
G01 X17.2099 Y9.1721
G01 X17.2148 Y9.1543
G01 X17.2247 Y9.1126
G01 X17.2278 Y9.0944
G01 X17.2336 Y9.0519
G01 X17.2350 Y9.0335
G01 X17.2365 Y8.9995
G01 X17.2365 Y4.5620
G01 X21.1088 Y4.5620
G01 X21.0964 Y5.4703
G01 X21.0660 Y5.4886
G01 X21.0530 Y5.4973
G01 X20.9785 Y5.5524
G01 X20.9601 Y5.5671
G01 X20.8914 Y5.6292
G01 X20.8801 Y5.6401
G01 X20.8692 Y5.6514
G01 X20.8071 Y5.7201
G01 X20.7924 Y5.7385
G01 X20.7419 Y5.8066
G01 X20.7329 Y5.8194
G01 X20.7245 Y5.8327
G01 X20.6809 Y5.9054
G01 X20.6732 Y5.9191
G01 X20.6661 Y5.9331
G01 X20.6266 Y6.0168
G01 X20.6178 Y6.0387
G01 X20.5893 Y6.1185
G01 X20.5844 Y6.1334
G01 X20.5802 Y6.1486
G01 X20.5596 Y6.2308
G01 X20.5561 Y6.2461
G01 X20.5535 Y6.2616
G01 X20.5410 Y6.3454
G01 X20.5391 Y6.3610
G01 X20.5379 Y6.3767
G01 X20.5338 Y6.4613
G01 X20.5334 Y6.4770
G01 X20.5338 Y6.4927
G01 X20.5379 Y6.5773
G01 X20.5391 Y6.5930
G01 X20.5410 Y6.6086
G01 X20.5535 Y6.6924
G01 X20.5561 Y6.7079
G01 X20.5596 Y6.7232
G01 X20.5802 Y6.8054
G01 X20.5844 Y6.8206
G01 X20.5893 Y6.8355
G01 X20.6178 Y6.9153
G01 X20.6235 Y6.9299
G01 X20.6299 Y6.9443
G01 X20.6695 Y7.0280
G01 X20.6809 Y7.0486
G01 X20.7245 Y7.1213
G01 X20.7329 Y7.1346
G01 X20.7419 Y7.1474
G01 X20.7924 Y7.2155
G01 X20.8021 Y7.2279
G01 X20.8123 Y7.2398
G01 X20.8692 Y7.3026
G01 X20.8801 Y7.3139
G01 X20.8914 Y7.3248
G01 X20.9542 Y7.3817
G01 X20.9661 Y7.3919
G01 X20.9785 Y7.4016
G01 X21.0466 Y7.4521
G01 X21.0594 Y7.4611
G01 X21.0727 Y7.4695
G01 X21.1454 Y7.5131
G01 X21.1660 Y7.5245
G01 X21.2497 Y7.5641
G01 X21.2641 Y7.5705
G01 X21.2787 Y7.5762
G01 X21.3585 Y7.6047
G01 X21.3734 Y7.6096
G01 X21.3886 Y7.6138
G01 X21.4708 Y7.6344
G01 X21.4861 Y7.6379
G01 X21.5016 Y7.6405
G01 X21.5854 Y7.6530
G01 X21.6010 Y7.6549
G01 X21.6167 Y7.6561
G01 X21.7013 Y7.6602
G01 X21.7170 Y7.6606
G01 X21.7327 Y7.6602
G01 X21.8173 Y7.6561
G01 X21.8330 Y7.6549
G01 X21.8486 Y7.6530
G01 X21.9324 Y7.6405
G01 X21.9556 Y7.6362
G01 X22.0454 Y7.6138
G01 X22.0606 Y7.6096
G01 X22.0755 Y7.6047
G01 X22.1553 Y7.5762
G01 X22.1699 Y7.5705
G01 X22.1843 Y7.5641
G01 X22.2609 Y7.5279
G01 X22.2749 Y7.5208
G01 X22.2886 Y7.5131
G01 X22.3613 Y7.4695
G01 X22.3746 Y7.4611
G01 X22.3874 Y7.4521
G01 X22.4555 Y7.4016
G01 X22.4679 Y7.3919
G01 X22.4798 Y7.3817
G01 X22.5426 Y7.3248
G01 X22.5539 Y7.3139
G01 X22.5648 Y7.3026
G01 X22.6217 Y7.2398
G01 X22.6368 Y7.2217
G01 X22.6921 Y7.1474
G01 X22.7011 Y7.1346
G01 X22.7095 Y7.1213
G01 X22.7531 Y7.0486
G01 X22.7608 Y7.0349
G01 X22.7679 Y7.0209
G01 X22.8041 Y6.9443
G01 X22.8105 Y6.9299
G01 X22.8162 Y6.9153
G01 X22.8447 Y6.8355
G01 X22.8496 Y6.8206
G01 X22.8538 Y6.8054
G01 X22.8744 Y6.7232
G01 X22.8779 Y6.7079
G01 X22.8805 Y6.6924
G01 X22.8930 Y6.6086
G01 X22.8949 Y6.5930
G01 X22.8961 Y6.5773
G01 X22.9002 Y6.4927
G01 X22.9006 Y6.4770
G01 X22.9002 Y6.4613
G01 X22.8961 Y6.3767
G01 X22.8949 Y6.3610
G01 X22.8930 Y6.3454
G01 X22.8805 Y6.2616
G01 X22.8779 Y6.2461
G01 X22.8744 Y6.2308
G01 X22.8538 Y6.1486
G01 X22.8496 Y6.1334
G01 X22.8447 Y6.1185
G01 X22.8162 Y6.0387
G01 X22.8074 Y6.0168
G01 X22.7679 Y5.9331
G01 X22.7608 Y5.9191
G01 X22.7531 Y5.9054
G01 X22.7095 Y5.8327
G01 X22.7011 Y5.8194
G01 X22.6921 Y5.8066
G01 X22.6416 Y5.7385
G01 X22.6269 Y5.7201
G01 X22.5648 Y5.6514
G01 X22.5539 Y5.6401
G01 X22.5426 Y5.6292
G01 X22.4739 Y5.5671
G01 X22.4555 Y5.5524
G01 X22.3810 Y5.4973
G01 X22.3680 Y5.4886
G01 X22.3463 Y5.4755
G01 X22.3588 Y4.5620
G01 X36.3320 Y4.5619
G01 X36.3320 Y5.3251
G01 X36.2421 Y5.3789
G01 X36.2289 Y5.3873
G01 X36.2160 Y5.3963
G01 X36.1379 Y5.4542
G01 X36.1256 Y5.4639
G01 X36.1137 Y5.4742
G01 X36.0416 Y5.5394
G01 X36.0303 Y5.5503
G01 X36.0194 Y5.5616
G01 X35.9542 Y5.6337
G01 X35.9439 Y5.6456
G01 X35.9342 Y5.6579
G01 X35.8763 Y5.7360
G01 X35.8673 Y5.7489
G01 X35.8589 Y5.7621
G01 X35.8089 Y5.8455
G01 X35.8012 Y5.8592
G01 X35.7941 Y5.8732
G01 X35.7525 Y5.9611
G01 X35.7462 Y5.9755
G01 X35.7405 Y5.9901
G01 X35.7078 Y6.0816
G01 X35.7028 Y6.0966
G01 X35.6986 Y6.1117
G01 X35.6750 Y6.2060
G01 X35.6716 Y6.2213
G01 X35.6689 Y6.2368
G01 X35.6546 Y6.3330
G01 X35.6527 Y6.3485
G01 X35.6516 Y6.3642
G01 X35.6468 Y6.4613
G01 X35.6464 Y6.4770
G01 X35.6468 Y6.4927
G01 X35.6516 Y6.5898
G01 X35.6527 Y6.6055
G01 X35.6546 Y6.6210
G01 X35.6689 Y6.7172
G01 X35.6716 Y6.7327
G01 X35.6750 Y6.7480
G01 X35.6986 Y6.8423
G01 X35.7028 Y6.8574
G01 X35.7078 Y6.8724
G01 X35.7405 Y6.9639
G01 X35.7462 Y6.9785
G01 X35.7525 Y6.9929
G01 X35.7941 Y7.0808
G01 X35.8012 Y7.0948
G01 X35.8089 Y7.1085
G01 X35.8589 Y7.1919
G01 X35.8673 Y7.2051
G01 X35.8763 Y7.2180
G01 X35.9342 Y7.2961
G01 X35.9490 Y7.3144
G01 X36.0194 Y7.3924
G01 X36.0303 Y7.4037
G01 X36.0416 Y7.4146
G01 X36.1137 Y7.4798
G01 X36.1256 Y7.4901
G01 X36.1379 Y7.4998
G01 X36.2160 Y7.5577
G01 X36.2355 Y7.5710
G01 X36.3255 Y7.6251
G01 X36.3392 Y7.6328
G01 X36.3532 Y7.6399
G01 X36.4482 Y7.6847
G01 X36.4701 Y7.6935
G01 X36.5691 Y7.7288
G01 X36.5917 Y7.7354
G01 X36.6382 Y7.7470
G01 X36.5917 Y7.7586
G01 X36.5691 Y7.7652
G01 X36.4701 Y7.8005
G01 X36.4482 Y7.8093
G01 X36.3532 Y7.8541
G01 X36.3392 Y7.8612
G01 X36.3255 Y7.8689
G01 X36.2421 Y7.9189
G01 X36.2224 Y7.9317
G01 X36.1379 Y7.9942
G01 X36.1256 Y8.0039
G01 X36.1137 Y8.0142
G01 X36.0416 Y8.0794
G01 X36.0303 Y8.0903
G01 X36.0194 Y8.1016
G01 X35.9542 Y8.1737
G01 X35.9439 Y8.1856
G01 X35.9342 Y8.1979
G01 X35.8717 Y8.2824
G01 X35.8589 Y8.3021
G01 X35.8089 Y8.3855
G01 X35.8012 Y8.3992
G01 X35.7941 Y8.4132
G01 X35.7525 Y8.5011
G01 X35.7462 Y8.5155
G01 X35.7405 Y8.5301
G01 X35.7078 Y8.6216
G01 X35.7028 Y8.6366
G01 X35.6986 Y8.6517
G01 X35.6750 Y8.7460
G01 X35.6716 Y8.7613
G01 X35.6689 Y8.7768
G01 X35.6546 Y8.8730
G01 X35.6527 Y8.8885
G01 X35.6516 Y8.9042
G01 X35.6468 Y9.0013
G01 X35.6464 Y9.0170
G01 X35.6468 Y9.0327
G01 X35.6516 Y9.1298
G01 X35.6527 Y9.1455
G01 X35.6546 Y9.1610
G01 X35.6689 Y9.2572
G01 X35.6716 Y9.2727
G01 X35.6750 Y9.2880
G01 X35.6986 Y9.3823
G01 X35.7028 Y9.3974
G01 X35.7078 Y9.4124
G01 X35.7405 Y9.5039
G01 X35.7462 Y9.5185
G01 X35.7525 Y9.5329
G01 X35.7941 Y9.6208
G01 X35.8012 Y9.6348
G01 X35.8089 Y9.6485
G01 X35.8589 Y9.7319
G01 X35.8673 Y9.7451
G01 X35.8763 Y9.7580
G01 X35.9342 Y9.8361
G01 X35.9490 Y9.8544
G01 X36.0194 Y9.9324
G01 X36.0303 Y9.9437
G01 X36.0416 Y9.9546
G01 X36.1137 Y10.0198
G01 X36.1256 Y10.0301
G01 X36.1379 Y10.0398
G01 X36.2160 Y10.0977
G01 X36.2355 Y10.1110
G01 X36.3255 Y10.1651
G01 X36.3392 Y10.1728
G01 X36.3532 Y10.1799
G01 X36.4482 Y10.2247
G01 X36.4701 Y10.2335
G01 X36.5691 Y10.2688
G01 X36.5917 Y10.2754
G01 X36.6382 Y10.2870
G01 X36.5917 Y10.2986
G01 X36.5691 Y10.3052
G01 X36.4627 Y10.3432
G01 X36.4411 Y10.3525
G01 X36.3462 Y10.3975
G01 X36.3255 Y10.4089
G01 X36.2421 Y10.4589
G01 X36.2289 Y10.4673
G01 X36.2160 Y10.4763
G01 X36.1317 Y10.5390
G01 X36.1137 Y10.5542
G01 X36.0416 Y10.6194
G01 X36.0303 Y10.6303
G01 X36.0194 Y10.6416
G01 X35.9542 Y10.7137
G01 X35.9439 Y10.7256
G01 X35.9342 Y10.7379
G01 X35.8763 Y10.8160
G01 X35.8673 Y10.8289
G01 X35.8589 Y10.8421
G01 X35.8051 Y10.9320
G01 X32.5020 Y10.9320
G01 X32.5019 Y9.0424
G01 X32.5002 Y8.9964
G01 X32.4982 Y8.9744
G01 X32.4927 Y8.9355
G01 X32.4886 Y8.9139
G01 X32.4814 Y8.8844
G01 X32.4769 Y8.8671
G01 X32.4730 Y8.8545
G01 X32.4600 Y8.8175
G01 X32.4517 Y8.7970
G01 X32.4352 Y8.7614
G01 X32.4292 Y8.7497
G01 X32.4096 Y8.7157
G01 X32.3978 Y8.6970
G01 X32.3750 Y8.6651
G01 X32.3641 Y8.6509
G01 X32.3558 Y8.6408
G01 X32.3296 Y8.6115
G01 X32.3141 Y8.5958
G01 X32.2852 Y8.5692
G01 X32.2682 Y8.5551
G01 X32.2440 Y8.5368
G01 X32.2295 Y8.5263
G01 X32.2185 Y8.5191
G01 X32.1850 Y8.4987
G01 X32.1656 Y8.4881
G01 X32.1302 Y8.4711
G01 X32.1182 Y8.4659
G01 X32.0814 Y8.4520
G01 X32.0605 Y8.4450
G01 X32.0226 Y8.4348
G01 X32.0052 Y8.4307
G01 X31.9834 Y8.4268
G01 X31.9446 Y8.4211
G01 X31.9226 Y8.4193
G01 X31.8856 Y8.4175
G01 X30.3437 Y8.3964
G01 X30.3254 Y8.3660
G01 X30.3167 Y8.3530
G01 X30.2568 Y8.2723
G01 X30.2417 Y8.2542
G01 X30.1794 Y8.1857
G01 X30.1626 Y8.1692
G01 X30.0998 Y8.1123
G01 X30.0879 Y8.1021
G01 X30.0755 Y8.0924
G01 X30.0010 Y8.0373
G01 X29.9813 Y8.0245
G01 X29.9086 Y7.9809
G01 X29.8949 Y7.9732
G01 X29.8809 Y7.9661
G01 X29.8043 Y7.9299
G01 X29.7899 Y7.9235
G01 X29.7753 Y7.9178
G01 X29.6955 Y7.8893
G01 X29.6806 Y7.8844
G01 X29.6654 Y7.8802
G01 X29.5832 Y7.8596
G01 X29.5679 Y7.8561
G01 X29.5524 Y7.8535
G01 X29.4686 Y7.8410
G01 X29.4530 Y7.8391
G01 X29.4373 Y7.8379
G01 X29.3527 Y7.8338
G01 X29.3370 Y7.8334
G01 X29.3213 Y7.8338
G01 X29.2367 Y7.8379
G01 X29.2210 Y7.8391
G01 X29.2054 Y7.8410
G01 X29.1216 Y7.8535
G01 X29.1061 Y7.8561
G01 X29.0908 Y7.8596
G01 X29.0086 Y7.8802
G01 X28.9934 Y7.8844
G01 X28.9785 Y7.8893
G01 X28.8987 Y7.9178
G01 X28.8841 Y7.9235
G01 X28.8697 Y7.9299
G01 X28.7931 Y7.9661
G01 X28.7791 Y7.9732
G01 X28.7654 Y7.9809
G01 X28.6927 Y8.0245
G01 X28.6794 Y8.0329
G01 X28.6666 Y8.0419
G01 X28.5985 Y8.0924
G01 X28.5861 Y8.1021
G01 X28.5742 Y8.1123
G01 X28.5114 Y8.1692
G01 X28.5001 Y8.1801
G01 X28.4892 Y8.1914
G01 X28.4323 Y8.2542
G01 X28.4221 Y8.2661
G01 X28.4124 Y8.2785
G01 X28.3619 Y8.3466
G01 X28.3529 Y8.3594
G01 X28.3445 Y8.3727
G01 X28.3009 Y8.4454
G01 X28.2932 Y8.4591
G01 X28.2861 Y8.4731
G01 X28.2499 Y8.5497
G01 X28.2435 Y8.5641
G01 X28.2378 Y8.5787
G01 X28.2093 Y8.6585
G01 X28.2044 Y8.6734
G01 X28.2002 Y8.6886
G01 X28.1796 Y8.7708
G01 X28.1761 Y8.7861
G01 X28.1735 Y8.8016
G01 X28.1610 Y8.8854
G01 X28.1591 Y8.9010
G01 X28.1579 Y8.9167
G01 X28.1538 Y9.0013
G01 X28.1534 Y9.0170
G01 X28.1538 Y9.0327
G01 X28.1579 Y9.1173
G01 X28.1591 Y9.1330
G01 X28.1610 Y9.1486
G01 X28.1735 Y9.2324
G01 X28.1761 Y9.2479
G01 X28.1796 Y9.2632
G01 X28.2002 Y9.3454
G01 X28.2044 Y9.3606
G01 X28.2093 Y9.3755
G01 X28.2378 Y9.4553
G01 X28.2466 Y9.4772
G01 X28.2861 Y9.5609
G01 X28.2932 Y9.5749
G01 X28.3009 Y9.5886
G01 X28.3445 Y9.6613
G01 X28.3529 Y9.6746
G01 X28.3619 Y9.6874
G01 X28.4124 Y9.7555
G01 X28.4221 Y9.7679
G01 X28.4323 Y9.7798
G01 X28.4892 Y9.8426
G01 X28.5001 Y9.8539
G01 X28.5114 Y9.8648
G01 X28.5742 Y9.9217
G01 X28.5861 Y9.9319
G01 X28.5985 Y9.9416
G01 X28.6666 Y9.9921
G01 X28.6794 Y10.0011
G01 X28.6927 Y10.0095
G01 X28.7654 Y10.0531
G01 X28.7791 Y10.0608
G01 X28.7931 Y10.0679
G01 X28.8697 Y10.1041
G01 X28.8841 Y10.1105
G01 X28.8987 Y10.1162
G01 X28.9785 Y10.1447
G01 X28.9934 Y10.1496
G01 X29.0086 Y10.1538
G01 X29.0984 Y10.1762
G01 X29.1216 Y10.1805
G01 X29.2054 Y10.1930
G01 X29.2210 Y10.1949
G01 X29.2367 Y10.1961
G01 X29.3213 Y10.2002
G01 X29.3370 Y10.2006
G01 X29.3527 Y10.2002
G01 X29.4373 Y10.1961
G01 X29.4530 Y10.1949
G01 X29.4686 Y10.1930
G01 X29.5524 Y10.1805
G01 X29.5679 Y10.1779
G01 X29.5832 Y10.1744
G01 X29.6654 Y10.1538
G01 X29.6806 Y10.1496
G01 X29.6955 Y10.1447
G01 X29.7753 Y10.1162
G01 X29.7899 Y10.1105
G01 X29.8043 Y10.1041
G01 X29.8880 Y10.0645
G01 X29.9086 Y10.0531
G01 X29.9813 Y10.0095
G01 X29.9946 Y10.0011
G01 X30.0074 Y9.9921
G01 X30.0755 Y9.9416
G01 X30.0879 Y9.9319
G01 X30.0998 Y9.9217
G01 X30.1626 Y9.8648
G01 X30.1739 Y9.8539
G01 X30.1848 Y9.8426
G01 X30.2417 Y9.7798
G01 X30.2519 Y9.7679
G01 X30.2616 Y9.7555
G01 X30.3167 Y9.6810
G01 X30.3254 Y9.6680
G01 X30.3385 Y9.6463
G01 X31.2520 Y9.6588
G01 X31.2521 Y11.5570
G01 X31.2524 Y11.5727
G01 X31.2539 Y11.6026
G01 X31.2551 Y11.6183
G01 X31.2570 Y11.6338
G01 X31.2614 Y11.6634
G01 X31.2657 Y11.6866
G01 X31.2748 Y11.7233
G01 X31.2790 Y11.7384
G01 X31.2839 Y11.7533
G01 X31.2940 Y11.7815
G01 X31.3027 Y11.8034
G01 X31.3188 Y11.8376
G01 X31.3258 Y11.8516
G01 X31.3336 Y11.8653
G01 X31.3490 Y11.8909
G01 X31.3618 Y11.9107
G01 X31.3842 Y11.9411
G01 X31.3939 Y11.9535
G01 X31.4042 Y11.9654
G01 X31.4296 Y11.9933
G01 X31.4465 Y12.0097
G01 X31.4686 Y12.0298
G01 X31.4805 Y12.0401
G01 X31.4929 Y12.0498
G01 X31.5170 Y12.0676
G01 X31.5364 Y12.0809
G01 X31.5687 Y12.1004
G01 X31.5824 Y12.1082
G01 X31.5964 Y12.1152
G01 X31.6235 Y12.1280
G01 X31.6451 Y12.1373
G01 X31.6807 Y12.1501
G01 X31.6956 Y12.1550
G01 X31.7107 Y12.1592
G01 X31.7398 Y12.1665
G01 X31.7551 Y12.1699
G01 X31.7706 Y12.1726
G01 X31.8002 Y12.1770
G01 X31.8157 Y12.1789
G01 X31.8314 Y12.1801
G01 X31.8613 Y12.1816
G01 X31.8770 Y12.1819
G01 X35.8051 Y12.1819
G01 X35.8589 Y12.2719
G01 X35.8673 Y12.2851
G01 X35.8763 Y12.2980
G01 X35.9342 Y12.3761
G01 X35.9439 Y12.3884
G01 X35.9542 Y12.4003
G01 X36.0194 Y12.4724
G01 X36.0303 Y12.4837
G01 X36.0416 Y12.4946
G01 X36.1137 Y12.5598
G01 X36.1256 Y12.5701
G01 X36.1379 Y12.5798
G01 X36.2160 Y12.6377
G01 X36.2289 Y12.6467
G01 X36.2421 Y12.6551
G01 X36.3255 Y12.7051
G01 X36.3392 Y12.7128
G01 X36.3532 Y12.7199
G01 X36.4411 Y12.7615
G01 X36.4555 Y12.7678
G01 X36.4701 Y12.7735
G01 X36.5616 Y12.8062
G01 X36.5766 Y12.8112
G01 X36.5917 Y12.8154
G01 X36.6860 Y12.8390
G01 X36.7013 Y12.8424
G01 X36.7168 Y12.8451
G01 X36.8130 Y12.8594
G01 X36.8285 Y12.8613
G01 X36.8442 Y12.8624
G01 X36.9413 Y12.8672
G01 X36.9570 Y12.8676
G01 X36.9727 Y12.8672
G01 X37.0698 Y12.8624
G01 X37.0855 Y12.8613
G01 X37.1010 Y12.8594
G01 X37.1972 Y12.8451
G01 X37.2127 Y12.8424
G01 X37.2280 Y12.8390
G01 X37.3223 Y12.8154
G01 X37.3374 Y12.8112
G01 X37.3524 Y12.8062
G01 X37.4439 Y12.7735
G01 X37.4585 Y12.7678
G01 X37.4729 Y12.7615
G01 X37.5608 Y12.7199
G01 X37.5748 Y12.7128
G01 X37.5885 Y12.7051
G01 X37.6719 Y12.6551
G01 X37.6851 Y12.6467
G01 X37.6980 Y12.6377
G01 X37.7761 Y12.5798
G01 X37.7884 Y12.5701
G01 X37.8003 Y12.5598
G01 X37.8724 Y12.4946
G01 X37.8837 Y12.4837
G01 X37.8946 Y12.4724
G01 X37.9598 Y12.4003
G01 X37.9701 Y12.3884
G01 X37.9798 Y12.3761
G01 X38.0377 Y12.2980
G01 X38.0467 Y12.2851
G01 X38.0551 Y12.2719
G01 X38.1051 Y12.1885
G01 X38.1128 Y12.1748
G01 X38.1199 Y12.1608
G01 X38.1615 Y12.0729
G01 X38.1678 Y12.0585
G01 X38.1735 Y12.0439
G01 X38.2062 Y11.9524
G01 X38.2112 Y11.9374
G01 X38.2154 Y11.9223
G01 X38.2390 Y11.8280
G01 X38.2424 Y11.8127
G01 X38.2451 Y11.7972
G01 X38.2594 Y11.7010
G01 X38.2613 Y11.6855
G01 X38.2624 Y11.6698
G01 X38.2672 Y11.5727
G01 X38.2676 Y11.5570
G01 X38.2672 Y11.5413
G01 X38.2624 Y11.4442
G01 X38.2613 Y11.4285
G01 X38.2594 Y11.4130
G01 X38.2451 Y11.3168
G01 X38.2424 Y11.3013
G01 X38.2390 Y11.2860
G01 X38.2154 Y11.1917
G01 X38.2112 Y11.1766
G01 X38.2062 Y11.1616
G01 X38.1735 Y11.0701
G01 X38.1678 Y11.0555
G01 X38.1615 Y11.0411
G01 X38.1199 Y10.9532
G01 X38.1091 Y10.9323
G01 X38.0551 Y10.8421
G01 X38.0467 Y10.8289
G01 X38.0377 Y10.8160
G01 X37.9798 Y10.7379
G01 X37.9701 Y10.7256
G01 X37.9598 Y10.7137
G01 X37.8946 Y10.6416
G01 X37.8837 Y10.6303
G01 X37.8724 Y10.6194
G01 X37.8003 Y10.5542
G01 X37.7823 Y10.5390
G01 X37.6980 Y10.4763
G01 X37.6851 Y10.4673
G01 X37.6719 Y10.4589
G01 X37.5885 Y10.4089
G01 X37.5678 Y10.3975
G01 X37.4729 Y10.3525
G01 X37.4513 Y10.3432
G01 X37.3449 Y10.3052
G01 X37.3223 Y10.2986
G01 X37.2758 Y10.2870
G01 X37.3223 Y10.2754
G01 X37.3449 Y10.2688
G01 X37.4513 Y10.2308
G01 X37.4729 Y10.2215
G01 X37.5678 Y10.1765
G01 X37.5885 Y10.1651
G01 X37.6719 Y10.1151
G01 X37.6851 Y10.1067
G01 X37.6980 Y10.0977
G01 X37.7823 Y10.0350
G01 X37.8003 Y10.0198
G01 X37.8724 Y9.9546
G01 X37.8837 Y9.9437
G01 X37.8946 Y9.9324
G01 X37.9598 Y9.8603
G01 X37.9701 Y9.8484
G01 X37.9798 Y9.8361
G01 X38.0377 Y9.7580
G01 X38.0467 Y9.7451
G01 X38.0551 Y9.7319
G01 X38.1102 Y9.6397
G01 X41.4333 Y9.6202
G01 X41.3908 Y16.0120
G01 X29.9454 Y16.0121
G01 X29.9577 Y15.1037
G01 X29.9880 Y15.0854
G01 X30.0010 Y15.0767
G01 X30.0755 Y15.0216
G01 X30.0939 Y15.0069
G01 X30.1626 Y14.9448
G01 X30.1739 Y14.9339
G01 X30.1848 Y14.9226
G01 X30.2469 Y14.8539
G01 X30.2616 Y14.8355
G01 X30.3121 Y14.7674
G01 X30.3211 Y14.7546
G01 X30.3295 Y14.7413
G01 X30.3731 Y14.6686
G01 X30.3808 Y14.6549
G01 X30.3879 Y14.6409
G01 X30.4274 Y14.5572
G01 X30.4362 Y14.5353
G01 X30.4647 Y14.4555
G01 X30.4696 Y14.4406
G01 X30.4738 Y14.4254
G01 X30.4944 Y14.3432
G01 X30.4979 Y14.3279
G01 X30.5005 Y14.3124
G01 X30.5130 Y14.2286
G01 X30.5149 Y14.2130
G01 X30.5161 Y14.1973
G01 X30.5202 Y14.1127
G01 X30.5206 Y14.0970
G01 X30.5202 Y14.0813
G01 X30.5161 Y13.9967
G01 X30.5149 Y13.9810
G01 X30.5130 Y13.9654
G01 X30.5005 Y13.8816
G01 X30.4979 Y13.8661
G01 X30.4944 Y13.8508
G01 X30.4738 Y13.7686
G01 X30.4696 Y13.7534
G01 X30.4647 Y13.7385
G01 X30.4362 Y13.6587
G01 X30.4274 Y13.6368
G01 X30.3879 Y13.5531
G01 X30.3808 Y13.5391
G01 X30.3731 Y13.5254
G01 X30.3295 Y13.4527
G01 X30.3211 Y13.4394
G01 X30.3121 Y13.4266
G01 X30.2616 Y13.3585
G01 X30.2519 Y13.3461
G01 X30.2417 Y13.3342
G01 X30.1848 Y13.2714
G01 X30.1739 Y13.2601
G01 X30.1626 Y13.2492
G01 X30.0998 Y13.1923
G01 X30.0879 Y13.1821
G01 X30.0755 Y13.1724
G01 X30.0074 Y13.1219
G01 X29.9946 Y13.1129
G01 X29.9813 Y13.1045
G01 X29.9086 Y13.0609
G01 X29.8949 Y13.0532
G01 X29.8809 Y13.0461
G01 X29.8043 Y13.0099
G01 X29.7899 Y13.0035
G01 X29.7753 Y12.9978
G01 X29.6955 Y12.9693
G01 X29.6806 Y12.9644
G01 X29.6654 Y12.9602
G01 X29.5756 Y12.9378
G01 X29.5524 Y12.9335
G01 X29.4686 Y12.9210
G01 X29.4530 Y12.9191
G01 X29.4373 Y12.9179
G01 X29.3527 Y12.9138
G01 X29.3370 Y12.9134
G01 X29.3213 Y12.9138
G01 X29.2367 Y12.9179
G01 X29.2210 Y12.9191
G01 X29.2054 Y12.9210
G01 X29.1216 Y12.9335
G01 X29.1061 Y12.9361
G01 X29.0908 Y12.9396
G01 X29.0086 Y12.9602
G01 X28.9934 Y12.9644
G01 X28.9785 Y12.9693
G01 X28.8987 Y12.9978
G01 X28.8768 Y13.0066
G01 X28.7931 Y13.0461
G01 X28.7791 Y13.0532
G01 X28.7654 Y13.0609
G01 X28.6927 Y13.1045
G01 X28.6794 Y13.1129
G01 X28.6666 Y13.1219
G01 X28.5985 Y13.1724
G01 X28.5861 Y13.1821
G01 X28.5742 Y13.1923
G01 X28.5114 Y13.2492
G01 X28.5001 Y13.2601
G01 X28.4892 Y13.2714
G01 X28.4323 Y13.3342
G01 X28.4221 Y13.3461
G01 X28.4124 Y13.3585
G01 X28.3619 Y13.4266
G01 X28.3529 Y13.4394
G01 X28.3445 Y13.4527
G01 X28.3009 Y13.5254
G01 X28.2932 Y13.5391
G01 X28.2861 Y13.5531
G01 X28.2466 Y13.6368
G01 X28.2378 Y13.6587
G01 X28.2093 Y13.7385
G01 X28.2044 Y13.7534
G01 X28.2002 Y13.7686
G01 X28.1796 Y13.8508
G01 X28.1761 Y13.8661
G01 X28.1735 Y13.8816
G01 X28.1610 Y13.9654
G01 X28.1591 Y13.9810
G01 X28.1579 Y13.9967
G01 X28.1538 Y14.0813
G01 X28.1534 Y14.0970
G01 X28.1538 Y14.1127
G01 X28.1579 Y14.1973
G01 X28.1591 Y14.2130
G01 X28.1610 Y14.2286
G01 X28.1735 Y14.3124
G01 X28.1761 Y14.3279
G01 X28.1796 Y14.3432
G01 X28.2002 Y14.4254
G01 X28.2044 Y14.4406
G01 X28.2093 Y14.4555
G01 X28.2378 Y14.5353
G01 X28.2466 Y14.5572
G01 X28.2861 Y14.6409
G01 X28.2932 Y14.6549
G01 X28.3009 Y14.6686
G01 X28.3445 Y14.7413
G01 X28.3529 Y14.7546
G01 X28.3619 Y14.7674
G01 X28.4124 Y14.8355
G01 X28.4271 Y14.8539
G01 X28.4892 Y14.9226
G01 X28.5001 Y14.9339
G01 X28.5114 Y14.9448
G01 X28.5801 Y15.0069
G01 X28.5985 Y15.0216
G01 X28.6730 Y15.0767
G01 X28.6860 Y15.0854
G01 X28.7077 Y15.0985
G01 X28.6948 Y16.0367
G01 X9.0178 Y16.0121
G01 X4.5620 Y16.0121
G01 X4.5619 Y7.6289
G01 X4.6519 Y7.5751
G01 X4.6651 Y7.5667
G01 X4.6780 Y7.5577
G01 X4.7561 Y7.4998
G01 X4.7684 Y7.4901
G01 X4.7803 Y7.4798
G01 X4.8524 Y7.4146
G01 X4.8637 Y7.4037
G01 X4.8746 Y7.3924
G01 X4.9398 Y7.3203
G01 X4.9501 Y7.3084
G01 X4.9598 Y7.2961
G01 X5.0177 Y7.2180
G01 X5.0267 Y7.2051
G01 X5.0351 Y7.1919
G01 X5.0851 Y7.1085
G01 X5.0919 Y7.0965
G01 X6.5050 Y7.0766
G01 X10.4038 Y7.0996
G01 X10.4589 Y7.1919
G01 X10.4673 Y7.2051
G01 X10.4763 Y7.2180
G01 X10.5342 Y7.2961
G01 X10.5439 Y7.3084
G01 X10.5542 Y7.3203
G01 X10.6194 Y7.3924
G01 X10.6303 Y7.4037
G01 X10.6416 Y7.4146
G01 X10.7137 Y7.4798
G01 X10.7317 Y7.4950
G01 X10.8160 Y7.5577
G01 X10.8289 Y7.5667
G01 X10.8421 Y7.5751
G01 X10.9255 Y7.6251
G01 X10.9462 Y7.6365
G01 X11.0411 Y7.6815
G01 X11.0627 Y7.6908
G01 X11.1691 Y7.7288
G01 X11.1917 Y7.7354
G01 X11.2382 Y7.7470
G00 Z2.0000
G00 X12.5335 Y11.9132
G01 F60.00
G01 Z-0.0000
G01 F120.00
G01 X12.5179 Y11.9563
G01 X12.4753 Y12.0464
G01 X12.4229 Y12.1341
G01 X12.3614 Y12.2171
G01 X12.2937 Y12.2919
G01 X12.2171 Y12.3614
G01 X12.1351 Y12.4222
G01 X12.0475 Y12.4747
G01 X11.9563 Y12.5179
G01 X11.8591 Y12.5528
G01 X11.7600 Y12.5776
G01 X11.6590 Y12.5926
G01 X11.5570 Y12.5976
G01 X11.4550 Y12.5926
G01 X11.3540 Y12.5776
G01 X11.2549 Y12.5528
G01 X11.1599 Y12.5188
G01 X11.0665 Y12.4747
G01 X10.9789 Y12.4222
G01 X10.8969 Y12.3614
G01 X10.8212 Y12.2928
G01 X10.7526 Y12.2171
G01 X10.6918 Y12.1351
G01 X10.6393 Y12.0475
G01 X10.5956 Y11.9552
G01 X10.5612 Y11.8591
G01 X10.5364 Y11.7600
G01 X10.5214 Y11.6590
G01 X10.5164 Y11.5570
G01 X10.5214 Y11.4550
G01 X10.5364 Y11.3540
G01 X10.5612 Y11.2549
G01 X10.5952 Y11.1599
G01 X10.6405 Y11.0643
G01 X10.6918 Y10.9789
G01 X10.7526 Y10.8969
G01 X10.8212 Y10.8212
G01 X10.8950 Y10.7542
G01 X10.9789 Y10.6918
G01 X11.0687 Y10.6382
G01 X11.1588 Y10.5956
G01 X11.2549 Y10.5612
G01 X11.3564 Y10.5360
G01 X11.4550 Y10.5214
G01 X11.5545 Y10.5165
G01 X11.6614 Y10.5217
G01 X11.7600 Y10.5364
G01 X11.8591 Y10.5612
G01 X11.9552 Y10.5956
G01 X12.0453 Y10.6382
G01 X12.1361 Y10.6925
G01 X12.2171 Y10.7526
G01 X12.2910 Y10.8195
G01 X12.3622 Y10.8978
G01 X12.4222 Y10.9789
G01 X12.4741 Y11.0654
G01 X12.5179 Y11.1577
G01 X12.5344 Y11.2033
G01 X16.6624 Y11.2274
G01 X20.8750 Y11.2030
G01 X20.9113 Y11.1263
G01 X20.9561 Y11.0515
G01 X21.0108 Y10.9774
G01 X21.0710 Y10.9110
G01 X21.1356 Y10.8524
G01 X21.2094 Y10.7974
G01 X21.2885 Y10.7502
G01 X21.3674 Y10.7129
G01 X21.4518 Y10.6827
G01 X21.5388 Y10.6610
G01 X21.6250 Y10.6481
G01 X21.7182 Y10.6434
G01 X21.8065 Y10.6478
G01 X21.8952 Y10.6610
G01 X21.9822 Y10.6827
G01 X22.0666 Y10.7129
G01 X22.1477 Y10.7513
G01 X22.2246 Y10.7974
G01 X22.2966 Y10.8508
G01 X22.3630 Y10.9110
G01 X22.4232 Y10.9774
G01 X22.4766 Y11.0494
G01 X22.5227 Y11.1263
G01 X22.5611 Y11.2074
G01 X22.5913 Y11.2918
G01 X22.6130 Y11.3788
G01 X22.6262 Y11.4675
G01 X22.6306 Y11.5558
G01 X22.6262 Y11.6465
G01 X22.6130 Y11.7352
G01 X22.5913 Y11.8222
G01 X22.5611 Y11.9066
G01 X22.5227 Y11.9877
G01 X22.4766 Y12.0646
G01 X22.4232 Y12.1366
G01 X22.3630 Y12.2030
G01 X22.2966 Y12.2632
G01 X22.2246 Y12.3166
G01 X22.1477 Y12.3627
G01 X22.0666 Y12.4011
G01 X21.9822 Y12.4313
G01 X21.8952 Y12.4530
G01 X21.8065 Y12.4662
G01 X21.7182 Y12.4706
G01 X21.6250 Y12.4659
G01 X21.5388 Y12.4530
G01 X21.4518 Y12.4313
G01 X21.3651 Y12.4001
G01 X21.2863 Y12.3627
G01 X21.2094 Y12.3166
G01 X21.1356 Y12.2616
G01 X21.0710 Y12.2030
G01 X21.0108 Y12.1366
G01 X20.9561 Y12.0625
G01 X20.9113 Y11.9877
G01 X20.8758 Y11.9129
G01 X16.6645 Y11.9373
G01 X12.5335 Y11.9132
G00 Z2.0000
G00 X12.5951 Y12.0036
G01 F60.00
G01 Z-0.0000
G01 F120.00
G01 X12.5541 Y12.0900
G01 X12.4971 Y12.1851
G01 X12.4310 Y12.2742
G01 X12.3565 Y12.3565
G01 X12.2742 Y12.4310
G01 X12.1851 Y12.4971
G01 X12.0900 Y12.5541
G01 X11.9897 Y12.6015
G01 X11.8852 Y12.6389
G01 X11.7776 Y12.6659
G01 X11.6678 Y12.6822
G01 X11.5570 Y12.6876
G01 X11.4462 Y12.6822
G01 X11.3364 Y12.6659
G01 X11.2288 Y12.6389
G01 X11.1243 Y12.6015
G01 X11.0240 Y12.5541
G01 X10.9289 Y12.4971
G01 X10.8398 Y12.4310
G01 X10.7575 Y12.3565
G01 X10.6830 Y12.2742
G01 X10.6169 Y12.1851
G01 X10.5599 Y12.0900
G01 X10.5125 Y11.9897
G01 X10.4751 Y11.8852
G01 X10.4481 Y11.7776
G01 X10.4318 Y11.6678
G01 X10.4264 Y11.5570
G01 X10.4318 Y11.4462
G01 X10.4481 Y11.3364
G01 X10.4751 Y11.2288
G01 X10.5125 Y11.1243
G01 X10.5568 Y11.0302
G01 X10.5633 Y11.0181
G01 X10.6169 Y10.9289
G01 X10.6830 Y10.8398
G01 X10.7528 Y10.7625
G01 X10.7625 Y10.7528
G01 X10.8398 Y10.6830
G01 X10.9233 Y10.6209
G01 X10.9347 Y10.6133
G01 X11.0181 Y10.5633
G01 X11.0302 Y10.5568
G01 X11.1243 Y10.5125
G01 X11.2223 Y10.4772
G01 X11.2354 Y10.4733
G01 X11.3364 Y10.4481
G01 X11.4394 Y10.4327
G01 X11.4530 Y10.4313
G01 X11.5570 Y10.4264
G01 X11.6610 Y10.4313
G01 X11.6746 Y10.4327
G01 X11.7776 Y10.4481
G01 X11.8852 Y10.4751
G01 X11.9832 Y10.5100
G01 X11.9959 Y10.5152
G01 X12.0838 Y10.5568
G01 X12.0959 Y10.5633
G01 X12.1851 Y10.6169
G01 X12.2688 Y10.6788
G01 X12.2794 Y10.6875
G01 X12.3515 Y10.7528
G01 X12.3612 Y10.7625
G01 X12.4310 Y10.8398
G01 X12.4971 Y10.9289
G01 X12.5541 Y11.0240
G01 X12.5967 Y11.1137
G01 X16.6624 Y11.1374
G01 X20.8178 Y11.1133
G01 X20.8288 Y11.0900
G01 X20.8336 Y11.0809
G01 X20.8807 Y11.0023
G01 X20.8865 Y10.9938
G01 X20.9370 Y10.9257
G01 X20.9434 Y10.9177
G01 X21.0073 Y10.8473
G01 X21.0751 Y10.7857
G01 X21.0857 Y10.7770
G01 X21.1538 Y10.7265
G01 X21.1623 Y10.7207
G01 X21.2439 Y10.6719
G01 X21.3267 Y10.6326
G01 X21.3394 Y10.6273
G01 X21.4257 Y10.5966
G01 X21.5212 Y10.5727
G01 X21.6118 Y10.5591
G01 X21.6255 Y10.5577
G01 X21.7101 Y10.5536
G01 X21.7204 Y10.5534
G01 X21.8154 Y10.5582
G01 X21.9128 Y10.5727
G01 X22.0083 Y10.5966
G01 X22.1011 Y10.6298
G01 X22.1901 Y10.6719
G01 X22.2746 Y10.7225
G01 X22.3537 Y10.7812
G01 X22.4267 Y10.8473
G01 X22.4928 Y10.9203
G01 X22.5515 Y10.9994
G01 X22.6021 Y11.0839
G01 X22.6442 Y11.1729
G01 X22.6774 Y11.2657
G01 X22.7013 Y11.3612
G01 X22.7158 Y11.4586
G01 X22.7204 Y11.5501
G01 X22.7204 Y11.5639
G01 X22.7158 Y11.6554
G01 X22.7013 Y11.7528
G01 X22.6774 Y11.8483
G01 X22.6442 Y11.9411
G01 X22.6021 Y12.0301
G01 X22.5515 Y12.1146
G01 X22.4928 Y12.1937
G01 X22.4267 Y12.2667
G01 X22.3537 Y12.3328
G01 X22.2746 Y12.3915
G01 X22.1901 Y12.4421
G01 X22.1011 Y12.4842
G01 X22.0083 Y12.5174
G01 X21.9128 Y12.5413
G01 X21.8154 Y12.5558
G01 X21.7239 Y12.5604
G01 X21.7101 Y12.5604
G01 X21.6255 Y12.5563
G01 X21.6118 Y12.5549
G01 X21.5212 Y12.5413
G01 X21.4257 Y12.5174
G01 X21.3394 Y12.4867
G01 X21.3267 Y12.4814
G01 X21.2439 Y12.4421
G01 X21.1652 Y12.3951
G01 X21.1538 Y12.3875
G01 X21.0857 Y12.3370
G01 X21.0751 Y12.3283
G01 X21.0073 Y12.2667
G01 X20.9434 Y12.1963
G01 X20.9370 Y12.1883
G01 X20.8865 Y12.1202
G01 X20.8807 Y12.1117
G01 X20.8336 Y12.0331
G01 X20.8288 Y12.0240
G01 X20.8190 Y12.0032
G01 X16.6650 Y12.0273
G01 X12.5951 Y12.0036
G00 Z2.0000
G00 X12.6520 Y12.0939
G01 F60.00
G01 Z-0.0000
G01 F120.00
G01 X12.6361 Y12.1274
G01 X12.6307 Y12.1373
G01 X12.5750 Y12.2304
G01 X12.5654 Y12.2444
G01 X12.5041 Y12.3269
G01 X12.4932 Y12.3399
G01 X12.4201 Y12.4201
G01 X12.4119 Y12.4279
G01 X12.3357 Y12.4969
G01 X12.3224 Y12.5075
G01 X12.2351 Y12.5719
G01 X12.1422 Y12.6279
G01 X12.1324 Y12.6335
G01 X12.1223 Y12.6385
G01 X12.0241 Y12.6847
G01 X12.0136 Y12.6887
G01 X11.9167 Y12.7233
G01 X11.9004 Y12.7280
G01 X11.7951 Y12.7541
G01 X11.6878 Y12.7703
G01 X11.6766 Y12.7717
G01 X11.6654 Y12.7726
G01 X11.5570 Y12.7776
