(G-CODE GENERATED BY FLATCAM v8.994 - www.flatcam.org - Version Date: 2020/11/7)

(Name: csipesz_jelzo_receiver_drill.txt_cnc)
(Type: G-code from Geometry)
(Units: MM)

(Created on Tuesday, 03 August 2021 at 18:07)


G01 F60.00

M5
G00 Z15.0000
T1
G00 X0.0000 Y0.0000                
M6
(MSG, Change to Tool Dia = 0.8128 ||| Total drills for tool T1 = 17)
M0
G00 Z15.0000

G01 F60.00
M03
G00 X29.3345 Y6.4694
G01 Z-1.0000
G01 Z0
G00 Z2.0000
G00 X21.7145 Y6.4694
G01 Z-1.0000
G01 Z0
G00 Z2.0000
G00 X11.5545 Y6.4694
G01 Z-1.0000
G01 Z0
G00 Z2.0000
G00 X3.9294 Y6.4745
G01 Z-1.0000
G01 Z0
G00 Z2.0000
G00 X3.9294 Y3.9345
G01 Z-1.0000
G01 Z0
G00 Z2.0000
G00 X11.5545 Y9.0094
G01 Z-1.0000
G01 Z0
G00 Z2.0000
G00 X11.5545 Y11.5494
G01 Z-1.0000
G01 Z0
G00 Z2.0000
G00 X21.7145 Y9.0094
G01 Z-1.0000
G01 Z0
G00 Z2.0000
G00 X21.7145 Y11.5494
G01 Z-1.0000
G01 Z0
G00 Z2.0000
G00 X21.7145 Y14.0894
G01 Z-1.0000
G01 Z0
G00 Z2.0000
G00 X29.3345 Y14.0894
G01 Z-1.0000
G01 Z0
G00 Z2.0000
G00 X29.3345 Y11.5494
G01 Z-1.0000
G01 Z0
G00 Z2.0000
G00 X29.3345 Y9.0094
G01 Z-1.0000
G01 Z0
G00 Z2.0000
G00 X36.9545 Y11.5494
G01 Z-1.0000
G01 Z0
G00 Z2.0000
G00 X36.9545 Y9.0094
G01 Z-1.0000
G01 Z0
G00 Z2.0000
G00 X36.9545 Y6.4694
G01 Z-1.0000
G01 Z0
G00 Z2.0000
G00 X42.0294 Y3.9345
G01 Z-1.0000
G01 Z0
G00 Z2.0000
M05
G00 Z0.50


