(G-CODE GENERATED BY FLATCAM v8.994 - www.flatcam.org - Version Date: 2020/11/7)

(Name: csipesz_jelzo_receiver_contour.gm1_cutout_cnc)
(Type: G-code from Geometry)
(Units: MM)

(Created on Tuesday, 03 August 2021 at 18:02)


G01 F120.00

M5
G00 Z15.0000
G00 X0.0000 Y0.0000
T1
M6    
(MSG, Change to Tool Dia = 1.0000)
M0
G00 Z15.0000

M03
G01 F120.00
G00 X-0.5000 Y6.5000
G01 F60.00
G01 Z-0.6000
G01 F120.00
G01 X-0.5000 Y0.1016
G01 X-0.4990 Y0.0671
G01 X-0.4941 Y0.0183
G01 X-0.4927 Y0.0084
G01 X-0.4831 Y-0.0397
G01 X-0.4807 Y-0.0494
G01 X-0.4664 Y-0.0964
G01 X-0.4631 Y-0.1057
G01 X-0.4443 Y-0.1511
G01 X-0.4400 Y-0.1601
G01 X-0.4169 Y-0.2034
G01 X-0.4118 Y-0.2119
G01 X-0.3845 Y-0.2527
G01 X-0.3786 Y-0.2607
G01 X-0.3475 Y-0.2987
G01 X-0.3408 Y-0.3061
G01 X-0.3061 Y-0.3408
G01 X-0.2987 Y-0.3475
G01 X-0.2607 Y-0.3786
G01 X-0.2527 Y-0.3845
G01 X-0.2119 Y-0.4118
G01 X-0.2034 Y-0.4169
G01 X-0.1601 Y-0.4400
G01 X-0.1511 Y-0.4443
G01 X-0.1057 Y-0.4631
G01 X-0.0964 Y-0.4664
G01 X-0.0494 Y-0.4807
G01 X-0.0397 Y-0.4831
G01 X0.0084 Y-0.4927
G01 X0.0183 Y-0.4941
G01 X0.0671 Y-0.4990
G01 X0.1016 Y-0.5000
G01 X18.5000 Y-0.5000
G00 X18.5000 Y-0.5000
G01 F60.00
G01 Z-0.8000
G01 F120.00
G01 X0.1016 Y-0.5000
G01 X0.0671 Y-0.4990
G01 X0.0183 Y-0.4941
G01 X0.0084 Y-0.4927
G01 X-0.0397 Y-0.4831
G01 X-0.0494 Y-0.4807
G01 X-0.0964 Y-0.4664
G01 X-0.1057 Y-0.4631
G01 X-0.1511 Y-0.4443
G01 X-0.1601 Y-0.4400
G01 X-0.2034 Y-0.4169
G01 X-0.2119 Y-0.4118
G01 X-0.2527 Y-0.3845
G01 X-0.2607 Y-0.3786
G01 X-0.2987 Y-0.3475
G01 X-0.3061 Y-0.3408
G01 X-0.3408 Y-0.3061
G01 X-0.3475 Y-0.2987
G01 X-0.3786 Y-0.2607
G01 X-0.3845 Y-0.2527
G01 X-0.4118 Y-0.2119
G01 X-0.4169 Y-0.2034
G01 X-0.4400 Y-0.1601
G01 X-0.4443 Y-0.1511
G01 X-0.4631 Y-0.1057
G01 X-0.4664 Y-0.0964
G01 X-0.4807 Y-0.0494
G01 X-0.4831 Y-0.0397
G01 X-0.4927 Y0.0084
G01 X-0.4941 Y0.0183
G01 X-0.4990 Y0.0671
G01 X-0.5000 Y0.1016
G01 X-0.5000 Y6.5000
G00 Z2.0000
G00 X-0.5000 Y11.5000
G01 F60.00
G01 Z-0.6000
G01 F120.00
G01 X-0.5000 Y17.9070
G01 X-0.4990 Y17.9415
G01 X-0.4941 Y17.9903
G01 X-0.4927 Y18.0002
G01 X-0.4831 Y18.0483
G01 X-0.4807 Y18.0580
G01 X-0.4664 Y18.1050
G01 X-0.4631 Y18.1143
G01 X-0.4441 Y18.1602
G01 X-0.4400 Y18.1687
G01 X-0.4169 Y18.2120
G01 X-0.4118 Y18.2205
G01 X-0.3845 Y18.2613
G01 X-0.3790 Y18.2687
G01 X-0.3475 Y18.3073
G01 X-0.3408 Y18.3147
G01 X-0.3061 Y18.3494
G01 X-0.2987 Y18.3561
G01 X-0.2607 Y18.3872
G01 X-0.2527 Y18.3931
G01 X-0.2119 Y18.4204
G01 X-0.2034 Y18.4255
G01 X-0.1601 Y18.4486
G01 X-0.1511 Y18.4529
G01 X-0.1057 Y18.4717
G01 X-0.0964 Y18.4750
G01 X-0.0494 Y18.4893
G01 X-0.0397 Y18.4917
G01 X0.0084 Y18.5013
G01 X0.0183 Y18.5027
G01 X0.0671 Y18.5076
G01 X0.1016 Y18.5086
G01 X18.5000 Y18.5086
G00 X18.5000 Y18.5086
G01 F60.00
G01 Z-0.8000
G01 F120.00
G01 X0.1016 Y18.5086
G01 X0.0671 Y18.5076
G01 X0.0183 Y18.5027
G01 X0.0084 Y18.5013
G01 X-0.0397 Y18.4917
G01 X-0.0494 Y18.4893
G01 X-0.0964 Y18.4750
G01 X-0.1057 Y18.4717
G01 X-0.1511 Y18.4529
G01 X-0.1601 Y18.4486
G01 X-0.2034 Y18.4255
G01 X-0.2119 Y18.4204
G01 X-0.2527 Y18.3931
G01 X-0.2607 Y18.3872
G01 X-0.2987 Y18.3561
G01 X-0.3061 Y18.3494
G01 X-0.3408 Y18.3147
G01 X-0.3475 Y18.3073
G01 X-0.3790 Y18.2687
G01 X-0.3845 Y18.2613
G01 X-0.4118 Y18.2205
G01 X-0.4169 Y18.2120
G01 X-0.4400 Y18.1687
G01 X-0.4441 Y18.1602
G01 X-0.4631 Y18.1143
G01 X-0.4664 Y18.1050
G01 X-0.4807 Y18.0580
G01 X-0.4831 Y18.0483
G01 X-0.4927 Y18.0002
G01 X-0.4941 Y17.9903
G01 X-0.4990 Y17.9415
G01 X-0.5000 Y17.9070
G01 X-0.5000 Y11.5000
G00 Z2.0000
G00 X23.5000 Y18.5086
G01 F60.00
G01 Z-0.6000
G01 F120.00
G01 X44.9072 Y18.5086
G01 X44.9417 Y18.5076
G01 X44.9905 Y18.5027
G01 X45.0004 Y18.5013
G01 X45.0485 Y18.4917
G01 X45.0582 Y18.4893
G01 X45.1052 Y18.4750
G01 X45.1145 Y18.4717
G01 X45.1599 Y18.4529
G01 X45.1689 Y18.4486
G01 X45.2122 Y18.4255
G01 X45.2207 Y18.4204
G01 X45.2615 Y18.3931
G01 X45.2695 Y18.3872
G01 X45.3075 Y18.3561
G01 X45.3149 Y18.3494
G01 X45.3496 Y18.3147
G01 X45.3563 Y18.3073
G01 X45.3874 Y18.2693
G01 X45.3933 Y18.2613
G01 X45.4206 Y18.2205
G01 X45.4257 Y18.2120
G01 X45.4488 Y18.1687
G01 X45.4531 Y18.1597
G01 X45.4719 Y18.1143
G01 X45.4752 Y18.1050
G01 X45.4895 Y18.0580
G01 X45.4919 Y18.0483
G01 X45.5015 Y18.0002
G01 X45.5029 Y17.9903
G01 X45.5078 Y17.9415
G01 X45.5088 Y17.9070
G01 X45.5088 Y11.5000
G00 X45.5088 Y11.5000
G01 F60.00
G01 Z-0.8000
G01 F120.00
G01 X45.5088 Y17.9070
G01 X45.5078 Y17.9415
G01 X45.5029 Y17.9903
G01 X45.5015 Y18.0002
G01 X45.4919 Y18.0483
G01 X45.4895 Y18.0580
G01 X45.4752 Y18.1050
G01 X45.4719 Y18.1143
G01 X45.4531 Y18.1597
G01 X45.4488 Y18.1687
G01 X45.4257 Y18.2120
G01 X45.4206 Y18.2205
G01 X45.3933 Y18.2613
G01 X45.3874 Y18.2693
G01 X45.3563 Y18.3073
G01 X45.3496 Y18.3147
G01 X45.3149 Y18.3494
G01 X45.3075 Y18.3561
G01 X45.2695 Y18.3872
G01 X45.2615 Y18.3931
G01 X45.2207 Y18.4204
G01 X45.2122 Y18.4255
G01 X45.1689 Y18.4486
G01 X45.1599 Y18.4529
G01 X45.1145 Y18.4717
G01 X45.1052 Y18.4750
G01 X45.0582 Y18.4893
G01 X45.0485 Y18.4917
G01 X45.0004 Y18.5013
G01 X44.9905 Y18.5027
G01 X44.9417 Y18.5076
G01 X44.9072 Y18.5086
G01 X23.5000 Y18.5086
G00 Z2.0000
G00 X45.5088 Y6.5000
G01 F60.00
G01 Z-0.6000
G01 F120.00
G01 X45.5088 Y0.1016
G01 X45.5078 Y0.0671
G01 X45.5029 Y0.0183
G01 X45.5015 Y0.0084
G01 X45.4919 Y-0.0397
G01 X45.4895 Y-0.0494
G01 X45.4752 Y-0.0964
G01 X45.4719 Y-0.1057
G01 X45.4531 Y-0.1511
G01 X45.4488 Y-0.1601
G01 X45.4257 Y-0.2034
G01 X45.4206 Y-0.2119
G01 X45.3933 Y-0.2527
G01 X45.3874 Y-0.2607
G01 X45.3563 Y-0.2987
G01 X45.3496 Y-0.3061
G01 X45.3149 Y-0.3408
G01 X45.3075 Y-0.3475
G01 X45.2695 Y-0.3786
G01 X45.2615 Y-0.3845
G01 X45.2207 Y-0.4118
G01 X45.2122 Y-0.4169
G01 X45.1689 Y-0.4400
G01 X45.1599 Y-0.4443
G01 X45.1145 Y-0.4631
G01 X45.1052 Y-0.4664
G01 X45.0582 Y-0.4807
G01 X45.0485 Y-0.4831
G01 X45.0004 Y-0.4927
G01 X44.9905 Y-0.4941
G01 X44.9417 Y-0.4990
G01 X44.9072 Y-0.5000
G01 X23.5000 Y-0.5000
G00 X23.5000 Y-0.5000
G01 F60.00
G01 Z-0.8000
G01 F120.00
G01 X44.9072 Y-0.5000
G01 X44.9417 Y-0.4990
G01 X44.9905 Y-0.4941
G01 X45.0004 Y-0.4927
G01 X45.0485 Y-0.4831
G01 X45.0582 Y-0.4807
G01 X45.1052 Y-0.4664
G01 X45.1145 Y-0.4631
G01 X45.1599 Y-0.4443
G01 X45.1689 Y-0.4400
G01 X45.2122 Y-0.4169
G01 X45.2207 Y-0.4118
G01 X45.2615 Y-0.3845
G01 X45.2695 Y-0.3786
G01 X45.3075 Y-0.3475
G01 X45.3149 Y-0.3408
G01 X45.3496 Y-0.3061
G01 X45.3563 Y-0.2987
G01 X45.3874 Y-0.2607
G01 X45.3933 Y-0.2527
G01 X45.4206 Y-0.2119
G01 X45.4257 Y-0.2034
G01 X45.4488 Y-0.1601
G01 X45.4531 Y-0.1511
G01 X45.4719 Y-0.1057
G01 X45.4752 Y-0.0964
G01 X45.4895 Y-0.0494
G01 X45.4919 Y-0.0397
G01 X45.5015 Y0.0084
G01 X45.5029 Y0.0183
G01 X45.5078 Y0.0671
G01 X45.5088 Y0.1016
G01 X45.5088 Y6.5000
G00 Z2.0000
M05
G00 Z2.0000
G00 Z15.00


